; generated by PrusaSlicer 2.6.0+win64 on 2024-02-07 at 13:17:23 UTC


;
;
; 

; external perimeters extrusion width = 0.45mm
; perimeters extrusion width = 0.45mm
; infill extrusion width = 0.45mm
; solid infill extrusion width = 0.45mm
; top infill extrusion width = 0.40mm
; support material extrusion width = 0.35mm
; first layer extrusion width = 0.42mm

M73 P0 R214
M73 Q0 S221
M201 X1000 Y1000 Z200 E5000 ; sets maximum accelerations, mm/sec^2
M203 X200 Y200 Z12 E120 ; sets maximum feedrates, mm / sec
M204 S1250 T1250 ; sets acceleration (S) and retract acceleration (R), mm/sec^2
M205 X8.00 Y8.00 Z0.40 E4.50 ; sets the jerk limits, mm/sec
M205 S0 T0 ; sets the minimum extruding and travel feed rate, mm/sec
;TYPE:Custom
M862.3 P "MK3S" ; printer model check
M862.1 P0.4 ; nozzle diameter check
M115 U3.12.2 ; tell printer latest fw version
G90 ; use absolute coordinates
M83 ; extruder relative mode
M104 S215 ; set extruder temp
M140 S60 ; set bed temp
M190 S60 ; wait for bed temp
M109 S215 ; wait for extruder temp
G28 W ; home all without mesh bed level
G80 ; mesh bed leveling

G1 Z0.2 F720
G1 Y-3 F1000 ; go outside print area
G92 E0
G1 X60 E9 F1000 ; intro line
G1 X100 E12.5 F1000 ; intro line

G92 E0
M221 S95

; Don't change E values below. Excessive value can damage the printer.

M907 E538 ; set extruder motor current
G21 ; set units to millimeters
G90 ; use absolute coordinates
M83 ; use relative distances for extrusion
M900 K0.05 ; Filament gcode LA 1.5
M900 K30 ; Filament gcode LA 1.0
M107
;LAYER_CHANGE
;Z:0.2
;HEIGHT:0.2
;BEFORE_LAYER_CHANGE
G92 E0.0
;0.2


G1 E-.8 F2100
G1 Z.4 F720
;AFTER_LAYER_CHANGE
;0.2
G1 X52.332 Y59.808 F10800
G1 Z.2 F720
G1 E.8 F2100
M204 S800
;TYPE:Skirt/Brim
;WIDTH:0.42
G1 F1200
G1 X80.935 Y34.781 E1.19166
G1 X82.5 Y34.193 E.05242
G1 X207.5 Y34.193 E3.91929
G1 X208.807 Y34.585 E.04278
M73 P0 R213
M73 Q0 S220
G1 X209.683 Y35.63 E.04275
G1 X209.876 Y36.496 E.02782
G1 X213.374 Y148.124 E3.50174
G1 X213.375 Y177.156 E.91028
G1 X212.984 Y178.463 E.04277
G1 X211.938 Y179.339 E.04278
G1 X210.998 Y179.533 E.03009
G1 X39.002 Y179.533 E5.39281
G1 X37.695 Y179.141 E.04278
G1 X36.818 Y178.096 E.04277
G1 X36.625 Y177.156 E.03009
G1 X36.625 Y148.198 E.90796
G1 X40.125 Y71.462 E2.4085
G1 X40.935 Y69.781 E.05851
G1 X52.287 Y59.848 E.47295
M204 S1000
; printing object c3.6b_cover_back_bottom_right.stl id:0 copy 0
;WIPE_START
G1 F8640
G1 X54.894 Y57.567 E-.8
;WIPE_END
G1 Z.6 F720
G1 X42.02 Y153.629 F10800
G1 Z.2 F720
G1 E.8 F2100
M204 S800
;TYPE:Support material
G1 F1200
G1 X42.301 Y153.91 E.01246
G1 X207.699 Y153.91 E5.18594
G1 X207.98 Y153.629 E.01246
G1 X207.98 Y148.198 E.17029
G1 X210.998 Y148.198 E.09463
G1 X210.998 Y177.156 E.90796
G1 X39.002 Y177.156 E5.39281
G1 X39.002 Y148.198 E.90796
G1 X42.02 Y148.198 E.09463
G1 X42.02 Y153.572 E.1685
M204 S1000
;WIPE_START
G1 F8640
G1 X42.02 Y150.107 E-.8
;WIPE_END
G1 Z.6 F720
G1 X210.471 Y176.986 F10800
G1 Z.2 F720
G1 E.8 F2100
M204 S800
G1 F1200
G1 X210.471 Y148.538 E.89197
G1 X210.052 Y148.538 E.01314
G1 X210.052 Y176.816 E.88664
G1 X209.633 Y176.816 E.01314
G1 X209.633 Y148.538 E.88664
G1 X209.214 Y148.538 E.01314
G1 X209.214 Y176.816 E.88664
G1 X208.795 Y176.816 E.01314
G1 X208.795 Y148.538 E.88664
G1 X208.376 Y148.538 E.01314
G1 X208.376 Y176.816 E.88664
G1 X207.957 Y176.816 E.01314
M73 Q0 S219
G1 X207.957 Y154.131 E.71127
G1 X207.839 Y154.249 E.00523
M73 P0 R212
G1 X207.538 Y154.249 E.00944
G1 X207.538 Y176.816 E.70757
G1 X207.119 Y176.816 E.01314
G1 X207.119 Y154.249 E.70757
G1 X206.701 Y154.249 E.01311
G1 X206.701 Y176.816 E.70757
G1 X206.282 Y176.816 E.01314
G1 X206.282 Y154.249 E.70757
G1 X205.863 Y154.249 E.01314
G1 X205.863 Y176.816 E.70757
G1 X205.444 Y176.816 E.01314
G1 X205.444 Y154.249 E.70757
G1 X205.025 Y154.249 E.01314
G1 X205.025 Y176.816 E.70757
G1 X204.606 Y176.816 E.01314
G1 X204.606 Y154.249 E.70757
G1 X204.187 Y154.249 E.01314
G1 X204.187 Y176.816 E.70757
G1 X203.768 Y176.816 E.01314
G1 X203.768 Y154.249 E.70757
G1 X203.349 Y154.249 E.01314
G1 X203.349 Y176.816 E.70757
G1 X202.93 Y176.816 E.01314
G1 X202.93 Y154.249 E.70757
G1 X202.511 Y154.249 E.01314
G1 X202.511 Y176.816 E.70757
G1 X202.092 Y176.816 E.01314
G1 X202.092 Y154.249 E.70757
G1 X201.673 Y154.249 E.01314
G1 X201.673 Y176.816 E.70757
G1 X201.254 Y176.816 E.01314
G1 X201.254 Y154.249 E.70757
G1 X200.835 Y154.249 E.01314
G1 X200.835 Y176.816 E.70757
G1 X200.416 Y176.816 E.01314
G1 X200.416 Y154.249 E.70757
G1 X199.997 Y154.249 E.01314
G1 X199.997 Y176.816 E.70757
G1 X199.578 Y176.816 E.01314
G1 X199.578 Y154.249 E.70757
G1 X199.159 Y154.249 E.01314
G1 X199.159 Y176.816 E.70757
G1 X198.74 Y176.816 E.01314
G1 X198.74 Y154.249 E.70757
G1 X198.321 Y154.249 E.01314
G1 X198.321 Y176.816 E.70757
G1 X197.902 Y176.816 E.01314
G1 X197.902 Y154.249 E.70757
G1 X197.483 Y154.249 E.01314
G1 X197.483 Y176.816 E.70757
G1 X197.064 Y176.816 E.01314
G1 X197.064 Y154.249 E.70757
G1 X196.645 Y154.249 E.01314
G1 X196.645 Y176.816 E.70757
G1 X196.226 Y176.816 E.01314
G1 X196.226 Y154.249 E.70757
G1 X195.807 Y154.249 E.01314
G1 X195.807 Y176.816 E.70757
G1 X195.388 Y176.816 E.01314
G1 X195.388 Y154.249 E.70757
G1 X194.969 Y154.249 E.01314
G1 X194.969 Y176.816 E.70757
G1 X194.55 Y176.816 E.01314
G1 X194.55 Y154.249 E.70757
G1 X194.131 Y154.249 E.01314
G1 X194.131 Y176.816 E.70757
G1 X193.712 Y176.816 E.01314
G1 X193.712 Y154.249 E.70757
G1 X193.293 Y154.249 E.01314
G1 X193.293 Y176.816 E.70757
G1 X192.874 Y176.816 E.01314
G1 X192.874 Y154.249 E.70757
G1 X192.455 Y154.249 E.01314
G1 X192.455 Y176.816 E.70757
G1 X192.036 Y176.816 E.01314
G1 X192.036 Y154.249 E.70757
G1 X191.617 Y154.249 E.01314
G1 X191.617 Y176.816 E.70757
G1 X191.198 Y176.816 E.01314
G1 X191.198 Y154.249 E.70757
G1 X190.779 Y154.249 E.01314
G1 X190.779 Y176.816 E.70757
G1 X190.36 Y176.816 E.01314
G1 X190.36 Y154.249 E.70757
G1 X189.941 Y154.249 E.01314
G1 X189.941 Y176.816 E.70757
G1 X189.522 Y176.816 E.01314
G1 X189.522 Y154.249 E.70757
G1 X189.103 Y154.249 E.01314
G1 X189.103 Y176.816 E.70757
G1 X188.684 Y176.816 E.01314
G1 X188.685 Y154.249 E.70757
G1 X188.266 Y154.249 E.01314
G1 X188.266 Y176.816 E.70757
G1 X187.847 Y176.816 E.01314
G1 X187.847 Y154.249 E.70757
G1 X187.428 Y154.249 E.01314
G1 X187.428 Y176.816 E.70757
G1 X187.009 Y176.816 E.01314
G1 X187.009 Y154.249 E.70757
G1 X186.59 Y154.249 E.01314
M73 P1 R212
M73 Q0 S218
G1 X186.59 Y176.816 E.70757
G1 X186.171 Y176.816 E.01314
G1 X186.171 Y154.249 E.70757
G1 X185.752 Y154.249 E.01314
M73 P1 R211
G1 X185.752 Y176.816 E.70757
G1 X185.333 Y176.816 E.01314
M73 Q1 S218
G1 X185.333 Y154.249 E.70757
G1 X184.914 Y154.249 E.01314
G1 X184.914 Y176.816 E.70757
G1 X184.495 Y176.816 E.01314
G1 X184.495 Y154.249 E.70757
G1 X184.076 Y154.249 E.01314
G1 X184.076 Y176.816 E.70757
G1 X183.657 Y176.816 E.01314
G1 X183.657 Y154.249 E.70757
G1 X183.238 Y154.249 E.01314
G1 X183.238 Y176.816 E.70757
G1 X182.819 Y176.816 E.01314
G1 X182.819 Y154.249 E.70757
G1 X182.4 Y154.249 E.01314
G1 X182.4 Y176.816 E.70757
G1 X181.981 Y176.816 E.01314
G1 X181.981 Y154.249 E.70757
G1 X181.562 Y154.249 E.01314
G1 X181.562 Y176.816 E.70757
G1 X181.143 Y176.816 E.01314
G1 X181.143 Y154.249 E.70757
G1 X180.724 Y154.249 E.01314
G1 X180.724 Y176.816 E.70757
G1 X180.305 Y176.816 E.01314
G1 X180.305 Y154.249 E.70757
G1 X179.886 Y154.249 E.01314
G1 X179.886 Y176.816 E.70757
G1 X179.467 Y176.816 E.01314
G1 X179.467 Y154.249 E.70757
G1 X179.048 Y154.249 E.01314
G1 X179.048 Y176.816 E.70757
G1 X178.629 Y176.816 E.01314
G1 X178.629 Y154.249 E.70757
G1 X178.21 Y154.249 E.01314
G1 X178.21 Y176.816 E.70757
G1 X177.791 Y176.816 E.01314
G1 X177.791 Y154.249 E.70757
G1 X177.372 Y154.249 E.01314
G1 X177.372 Y176.816 E.70757
G1 X176.953 Y176.816 E.01314
G1 X176.953 Y154.249 E.70757
G1 X176.534 Y154.249 E.01314
G1 X176.534 Y176.816 E.70757
G1 X176.115 Y176.816 E.01314
G1 X176.115 Y154.249 E.70757
G1 X175.696 Y154.249 E.01314
G1 X175.696 Y176.816 E.70757
G1 X175.277 Y176.816 E.01314
G1 X175.277 Y154.249 E.70757
G1 X174.858 Y154.249 E.01314
G1 X174.858 Y176.816 E.70757
G1 X174.439 Y176.816 E.01314
G1 X174.439 Y154.249 E.70757
G1 X174.02 Y154.249 E.01314
G1 X174.02 Y176.816 E.70757
G1 X173.601 Y176.816 E.01314
G1 X173.601 Y154.249 E.70757
G1 X173.182 Y154.249 E.01314
G1 X173.182 Y176.816 E.70757
G1 X172.763 Y176.816 E.01314
G1 X172.763 Y154.249 E.70757
G1 X172.344 Y154.249 E.01314
G1 X172.344 Y176.816 E.70757
G1 X171.925 Y176.816 E.01314
G1 X171.925 Y154.249 E.70757
G1 X171.506 Y154.249 E.01314
G1 X171.506 Y176.816 E.70757
G1 X171.087 Y176.816 E.01314
G1 X171.087 Y154.249 E.70757
G1 X170.668 Y154.249 E.01314
G1 X170.668 Y176.816 E.70757
G1 X170.25 Y176.816 E.01311
G1 X170.25 Y154.249 E.70757
G1 X169.831 Y154.249 E.01314
G1 X169.831 Y176.816 E.70757
G1 X169.412 Y176.816 E.01314
G1 X169.412 Y154.249 E.70757
G1 X168.993 Y154.249 E.01314
G1 X168.993 Y176.816 E.70757
G1 X168.574 Y176.816 E.01314
G1 X168.574 Y154.249 E.70757
G1 X168.155 Y154.249 E.01314
G1 X168.155 Y176.816 E.70757
G1 X167.736 Y176.816 E.01314
G1 X167.736 Y154.249 E.70757
G1 X167.317 Y154.249 E.01314
G1 X167.317 Y176.816 E.70757
G1 X166.898 Y176.816 E.01314
G1 X166.898 Y154.249 E.70757
G1 X166.479 Y154.249 E.01314
G1 X166.479 Y176.816 E.70757
G1 X166.06 Y176.816 E.01314
G1 X166.06 Y154.249 E.70757
G1 X165.641 Y154.249 E.01314
G1 X165.641 Y176.816 E.70757
G1 X165.222 Y176.816 E.01314
M73 Q1 S217
G1 X165.222 Y154.249 E.70757
G1 X164.803 Y154.249 E.01314
G1 X164.803 Y176.816 E.70757
G1 X164.384 Y176.816 E.01314
M73 P1 R210
G1 X164.384 Y154.249 E.70757
G1 X163.965 Y154.249 E.01314
G1 X163.965 Y176.816 E.70757
G1 X163.546 Y176.816 E.01314
G1 X163.546 Y154.249 E.70757
G1 X163.127 Y154.249 E.01314
G1 X163.127 Y176.816 E.70757
G1 X162.708 Y176.816 E.01314
G1 X162.708 Y154.249 E.70757
G1 X162.289 Y154.249 E.01314
G1 X162.289 Y176.816 E.70757
G1 X161.87 Y176.816 E.01314
G1 X161.87 Y154.249 E.70757
G1 X161.451 Y154.249 E.01314
G1 X161.451 Y176.816 E.70757
G1 X161.032 Y176.816 E.01314
G1 X161.032 Y154.249 E.70757
G1 X160.613 Y154.249 E.01314
G1 X160.613 Y176.816 E.70757
G1 X160.194 Y176.816 E.01314
G1 X160.194 Y154.249 E.70757
G1 X159.775 Y154.249 E.01314
G1 X159.775 Y176.816 E.70757
G1 X159.356 Y176.816 E.01314
G1 X159.356 Y154.249 E.70757
G1 X158.937 Y154.249 E.01314
G1 X158.937 Y176.816 E.70757
G1 X158.518 Y176.816 E.01314
G1 X158.518 Y154.249 E.70757
G1 X158.099 Y154.249 E.01314
G1 X158.099 Y176.816 E.70757
G1 X157.68 Y176.816 E.01314
G1 X157.68 Y154.249 E.70757
G1 X157.261 Y154.249 E.01314
G1 X157.261 Y176.816 E.70757
G1 X156.842 Y176.816 E.01314
G1 X156.842 Y154.249 E.70757
G1 X156.423 Y154.249 E.01314
G1 X156.423 Y176.816 E.70757
G1 X156.004 Y176.816 E.01314
G1 X156.004 Y154.249 E.70757
G1 X155.585 Y154.249 E.01314
G1 X155.585 Y176.816 E.70757
G1 X155.166 Y176.816 E.01314
G1 X155.166 Y154.249 E.70757
G1 X154.747 Y154.249 E.01314
G1 X154.747 Y176.816 E.70757
G1 X154.328 Y176.816 E.01314
G1 X154.328 Y154.249 E.70757
G1 X153.909 Y154.249 E.01314
G1 X153.909 Y176.816 E.70757
G1 X153.49 Y176.816 E.01314
G1 X153.49 Y154.249 E.70757
G1 X153.071 Y154.249 E.01314
G1 X153.071 Y176.816 E.70757
G1 X152.652 Y176.816 E.01314
G1 X152.652 Y154.249 E.70757
G1 X152.234 Y154.249 E.01311
G1 X152.233 Y176.816 E.70757
G1 X151.815 Y176.816 E.01311
G1 X151.815 Y154.249 E.70757
G1 X151.396 Y154.249 E.01314
G1 X151.396 Y176.816 E.70757
G1 X150.977 Y176.816 E.01314
G1 X150.977 Y154.249 E.70757
G1 X150.558 Y154.249 E.01314
G1 X150.558 Y176.816 E.70757
G1 X150.139 Y176.816 E.01314
G1 X150.139 Y154.249 E.70757
G1 X149.72 Y154.249 E.01314
G1 X149.72 Y176.816 E.70757
G1 X149.301 Y176.816 E.01314
G1 X149.301 Y154.249 E.70757
G1 X148.882 Y154.249 E.01314
G1 X148.882 Y176.816 E.70757
G1 X148.463 Y176.816 E.01314
G1 X148.463 Y154.249 E.70757
G1 X148.044 Y154.249 E.01314
G1 X148.044 Y176.816 E.70757
G1 X147.625 Y176.816 E.01314
G1 X147.625 Y154.249 E.70757
G1 X147.206 Y154.249 E.01314
G1 X147.206 Y176.816 E.70757
G1 X146.787 Y176.816 E.01314
G1 X146.787 Y154.249 E.70757
G1 X146.368 Y154.249 E.01314
G1 X146.368 Y176.816 E.70757
G1 X145.949 Y176.816 E.01314
G1 X145.949 Y154.249 E.70757
G1 X145.53 Y154.249 E.01314
G1 X145.53 Y176.816 E.70757
G1 X145.111 Y176.816 E.01314
G1 X145.111 Y154.249 E.70757
G1 X144.692 Y154.249 E.01314
G1 X144.692 Y176.816 E.70757
G1 X144.273 Y176.816 E.01314
G1 X144.273 Y154.249 E.70757
G1 X143.854 Y154.249 E.01314
G1 X143.854 Y176.816 E.70757
G1 X143.435 Y176.816 E.01314
M73 Q1 S216
G1 X143.435 Y154.249 E.70757
G1 X143.016 Y154.249 E.01314
M73 P1 R209
G1 X143.016 Y176.816 E.70757
G1 X142.597 Y176.816 E.01314
G1 X142.597 Y154.249 E.70757
G1 X142.178 Y154.249 E.01314
G1 X142.178 Y176.816 E.70757
G1 X141.759 Y176.816 E.01314
G1 X141.759 Y154.249 E.70757
G1 X141.34 Y154.249 E.01314
G1 X141.34 Y176.816 E.70757
G1 X140.921 Y176.816 E.01314
G1 X140.921 Y154.249 E.70757
G1 X140.502 Y154.249 E.01314
M73 P2 R209
G1 X140.502 Y176.816 E.70757
G1 X140.083 Y176.816 E.01314
G1 X140.083 Y154.249 E.70757
G1 X139.664 Y154.249 E.01314
G1 X139.664 Y176.816 E.70757
G1 X139.245 Y176.816 E.01314
G1 X139.245 Y154.249 E.70757
G1 X138.826 Y154.249 E.01314
G1 X138.826 Y176.816 E.70757
G1 X138.407 Y176.816 E.01314
G1 X138.407 Y154.249 E.70757
G1 X137.988 Y154.249 E.01314
M73 Q2 S216
G1 X137.988 Y176.816 E.70757
G1 X137.569 Y176.816 E.01314
G1 X137.569 Y154.249 E.70757
G1 X137.15 Y154.249 E.01314
G1 X137.15 Y176.816 E.70757
G1 X136.731 Y176.816 E.01314
G1 X136.731 Y154.249 E.70757
G1 X136.312 Y154.249 E.01314
G1 X136.312 Y176.816 E.70757
G1 X135.893 Y176.816 E.01314
G1 X135.893 Y154.249 E.70757
G1 X135.474 Y154.249 E.01314
G1 X135.474 Y176.816 E.70757
G1 X135.055 Y176.816 E.01314
G1 X135.055 Y154.249 E.70757
G1 X134.636 Y154.249 E.01314
G1 X134.636 Y176.816 E.70757
G1 X134.217 Y176.816 E.01314
G1 X134.217 Y154.249 E.70757
G1 X133.799 Y154.249 E.01311
G1 X133.799 Y176.816 E.70757
G1 X133.38 Y176.816 E.01314
G1 X133.38 Y154.249 E.70757
G1 X132.961 Y154.249 E.01314
G1 X132.961 Y176.816 E.70757
G1 X132.542 Y176.816 E.01314
G1 X132.542 Y154.249 E.70757
G1 X132.123 Y154.249 E.01314
G1 X132.123 Y176.816 E.70757
G1 X131.704 Y176.816 E.01314
G1 X131.704 Y154.249 E.70757
G1 X131.285 Y154.249 E.01314
G1 X131.285 Y176.816 E.70757
G1 X130.866 Y176.816 E.01314
G1 X130.866 Y154.249 E.70757
G1 X130.447 Y154.249 E.01314
G1 X130.447 Y176.816 E.70757
G1 X130.028 Y176.816 E.01314
G1 X130.028 Y154.249 E.70757
G1 X129.609 Y154.249 E.01314
G1 X129.609 Y176.816 E.70757
G1 X129.19 Y176.816 E.01314
G1 X129.19 Y154.249 E.70757
G1 X128.771 Y154.249 E.01314
G1 X128.771 Y176.816 E.70757
G1 X128.352 Y176.816 E.01314
G1 X128.352 Y154.249 E.70757
G1 X127.933 Y154.249 E.01314
G1 X127.933 Y176.816 E.70757
G1 X127.514 Y176.816 E.01314
G1 X127.514 Y154.249 E.70757
G1 X127.095 Y154.249 E.01314
G1 X127.095 Y176.816 E.70757
G1 X126.676 Y176.816 E.01314
G1 X126.676 Y154.249 E.70757
G1 X126.257 Y154.249 E.01314
G1 X126.257 Y176.816 E.70757
G1 X125.838 Y176.816 E.01314
G1 X125.838 Y154.249 E.70757
G1 X125.419 Y154.249 E.01314
G1 X125.419 Y176.816 E.70757
G1 X125 Y176.816 E.01314
G1 X125 Y154.249 E.70757
G1 X124.581 Y154.249 E.01314
G1 X124.581 Y176.816 E.70757
G1 X124.162 Y176.816 E.01314
G1 X124.162 Y154.249 E.70757
G1 X123.743 Y154.249 E.01314
G1 X123.743 Y176.816 E.70757
G1 X123.324 Y176.816 E.01314
G1 X123.324 Y154.249 E.70757
G1 X122.905 Y154.249 E.01314
G1 X122.905 Y176.816 E.70757
G1 X122.486 Y176.816 E.01314
G1 X122.486 Y154.249 E.70757
G1 X122.067 Y154.249 E.01314
M73 Q2 S215
G1 X122.067 Y176.816 E.70757
G1 X121.648 Y176.816 E.01314
G1 X121.648 Y154.249 E.70757
G1 X121.229 Y154.249 E.01314
M73 P2 R208
G1 X121.229 Y176.816 E.70757
G1 X120.81 Y176.816 E.01314
G1 X120.81 Y154.249 E.70757
G1 X120.391 Y154.249 E.01314
G1 X120.391 Y176.816 E.70757
G1 X119.972 Y176.816 E.01314
G1 X119.972 Y154.249 E.70757
G1 X119.553 Y154.249 E.01314
G1 X119.553 Y176.816 E.70757
G1 X119.134 Y176.816 E.01314
G1 X119.134 Y154.249 E.70757
G1 X118.715 Y154.249 E.01314
G1 X118.715 Y176.816 E.70757
G1 X118.296 Y176.816 E.01314
G1 X118.296 Y154.249 E.70757
G1 X117.877 Y154.249 E.01314
G1 X117.877 Y176.816 E.70757
G1 X117.458 Y176.816 E.01314
