; generated by PrusaSlicer 2.6.0+win64 on 2024-02-07 at 13:16:04 UTC


;
;
; 

; external perimeters extrusion width = 0.45mm
; perimeters extrusion width = 0.45mm
; infill extrusion width = 0.45mm
; solid infill extrusion width = 0.45mm
; top infill extrusion width = 0.40mm
; support material extrusion width = 0.35mm
; first layer extrusion width = 0.42mm

M73 P0 R214
M73 Q0 S221
M201 X1000 Y1000 Z200 E5000 ; sets maximum accelerations, mm/sec^2
M203 X200 Y200 Z12 E120 ; sets maximum feedrates, mm / sec
M204 S1250 T1250 ; sets acceleration (S) and retract acceleration (R), mm/sec^2
M205 X8.00 Y8.00 Z0.40 E4.50 ; sets the jerk limits, mm/sec
M205 S0 T0 ; sets the minimum extruding and travel feed rate, mm/sec
;TYPE:Custom
M862.3 P "MK3S" ; printer model check
M862.1 P0.4 ; nozzle diameter check
M115 U3.12.2 ; tell printer latest fw version
G90 ; use absolute coordinates
M83 ; extruder relative mode
M104 S215 ; set extruder temp
M140 S60 ; set bed temp
M190 S60 ; wait for bed temp
M109 S215 ; wait for extruder temp
G28 W ; home all without mesh bed level
G80 ; mesh bed leveling

G1 Z0.2 F720
G1 Y-3 F1000 ; go outside print area
G92 E0
G1 X60 E9 F1000 ; intro line
G1 X100 E12.5 F1000 ; intro line

G92 E0
M221 S95

; Don't change E values below. Excessive value can damage the printer.

M907 E538 ; set extruder motor current
G21 ; set units to millimeters
G90 ; use absolute coordinates
M83 ; use relative distances for extrusion
M900 K0.05 ; Filament gcode LA 1.5
M900 K30 ; Filament gcode LA 1.0
M107
;LAYER_CHANGE
;Z:0.2
;HEIGHT:0.2
;BEFORE_LAYER_CHANGE
G92 E0.0
;0.2


G1 E-.8 F2100
G1 Z.4 F720
;AFTER_LAYER_CHANGE
;0.2
G1 X37.016 Y31.537 F10800
G1 Z.2 F720
G1 E.8 F2100
M204 S800
;TYPE:Skirt/Brim
;WIDTH:0.42
G1 F1200
G1 X38.062 Y30.661 E.04278
G1 X39.002 Y30.467 E.03009
G1 X210.998 Y30.467 E5.39281
G1 X212.305 Y30.859 E.04278
M73 P0 R213
M73 Q0 S220
G1 X213.182 Y31.904 E.04277
G1 X213.375 Y32.844 E.03009
G1 X213.374 Y61.876 E.91028
G1 X209.876 Y173.504 E3.50174
G1 X209.444 Y174.799 E.0428
G1 X208.371 Y175.642 E.04278
G1 X207.5 Y175.807 E.0278
G1 X82.5 Y175.807 E3.91929
G1 X80.935 Y175.219 E.05242
G1 X40.935 Y140.219 E1.6665
G1 X40.125 Y138.538 E.05851
G1 X36.627 Y61.91 E2.40512
G1 X36.625 Y32.844 E.91134
G1 X36.999 Y31.595 E.04088
M204 S1000
; printing object c3.6a_cover_back_bottom_left.stl id:0 copy 0
;WIPE_START
G1 F8640
G1 X38.062 Y30.661 E-.32674
G1 X39.002 Y30.467 E-.22162
G1 X40.092 Y30.467 E-.25164
;WIPE_END
G1 Z.6 F720
G1 X210.998 Y61.802 F10800
G1 Z.2 F720
G1 E.8 F2100
M204 S800
;TYPE:Support material
G1 F1200
G1 X207.98 Y61.802 E.09463
G1 X207.98 Y56.371 E.17029
G1 X207.699 Y56.09 E.01246
G1 X42.301 Y56.09 E5.18594
G1 X42.02 Y56.371 E.01246
G1 X42.02 Y61.802 E.17029
G1 X39.002 Y61.802 E.09463
G1 X39.002 Y32.844 E.90796
G1 X210.998 Y32.844 E5.39281
G1 X210.998 Y61.745 E.90617
M204 S1000
G1 X210.471 Y61.632 F10800
M204 S800
G1 F1200
G1 X210.471 Y33.184 E.89197
G1 X210.052 Y33.184 E.01314
G1 X210.052 Y61.462 E.88664
G1 X209.633 Y61.462 E.01314
G1 X209.633 Y33.184 E.88664
G1 X209.214 Y33.184 E.01314
G1 X209.214 Y61.462 E.88664
G1 X208.795 Y61.462 E.01314
G1 X208.795 Y33.184 E.88664
G1 X208.376 Y33.184 E.01314
G1 X208.376 Y61.462 E.88664
G1 X208.319 Y61.462 E.00179
G1 X208.319 Y56.231 E.16401
G1 X207.957 Y55.869 E.01605
G1 X207.957 Y33.184 E.71127
G1 X207.538 Y33.184 E.01314
G1 X207.538 Y55.751 E.70757
G1 X207.119 Y55.751 E.01314
M73 Q0 S219
G1 X207.119 Y33.184 E.70757
G1 X206.701 Y33.184 E.01311
M73 P0 R212
G1 X206.701 Y55.751 E.70757
G1 X206.282 Y55.751 E.01314
G1 X206.282 Y33.184 E.70757
G1 X205.863 Y33.184 E.01314
G1 X205.863 Y55.751 E.70757
G1 X205.444 Y55.751 E.01314
G1 X205.444 Y33.184 E.70757
G1 X205.025 Y33.184 E.01314
G1 X205.025 Y55.751 E.70757
G1 X204.606 Y55.751 E.01314
G1 X204.606 Y33.184 E.70757
G1 X204.187 Y33.184 E.01314
G1 X204.187 Y55.751 E.70757
G1 X203.768 Y55.751 E.01314
G1 X203.768 Y33.184 E.70757
G1 X203.349 Y33.184 E.01314
G1 X203.349 Y55.751 E.70757
G1 X202.93 Y55.751 E.01314
G1 X202.93 Y33.184 E.70757
G1 X202.511 Y33.184 E.01314
G1 X202.511 Y55.751 E.70757
G1 X202.092 Y55.751 E.01314
G1 X202.092 Y33.184 E.70757
G1 X201.673 Y33.184 E.01314
G1 X201.673 Y55.751 E.70757
G1 X201.254 Y55.751 E.01314
G1 X201.254 Y33.184 E.70757
G1 X200.835 Y33.184 E.01314
G1 X200.835 Y55.751 E.70757
G1 X200.416 Y55.751 E.01314
G1 X200.416 Y33.184 E.70757
G1 X199.997 Y33.184 E.01314
G1 X199.997 Y55.751 E.70757
G1 X199.578 Y55.751 E.01314
G1 X199.578 Y33.184 E.70757
G1 X199.159 Y33.184 E.01314
G1 X199.159 Y55.751 E.70757
G1 X198.74 Y55.751 E.01314
G1 X198.74 Y33.184 E.70757
G1 X198.321 Y33.184 E.01314
G1 X198.321 Y55.751 E.70757
G1 X197.902 Y55.751 E.01314
G1 X197.902 Y33.184 E.70757
G1 X197.483 Y33.184 E.01314
G1 X197.483 Y55.751 E.70757
G1 X197.064 Y55.751 E.01314
G1 X197.064 Y33.184 E.70757
G1 X196.645 Y33.184 E.01314
G1 X196.645 Y55.751 E.70757
G1 X196.226 Y55.751 E.01314
G1 X196.226 Y33.184 E.70757
G1 X195.807 Y33.184 E.01314
G1 X195.807 Y55.751 E.70757
G1 X195.388 Y55.751 E.01314
G1 X195.388 Y33.184 E.70757
G1 X194.969 Y33.184 E.01314
G1 X194.969 Y55.751 E.70757
G1 X194.55 Y55.751 E.01314
G1 X194.55 Y33.184 E.70757
G1 X194.131 Y33.184 E.01314
G1 X194.131 Y55.751 E.70757
G1 X193.712 Y55.751 E.01314
G1 X193.712 Y33.184 E.70757
G1 X193.293 Y33.184 E.01314
G1 X193.293 Y55.751 E.70757
G1 X192.874 Y55.751 E.01314
G1 X192.874 Y33.184 E.70757
G1 X192.455 Y33.184 E.01314
G1 X192.455 Y55.751 E.70757
G1 X192.036 Y55.751 E.01314
G1 X192.036 Y33.184 E.70757
G1 X191.617 Y33.184 E.01314
G1 X191.617 Y55.751 E.70757
G1 X191.198 Y55.751 E.01314
G1 X191.198 Y33.184 E.70757
G1 X190.779 Y33.184 E.01314
G1 X190.779 Y55.751 E.70757
G1 X190.36 Y55.751 E.01314
G1 X190.36 Y33.184 E.70757
G1 X189.941 Y33.184 E.01314
G1 X189.941 Y55.751 E.70757
G1 X189.522 Y55.751 E.01314
G1 X189.522 Y33.184 E.70757
G1 X189.103 Y33.184 E.01314
G1 X189.103 Y55.751 E.70757
G1 X188.685 Y55.751 E.01311
G1 X188.685 Y33.184 E.70757
G1 X188.266 Y33.184 E.01314
G1 X188.266 Y55.751 E.70757
G1 X187.847 Y55.751 E.01314
G1 X187.847 Y33.184 E.70757
G1 X187.428 Y33.184 E.01314
G1 X187.428 Y55.751 E.70757
G1 X187.009 Y55.751 E.01314
G1 X187.009 Y33.184 E.70757
G1 X186.59 Y33.184 E.01314
G1 X186.59 Y55.751 E.70757
G1 X186.171 Y55.751 E.01314
M73 P1 R212
G1 X186.171 Y33.184 E.70757
G1 X185.752 Y33.184 E.01314
G1 X185.752 Y55.751 E.70757
G1 X185.333 Y55.751 E.01314
M73 P1 R211
M73 Q0 S218
G1 X185.333 Y33.184 E.70757
G1 X184.914 Y33.184 E.01314
M73 Q1 S218
G1 X184.914 Y55.751 E.70757
G1 X184.495 Y55.751 E.01314
G1 X184.495 Y33.184 E.70757
G1 X184.076 Y33.184 E.01314
G1 X184.076 Y55.751 E.70757
G1 X183.657 Y55.751 E.01314
G1 X183.657 Y33.184 E.70757
G1 X183.238 Y33.184 E.01314
G1 X183.238 Y55.751 E.70757
G1 X182.819 Y55.751 E.01314
G1 X182.819 Y33.184 E.70757
G1 X182.4 Y33.184 E.01314
G1 X182.4 Y55.751 E.70757
G1 X181.981 Y55.751 E.01314
G1 X181.981 Y33.184 E.70757
G1 X181.562 Y33.184 E.01314
G1 X181.562 Y55.751 E.70757
G1 X181.143 Y55.751 E.01314
G1 X181.143 Y33.184 E.70757
G1 X180.724 Y33.184 E.01314
G1 X180.724 Y55.751 E.70757
G1 X180.305 Y55.751 E.01314
G1 X180.305 Y33.184 E.70757
G1 X179.886 Y33.184 E.01314
G1 X179.886 Y55.751 E.70757
G1 X179.467 Y55.751 E.01314
G1 X179.467 Y33.184 E.70757
G1 X179.048 Y33.184 E.01314
G1 X179.048 Y55.751 E.70757
G1 X178.629 Y55.751 E.01314
G1 X178.629 Y33.184 E.70757
G1 X178.21 Y33.184 E.01314
G1 X178.21 Y55.751 E.70757
G1 X177.791 Y55.751 E.01314
G1 X177.791 Y33.184 E.70757
G1 X177.372 Y33.184 E.01314
G1 X177.372 Y55.751 E.70757
G1 X176.953 Y55.751 E.01314
G1 X176.953 Y33.184 E.70757
G1 X176.534 Y33.184 E.01314
G1 X176.534 Y55.751 E.70757
G1 X176.115 Y55.751 E.01314
G1 X176.115 Y33.184 E.70757
G1 X175.696 Y33.184 E.01314
G1 X175.696 Y55.751 E.70757
G1 X175.277 Y55.751 E.01314
G1 X175.277 Y33.184 E.70757
G1 X174.858 Y33.184 E.01314
G1 X174.858 Y55.751 E.70757
G1 X174.439 Y55.751 E.01314
G1 X174.439 Y33.184 E.70757
G1 X174.02 Y33.184 E.01314
G1 X174.02 Y55.751 E.70757
G1 X173.601 Y55.751 E.01314
G1 X173.601 Y33.184 E.70757
G1 X173.182 Y33.184 E.01314
G1 X173.182 Y55.751 E.70757
G1 X172.763 Y55.751 E.01314
G1 X172.763 Y33.184 E.70757
G1 X172.344 Y33.184 E.01314
G1 X172.344 Y55.751 E.70757
G1 X171.925 Y55.751 E.01314
G1 X171.925 Y33.184 E.70757
G1 X171.506 Y33.184 E.01314
G1 X171.506 Y55.751 E.70757
G1 X171.087 Y55.751 E.01314
G1 X171.087 Y33.184 E.70757
G1 X170.668 Y33.184 E.01314
G1 X170.668 Y55.751 E.70757
G1 X170.25 Y55.751 E.01311
G1 X170.25 Y33.184 E.70757
G1 X169.831 Y33.184 E.01314
G1 X169.831 Y55.751 E.70757
G1 X169.412 Y55.751 E.01314
G1 X169.412 Y33.184 E.70757
G1 X168.993 Y33.184 E.01314
G1 X168.993 Y55.751 E.70757
G1 X168.574 Y55.751 E.01314
G1 X168.574 Y33.184 E.70757
G1 X168.155 Y33.184 E.01314
G1 X168.155 Y55.751 E.70757
G1 X167.736 Y55.751 E.01314
G1 X167.736 Y33.184 E.70757
G1 X167.317 Y33.184 E.01314
G1 X167.317 Y55.751 E.70757
G1 X166.898 Y55.751 E.01314
G1 X166.898 Y33.184 E.70757
G1 X166.479 Y33.184 E.01314
G1 X166.479 Y55.751 E.70757
G1 X166.06 Y55.751 E.01314
G1 X166.06 Y33.184 E.70757
G1 X165.641 Y33.184 E.01314
G1 X165.641 Y55.751 E.70757
G1 X165.222 Y55.751 E.01314
G1 X165.222 Y33.184 E.70757
G1 X164.803 Y33.184 E.01314
G1 X164.803 Y55.751 E.70757
G1 X164.384 Y55.751 E.01314
G1 X164.384 Y33.184 E.70757
G1 X163.965 Y33.184 E.01314
M73 P1 R210
M73 Q1 S217
G1 X163.965 Y55.751 E.70757
G1 X163.546 Y55.751 E.01314
G1 X163.546 Y33.184 E.70757
G1 X163.127 Y33.184 E.01314
G1 X163.127 Y55.751 E.70757
G1 X162.708 Y55.751 E.01314
G1 X162.708 Y33.184 E.70757
G1 X162.289 Y33.184 E.01314
G1 X162.289 Y55.751 E.70757
G1 X161.87 Y55.751 E.01314
G1 X161.87 Y33.184 E.70757
G1 X161.451 Y33.184 E.01314
G1 X161.451 Y55.751 E.70757
G1 X161.032 Y55.751 E.01314
G1 X161.032 Y33.184 E.70757
G1 X160.613 Y33.184 E.01314
G1 X160.613 Y55.751 E.70757
G1 X160.194 Y55.751 E.01314
G1 X160.194 Y33.184 E.70757
G1 X159.775 Y33.184 E.01314
G1 X159.775 Y55.751 E.70757
G1 X159.356 Y55.751 E.01314
G1 X159.356 Y33.184 E.70757
G1 X158.937 Y33.184 E.01314
G1 X158.937 Y55.751 E.70757
G1 X158.518 Y55.751 E.01314
G1 X158.518 Y33.184 E.70757
G1 X158.099 Y33.184 E.01314
G1 X158.099 Y55.751 E.70757
G1 X157.68 Y55.751 E.01314
G1 X157.68 Y33.184 E.70757
G1 X157.261 Y33.184 E.01314
G1 X157.261 Y55.751 E.70757
G1 X156.842 Y55.751 E.01314
G1 X156.842 Y33.184 E.70757
G1 X156.423 Y33.184 E.01314
G1 X156.423 Y55.751 E.70757
G1 X156.004 Y55.751 E.01314
G1 X156.004 Y33.184 E.70757
G1 X155.585 Y33.184 E.01314
G1 X155.585 Y55.751 E.70757
G1 X155.166 Y55.751 E.01314
G1 X155.166 Y33.184 E.70757
G1 X154.747 Y33.184 E.01314
G1 X154.747 Y55.751 E.70757
G1 X154.328 Y55.751 E.01314
G1 X154.328 Y33.184 E.70757
G1 X153.909 Y33.184 E.01314
G1 X153.909 Y55.751 E.70757
G1 X153.49 Y55.751 E.01314
G1 X153.49 Y33.184 E.70757
G1 X153.071 Y33.184 E.01314
G1 X153.071 Y55.751 E.70757
G1 X152.652 Y55.751 E.01314
G1 X152.652 Y33.184 E.70757
G1 X152.234 Y33.184 E.01311
G1 X152.234 Y55.751 E.70757
G1 X151.815 Y55.751 E.01314
G1 X151.815 Y33.184 E.70757
G1 X151.396 Y33.184 E.01314
G1 X151.396 Y55.751 E.70757
G1 X150.977 Y55.751 E.01314
G1 X150.977 Y33.184 E.70757
G1 X150.558 Y33.184 E.01314
G1 X150.558 Y55.751 E.70757
G1 X150.139 Y55.751 E.01314
G1 X150.139 Y33.184 E.70757
G1 X149.72 Y33.184 E.01314
G1 X149.72 Y55.751 E.70757
G1 X149.301 Y55.751 E.01314
G1 X149.301 Y33.184 E.70757
G1 X148.882 Y33.184 E.01314
G1 X148.882 Y55.751 E.70757
G1 X148.463 Y55.751 E.01314
G1 X148.463 Y33.184 E.70757
G1 X148.044 Y33.184 E.01314
G1 X148.044 Y55.751 E.70757
G1 X147.625 Y55.751 E.01314
G1 X147.625 Y33.184 E.70757
G1 X147.206 Y33.184 E.01314
G1 X147.206 Y55.751 E.70757
G1 X146.787 Y55.751 E.01314
G1 X146.787 Y33.184 E.70757
G1 X146.368 Y33.184 E.01314
G1 X146.368 Y55.751 E.70757
G1 X145.949 Y55.751 E.01314
G1 X145.949 Y33.184 E.70757
G1 X145.53 Y33.184 E.01314
G1 X145.53 Y55.751 E.70757
G1 X145.111 Y55.751 E.01314
G1 X145.111 Y33.184 E.70757
G1 X144.692 Y33.184 E.01314
G1 X144.692 Y55.751 E.70757
G1 X144.273 Y55.751 E.01314
G1 X144.273 Y33.184 E.70757
G1 X143.854 Y33.184 E.01314
G1 X143.854 Y55.751 E.70757
G1 X143.435 Y55.751 E.01314
G1 X143.435 Y33.184 E.70757
G1 X143.016 Y33.184 E.01314
G1 X143.016 Y55.751 E.70757
G1 X142.597 Y55.751 E.01314
G1 X142.597 Y33.184 E.70757
G1 X142.178 Y33.184 E.01314
M73 P1 R209
M73 Q1 S216
G1 X142.178 Y55.751 E.70757
G1 X141.759 Y55.751 E.01314
G1 X141.759 Y33.184 E.70757
G1 X141.34 Y33.184 E.01314
G1 X141.34 Y55.751 E.70757
G1 X140.921 Y55.751 E.01314
G1 X140.921 Y33.184 E.70757
G1 X140.502 Y33.184 E.01314
G1 X140.502 Y55.751 E.70757
G1 X140.083 Y55.751 E.01314
M73 P2 R209
G1 X140.083 Y33.184 E.70757
G1 X139.664 Y33.184 E.01314
G1 X139.664 Y55.751 E.70757
G1 X139.245 Y55.751 E.01314
G1 X139.245 Y33.184 E.70757
G1 X138.826 Y33.184 E.01314
G1 X138.826 Y55.751 E.70757
G1 X138.407 Y55.751 E.01314
G1 X138.407 Y33.184 E.70757
G1 X137.988 Y33.184 E.01314
G1 X137.988 Y55.751 E.70757
G1 X137.569 Y55.751 E.01314
M73 Q2 S216
G1 X137.569 Y33.184 E.70757
G1 X137.15 Y33.184 E.01314
G1 X137.15 Y55.751 E.70757
G1 X136.731 Y55.751 E.01314
G1 X136.731 Y33.184 E.70757
G1 X136.312 Y33.184 E.01314
G1 X136.312 Y55.751 E.70757
G1 X135.893 Y55.751 E.01314
G1 X135.893 Y33.184 E.70757
G1 X135.474 Y33.184 E.01314
G1 X135.474 Y55.751 E.70757
G1 X135.055 Y55.751 E.01314
G1 X135.055 Y33.184 E.70757
G1 X134.636 Y33.184 E.01314
G1 X134.636 Y55.751 E.70757
G1 X134.217 Y55.751 E.01314
G1 X134.218 Y33.184 E.70757
G1 X133.799 Y33.184 E.01314
G1 X133.799 Y55.751 E.70757
G1 X133.38 Y55.751 E.01314
G1 X133.38 Y33.184 E.70757
G1 X132.961 Y33.184 E.01314
G1 X132.961 Y55.751 E.70757
G1 X132.542 Y55.751 E.01314
G1 X132.542 Y33.184 E.70757
G1 X132.123 Y33.184 E.01314
G1 X132.123 Y55.751 E.70757
G1 X131.704 Y55.751 E.01314
G1 X131.704 Y33.184 E.70757
G1 X131.285 Y33.184 E.01314
G1 X131.285 Y55.751 E.70757
G1 X130.866 Y55.751 E.01314
G1 X130.866 Y33.184 E.70757
G1 X130.447 Y33.184 E.01314
G1 X130.447 Y55.751 E.70757
G1 X130.028 Y55.751 E.01314
G1 X130.028 Y33.184 E.70757
G1 X129.609 Y33.184 E.01314
G1 X129.609 Y55.751 E.70757
G1 X129.19 Y55.751 E.01314
G1 X129.19 Y33.184 E.70757
G1 X128.771 Y33.184 E.01314
G1 X128.771 Y55.751 E.70757
G1 X128.352 Y55.751 E.01314
G1 X128.352 Y33.184 E.70757
G1 X127.933 Y33.184 E.01314
G1 X127.933 Y55.751 E.70757
G1 X127.514 Y55.751 E.01314
G1 X127.514 Y33.184 E.70757
G1 X127.095 Y33.184 E.01314
G1 X127.095 Y55.751 E.70757
G1 X126.676 Y55.751 E.01314
G1 X126.676 Y33.184 E.70757
G1 X126.257 Y33.184 E.01314
G1 X126.257 Y55.751 E.70757
G1 X125.838 Y55.751 E.01314
G1 X125.838 Y33.184 E.70757
G1 X125.419 Y33.184 E.01314
G1 X125.419 Y55.751 E.70757
G1 X125 Y55.751 E.01314
G1 X125 Y33.184 E.70757
G1 X124.581 Y33.184 E.01314
G1 X124.581 Y55.751 E.70757
G1 X124.162 Y55.751 E.01314
G1 X124.162 Y33.184 E.70757
G1 X123.743 Y33.184 E.01314
G1 X123.743 Y55.751 E.70757
G1 X123.324 Y55.751 E.01314
G1 X123.324 Y33.184 E.70757
G1 X122.905 Y33.184 E.01314
G1 X122.905 Y55.751 E.70757
G1 X122.486 Y55.751 E.01314
G1 X122.486 Y33.184 E.70757
G1 X122.067 Y33.184 E.01314
G1 X122.067 Y55.751 E.70757
G1 X121.648 Y55.751 E.01314
G1 X121.648 Y33.184 E.70757
G1 X121.229 Y33.184 E.01314
G1 X121.229 Y55.751 E.70757
G1 X120.81 Y55.751 E.01314
M73 P2 R208
M73 Q2 S215
G1 X120.81 Y33.184 E.70757
G1 X120.391 Y33.184 E.01314
G1 X120.391 Y55.751 E.70757
G1 X119.972 Y55.751 E.01314
G1 X119.972 Y33.184 E.70757
G1 X119.553 Y33.184 E.01314
G1 X119.553 Y55.751 E.70757
G1 X119.134 Y55.751 E.01314
G1 X119.134 Y33.184 E.70757
G1 X118.715 Y33.184 E.01314
G1 X118.715 Y55.751 E.70757
G1 X118.296 Y55.751 E.01314
G1 X118.296 Y33.184 E.70757
G1 X117.877 Y33.184 E.01314
G1 X117.877 Y55.751 E.70757
G1 X117.458 Y55.751 E.01314
G1 X117.458 Y33.184 E.70757
G1 X117.039 Y33.184 E.01314
G1 X117.039 Y55.751 E.70757
G1 X116.62 Y55.751 E.01314
G1 X116.62 Y33.184 E.70757
G1 X116.201 Y33.184 E.01314
G1 X116.201 Y55.751 E.70757
G1 X115.783 Y55.751 E.01311
G1 X115.783 Y33.184 E.70757
G1 X115.364 Y33.184 E.01314
G1 X115.364 Y55.751 E.70757
G1 X114.945 Y55.751 E.01314
G1 X114.945 Y33.184 E.70757
G1 X114.526 Y33.184 E.01314
G1 X114.526 Y55.751 E.70757
G1 X114.107 Y55.751 E.01314
G1 X114.107 Y33.184 E.70757
G1 X113.688 Y33.184 E.01314
