; generated by PrusaSlicer 2.6.0+win64 on 2024-01-05 at 12:20:03 UTC


;
;
; 

; external perimeters extrusion width = 0.45mm
; perimeters extrusion width = 0.45mm
; infill extrusion width = 0.45mm
; solid infill extrusion width = 0.45mm
; top infill extrusion width = 0.40mm
; first layer extrusion width = 0.42mm

; external perimeters extrusion width = 0.45mm
; perimeters extrusion width = 0.45mm
; infill extrusion width = 0.45mm
; solid infill extrusion width = 0.45mm
; top infill extrusion width = 0.40mm
; first layer extrusion width = 0.42mm

M73 P0 R136
M73 Q0 S138
M201 X1000 Y1000 Z200 E5000 ; sets maximum accelerations, mm/sec^2
M203 X200 Y200 Z12 E120 ; sets maximum feedrates, mm / sec
M204 S1250 T1250 ; sets acceleration (S) and retract acceleration (R), mm/sec^2
M205 X8.00 Y8.00 Z0.40 E4.50 ; sets the jerk limits, mm/sec
M205 S0 T0 ; sets the minimum extruding and travel feed rate, mm/sec
;TYPE:Custom
M862.3 P "MK3S" ; printer model check
M862.1 P0.4 ; nozzle diameter check
M115 U3.12.2 ; tell printer latest fw version
G90 ; use absolute coordinates
M83 ; extruder relative mode
M104 S215 ; set extruder temp
M140 S60 ; set bed temp
M190 S60 ; wait for bed temp
M109 S215 ; wait for extruder temp
G28 W ; home all without mesh bed level
G80 ; mesh bed leveling

G1 Z0.2 F720
G1 Y-3 F1000 ; go outside print area
G92 E0
G1 X60 E9 F1000 ; intro line
G1 X100 E12.5 F1000 ; intro line

G92 E0
M221 S95

; Don't change E values below. Excessive value can damage the printer.

M907 E538 ; set extruder motor current
G21 ; set units to millimeters
G90 ; use absolute coordinates
M83 ; use relative distances for extrusion
M900 K0.05 ; Filament gcode LA 1.5
M900 K30 ; Filament gcode LA 1.0
M107
;LAYER_CHANGE
;Z:0.2
;HEIGHT:0.2
;BEFORE_LAYER_CHANGE
G92 E0.0
;0.2


G1 E-.8 F2100
G1 Z.4 F720
;AFTER_LAYER_CHANGE
;0.2
G1 X95.148 Y85.147 F10800
G1 Z.2 F720
G1 E.8 F2100
M204 S800
;TYPE:Skirt/Brim
;WIDTH:0.42
G1 F1200
G1 X96.193 Y84.271 E.04275
G1 X97.133 Y84.077 E.03009
G1 X177.133 Y84.077 E2.50834
G1 X178.44 Y84.469 E.04278
G1 X179.317 Y85.514 E.04277
G1 X179.51 Y86.454 E.03009
G1 X179.502 Y137.502 E1.60057
G1 X179.364 Y138.949 E.04558
G1 X179.103 Y140.203 E.04016
G1 X178.699 Y141.462 E.04146
G1 X178.102 Y142.788 E.0456
G1 X177.428 Y143.925 E.04144
G1 X176.551 Y145.085 E.0456
G1 X175.641 Y146.044 E.04145
G1 X174.528 Y146.979 E.04558
G1 X172.904 Y148.004 E.06021
G1 X171.304 Y148.707 E.0548
G1 X169.449 Y149.213 E.06029
G1 X167.581 Y149.423 E.05894
G1 X106.726 Y149.424 E1.90807
G1 X105.409 Y149.311 E.04145
G1 X103.985 Y149.024 E.04555
G1 X102.725 Y148.62 E.04149
G1 X101.399 Y148.023 E.0456
G1 X100.262 Y147.349 E.04144
G1 X99.102 Y146.472 E.0456
G1 X98.144 Y145.562 E.04143
G1 X97.209 Y144.45 E.04555
G1 X96.168 Y142.794 E.06133
G1 X95.411 Y141.026 E.0603
G1 X94.937 Y139.164 E.06024
G1 X94.758 Y137.247 E.06037
G1 X94.756 Y86.454 E1.59258
G1 X95.13 Y85.205 E.04088
M204 S1000
; printing object 1_sensor_base.stl id:0 copy 0
;WIPE_START
G1 F8640
G1 X96.193 Y84.271 E-.32674
G1 X97.133 Y84.077 E-.22162
G1 X98.223 Y84.077 E-.25164
;WIPE_END
G1 Z.6 F720
G1 X154.528 Y137.571 F10800
G1 Z.2 F720
G1 E.8 F2100
M204 S800
;TYPE:Perimeter
;WIDTH:0.419999
G1 F1200
G1 X155.272 Y137.374 E.02413
G1 X155.976 Y137.133 E.02333
G1 X156.658 Y136.846 E.0232
G1 X157.163 Y136.596 E.01767
G1 X157.806 Y136.229 E.02321
G1 X158.277 Y135.92 E.01766
G1 X158.87 Y135.479 E.02317
G1 X159.297 Y135.119 E.01751
G1 X159.709 Y134.733 E.0177
G1 X160.217 Y134.196 E.02318
G1 X160.576 Y133.768 E.01752
G1 X160.967 Y133.242 E.02055
G1 X161.295 Y132.741 E.01878
G1 X161.604 Y132.218 E.01905
G1 X161.858 Y131.721 E.0175
G1 X162.089 Y131.206 E.0177
G1 X162.35 Y130.515 E.02316
G1 X162.515 Y129.982 E.01749
G1 X162.653 Y129.44 E.01754
G1 X162.763 Y128.888 E.01765
G1 X162.864 Y128.155 E.0232
G1 X162.906 Y127.598 E.01751
G1 X162.92 Y127.055 E.01703
G1 X162.92 Y87.241 E1.24834
G1 X176.346 Y87.241 E.42096
G1 X176.346 Y137.041 E1.56144
G1 X176.311 Y137.851 E.02542
G1 X176.234 Y138.482 E.01993
G1 X176.1 Y139.155 E.02152
G1 X175.968 Y139.648 E.016
G1 X175.772 Y140.246 E.01973
G1 X175.532 Y140.826 E.01968
G1 X175.215 Y141.476 E.02267
G1 X174.859 Y142.067 E.02163
G1 X174.568 Y142.485 E.01597
G1 X174.182 Y142.981 E.01971
G1 X173.786 Y143.419 E.01851
G1 X173.303 Y143.889 E.02113
G1 X172.752 Y144.355 E.02263
G1 X172.176 Y144.76 E.02208
G1 X171.659 Y145.072 E.01893
G1 X171.095 Y145.365 E.01993
G1 X170.511 Y145.619 E.01997
G1 X169.912 Y145.832 E.01993
G1 X169.254 Y146.014 E.02141
G1 X168.561 Y146.155 E.02217
G1 X167.927 Y146.232 E.02002
G1 X167.287 Y146.266 E.0201
G1 X106.979 Y146.266 E1.89091
G1 X106.342 Y146.233 E.02
M73 Q0 S137
G1 X105.551 Y146.13 E.02501
G1 X104.775 Y145.96 E.02491
G1 X104.016 Y145.723 E.02493
G1 X103.278 Y145.421 E.025
G1 X102.714 Y145.138 E.01979
G1 X102.032 Y144.725 E.025
G1 X101.385 Y144.254 E.02509
G1 X100.858 Y143.795 E.02191
G1 X100.492 Y143.435 E.0161
G1 X100.031 Y142.922 E.02163
G1 X99.614 Y142.372 E.02164
G1 X99.322 Y141.932 E.01656
G1 X98.976 Y141.336 E.02161
G1 X98.681 Y140.713 E.02161
G1 X98.485 Y140.221 E.01661
G1 X98.27 Y139.566 E.02162
G1 X98.11 Y138.896 E.0216
G1 X98.019 Y138.375 E.01658
G1 X97.943 Y137.692 E.02155
G1 X97.92 Y137.043 E.02036
G1 X97.92 Y87.241 E1.5615
G1 X111.346 Y87.241 E.42096
G1 X111.346 Y127.056 E1.24837
G1 X111.389 Y128.008 E.02988
G1 X111.511 Y128.931 E.02919
G1 X111.712 Y129.84 E.02919
G1 X111.991 Y130.728 E.02918
G1 X112.346 Y131.588 E.02917
G1 X112.773 Y132.415 E.02918
G1 X113.199 Y133.093 E.02511
G1 X113.521 Y133.533 E.0171
G1 X113.833 Y133.943 E.01615
G1 X114.457 Y134.633 E.02917
G1 X115.139 Y135.266 E.02917
G1 X115.873 Y135.839 E.0292
G1 X116.654 Y136.345 E.02918
G1 X117.475 Y136.783 E.02918
G1 X118.331 Y137.148 E.02918
G1 X119.215 Y137.439 E.02918
G1 X120.121 Y137.652 E.02918
G1 X121.032 Y137.785 E.02887
G1 X121.591 Y137.827 E.01758
G1 X122.132 Y137.841 E.01697
G1 X152.486 Y137.835 E.95173
G1 X153.083 Y137.799 E.01875
G1 X153.821 Y137.708 E.02331
G1 X154.47 Y137.582 E.02073
M204 S1000
G1 X154.529 Y137.182 F10800
M204 S800
;TYPE:External perimeter
G1 F1200
G1 X155.15 Y137.017 E.02015
G1 X155.831 Y136.785 E.02256
G1 X156.492 Y136.508 E.02247
G1 X156.977 Y136.269 E.01695
G1 X157.599 Y135.913 E.02247
G1 X158.052 Y135.617 E.01697
G1 X158.627 Y135.19 E.02246
G1 X159.04 Y134.843 E.01691
G1 X159.436 Y134.473 E.01699
G1 X159.928 Y133.954 E.02242
G1 X160.275 Y133.541 E.01691
G1 X160.654 Y133.03 E.01995
G1 X160.971 Y132.548 E.01809
G1 X161.268 Y132.046 E.01829
G1 X161.514 Y131.566 E.01691
G1 X161.736 Y131.073 E.01695
G1 X161.99 Y130.403 E.02247
G1 X162.15 Y129.888 E.01691
G1 X162.283 Y129.366 E.01689
G1 X162.389 Y128.836 E.01695
G1 X162.488 Y128.126 E.02248
G1 X162.529 Y127.588 E.01692
G1 X162.543 Y127.055 E.01672
G1 X162.543 Y86.864 E1.26016
G1 X176.723 Y86.864 E.4446
G1 X176.723 Y137.049 E1.57351
G1 X176.687 Y137.882 E.02614
G1 X176.607 Y138.539 E.02075
G1 X176.463 Y139.257 E.02296
G1 X176.283 Y139.907 E.02115
G1 X176.04 Y140.608 E.02326
G1 X175.773 Y141.216 E.02082
G1 X175.434 Y141.849 E.02251
G1 X175.168 Y142.283 E.01596
G1 X174.778 Y142.836 E.02122
G1 X174.312 Y143.413 E.02325
G1 X173.855 Y143.893 E.02078
G1 X173.367 Y144.342 E.02079
G1 X172.803 Y144.785 E.02249
G1 X172.382 Y145.076 E.01605
G1 X171.846 Y145.4 E.01964
G1 X171.258 Y145.705 E.02077
G1 X170.651 Y145.969 E.02075
G1 X170.027 Y146.191 E.02077
G1 X169.345 Y146.38 E.02219
G1 X168.618 Y146.528 E.02326
G1 X167.96 Y146.608 E.02078
G1 X167.297 Y146.643 E.02082
G1 X106.969 Y146.643 E1.89154
G1 X106.307 Y146.608 E.02079
M73 P0 R135
G1 X105.486 Y146.501 E.02596
G1 X104.679 Y146.325 E.0259
G1 X103.888 Y146.078 E.02598
G1 X103.121 Y145.764 E.02599
G1 X102.531 Y145.468 E.0207
G1 X101.823 Y145.039 E.02596
G1 X101.153 Y144.551 E.02599
G1 X100.601 Y144.071 E.02294
G1 X100.221 Y143.697 E.01672
G1 X99.74 Y143.162 E.02256
G1 X99.305 Y142.589 E.02256
G1 X99.002 Y142.133 E.01717
G1 X98.642 Y141.511 E.02253
G1 X98.335 Y140.862 E.02251
G1 X98.131 Y140.352 E.01722
G1 X97.907 Y139.669 E.02254
G1 X97.74 Y138.97 E.02253
G1 X97.646 Y138.431 E.01716
G1 X97.566 Y137.717 E.02253
G1 X97.543 Y137.05 E.02093
G1 X97.543 Y86.864 E1.57354
G1 X111.723 Y86.864 E.4446
G1 X111.723 Y127.056 E1.26019
G1 X111.763 Y127.96 E.02837
G1 X111.879 Y128.85 E.02814
G1 X112.072 Y129.728 E.02819
G1 X112.34 Y130.585 E.02815
G1 X112.681 Y131.416 E.02816
G1 X113.092 Y132.214 E.02814
G1 X113.436 Y132.761 E.02026
G1 X113.748 Y133.209 E.01712
G1 X114.113 Y133.691 E.01896
G1 X114.715 Y134.357 E.02815
G1 X115.372 Y134.969 E.02815
G1 X116.079 Y135.523 E.02816
G1 X116.832 Y136.013 E.02817
G1 X117.624 Y136.437 E.02817
G1 X118.449 Y136.79 E.02814
G1 X119.302 Y137.072 E.02817
G1 X120.176 Y137.278 E.02815
G1 X121.062 Y137.409 E.02808
G1 X121.6 Y137.45 E.01692
G1 X122.132 Y137.464 E.01669
G1 X152.486 Y137.458 E.95173
G1 X153.037 Y137.425 E.01731
G1 X153.75 Y137.338 E.02252
G1 X154.471 Y137.198 E.02303
M204 S1000
G1 X154.801 Y137.475 F10800
;WIPE_START
G1 F8640
G1 X155.15 Y137.017 E-.16226
G1 X155.831 Y136.785 E-.16612
G1 X156.492 Y136.508 E-.16549
G1 X156.977 Y136.269 E-.12485
G1 X157.599 Y135.913 E-.16548
G1 X157.656 Y135.876 E-.0158
;WIPE_END
G1 Z.6 F720
G1 X176.176 Y88.175 F10800
G1 Z.2 F720
G1 E.8 F2100
M204 S800
;TYPE:Solid infill
;WIDTH:0.421018
G1 F1200
G1 X175.582 Y87.581 E.02641
G1 X175.047 Y87.581 E.01682
G1 X176.007 Y88.54 E.04266
G1 X176.007 Y89.075 E.01682
G1 X174.512 Y87.581 E.06645
G1 X173.978 Y87.581 E.01679
G1 X176.007 Y89.61 E.09021
G1 X176.007 Y90.145 E.01682
G1 X173.443 Y87.581 E.114
G1 X172.908 Y87.581 E.01682
G1 X176.007 Y90.679 E.13776
G1 X176.007 Y91.214 E.01682
G1 X172.373 Y87.581 E.16155
G1 X171.839 Y87.581 E.01679
G1 X176.007 Y91.749 E.18532
G1 X176.007 Y92.283 E.01679
G1 X171.304 Y87.581 E.20908
G1 X170.769 Y87.581 E.01682
G1 X176.007 Y92.818 E.23287
G1 X176.007 Y93.353 E.01682
G1 X170.235 Y87.581 E.25663
G1 X169.7 Y87.581 E.01682
G1 X176.007 Y93.888 E.28042
G1 X176.007 Y94.422 E.01679
G1 X169.165 Y87.581 E.30418
G1 X168.63 Y87.581 E.01682
G1 X176.007 Y94.957 E.32797
G1 X176.007 Y95.492 E.01682
G1 X168.096 Y87.581 E.35173
G1 X167.561 Y87.581 E.01682
G1 X176.007 Y96.026 E.3755
G1 X176.007 Y96.561 E.01682
G1 X167.026 Y87.581 E.39929
G1 X166.492 Y87.581 E.01679
G1 X176.007 Y97.096 E.42305
G1 X176.007 Y97.63 E.01679
G1 X165.957 Y87.581 E.44682
G1 X165.422 Y87.581 E.01682
G1 X176.007 Y98.165 E.4706
G1 X176.007 Y98.7 E.01682
G1 X164.887 Y87.581 E.49439
G1 X164.353 Y87.581 E.01679
G1 X176.007 Y99.235 E.51815
G1 X176.007 Y99.769 E.01679
G1 X163.818 Y87.581 E.54192
G1 X163.283 Y87.581 E.01682
G1 X176.007 Y100.304 E.56571
G1 X176.007 Y100.839 E.01682
G1 X163.26 Y88.092 E.56675
G1 X163.26 Y88.626 E.01679
G1 X176.007 Y101.373 E.56675
G1 X176.007 Y101.908 E.01682
G1 X163.26 Y89.161 E.56675
G1 X163.26 Y89.696 E.01682
G1 X176.007 Y102.443 E.56675
G1 X176.007 Y102.978 E.01682
G1 X163.26 Y90.23 E.56677
G1 X163.26 Y90.765 E.01682
G1 X176.007 Y103.512 E.56675
G1 X176.007 Y104.047 E.01682
G1 X163.26 Y91.3 E.56675
G1 X163.26 Y91.835 E.01682
G1 X176.007 Y104.582 E.56675
G1 X176.007 Y105.116 E.01679
G1 X163.26 Y92.369 E.56675
G1 X163.26 Y92.904 E.01682
G1 X176.007 Y105.651 E.56675
G1 X176.007 Y106.186 E.01682
G1 X163.26 Y93.439 E.56675
G1 X163.26 Y93.973 E.01679
G1 X176.007 Y106.721 E.56677
G1 X176.007 Y107.255 E.01679
M73 P1 R135
M73 Q1 S137
G1 X163.26 Y94.508 E.56675
G1 X163.26 Y95.043 E.01682
G1 X176.007 Y107.79 E.56675
G1 X176.007 Y108.325 E.01682
G1 X163.26 Y95.578 E.56675
G1 X163.26 Y96.112 E.01679
G1 X176.007 Y108.859 E.56675
G1 X176.007 Y109.394 E.01682
G1 X163.26 Y96.647 E.56675
G1 X163.26 Y97.182 E.01682
G1 X176.007 Y109.929 E.56675
G1 X176.007 Y110.464 E.01682
G1 X163.26 Y97.716 E.56677
G1 X163.26 Y98.251 E.01682
G1 X176.007 Y110.998 E.56675
G1 X176.007 Y111.533 E.01682
G1 X163.26 Y98.786 E.56675
G1 X163.26 Y99.321 E.01682
M73 Q1 S136
G1 X176.007 Y112.068 E.56675
G1 X176.007 Y112.602 E.01679
G1 X163.26 Y99.855 E.56675
G1 X163.26 Y100.39 E.01682
G1 X176.007 Y113.137 E.56675
G1 X176.007 Y113.672 E.01682
G1 X163.26 Y100.925 E.56675
G1 X163.26 Y101.459 E.01679
G1 X176.007 Y114.207 E.56677
G1 X176.007 Y114.741 E.01679
G1 X163.26 Y101.994 E.56675
G1 X163.26 Y102.529 E.01682
G1 X176.007 Y115.276 E.56675
G1 X176.007 Y115.811 E.01682
G1 X163.26 Y103.064 E.56675
G1 X163.26 Y103.598 E.01679
G1 X176.007 Y116.345 E.56675
G1 X176.007 Y116.88 E.01682
G1 X163.26 Y104.133 E.56675
G1 X163.26 Y104.668 E.01682
G1 X176.007 Y117.415 E.56675
G1 X176.007 Y117.95 E.01682
G1 X163.26 Y105.202 E.56677
G1 X163.26 Y105.737 E.01682
G1 X176.007 Y118.484 E.56675
G1 X176.007 Y119.019 E.01682
G1 X163.26 Y106.272 E.56675
G1 X163.26 Y106.807 E.01682
G1 X176.007 Y119.554 E.56675
G1 X176.007 Y120.088 E.01679
G1 X163.26 Y107.341 E.56675
G1 X163.26 Y107.876 E.01682
G1 X176.007 Y120.623 E.56675
G1 X176.007 Y121.158 E.01682
G1 X163.26 Y108.411 E.56675
G1 X163.26 Y108.945 E.01679
M73 P1 R134
G1 X176.007 Y121.692 E.56675
G1 X176.007 Y122.227 E.01682
G1 X163.26 Y109.48 E.56675
G1 X163.26 Y110.015 E.01682
G1 X176.007 Y122.762 E.56675
G1 X176.007 Y123.297 E.01682
G1 X163.26 Y110.55 E.56675
G1 X163.26 Y111.084 E.01679
G1 X176.007 Y123.831 E.56675
G1 X176.007 Y124.366 E.01682
G1 X163.26 Y111.619 E.56675
G1 X163.26 Y112.154 E.01682
G1 X176.007 Y124.901 E.56675
G1 X176.007 Y125.435 E.01679
G1 X163.26 Y112.688 E.56675
G1 X163.26 Y113.223 E.01682
G1 X176.007 Y125.97 E.56675
G1 X176.007 Y126.505 E.01682
G1 X163.26 Y113.758 E.56675
G1 X163.26 Y114.293 E.01682
G1 X176.007 Y127.04 E.56675
G1 X176.007 Y127.574 E.01679
G1 X163.26 Y114.827 E.56675
G1 X163.26 Y115.362 E.01682
G1 X176.007 Y128.109 E.56675
G1 X176.007 Y128.644 E.01682
G1 X163.26 Y115.897 E.56675
G1 X163.26 Y116.431 E.01679
G1 X176.007 Y129.178 E.56675
G1 X176.007 Y129.713 E.01682
G1 X163.26 Y116.966 E.56675
G1 X163.26 Y117.501 E.01682
G1 X176.007 Y130.248 E.56675
G1 X176.007 Y130.783 E.01682
G1 X163.26 Y118.035 E.56677
G1 X163.26 Y118.57 E.01682
G1 X176.007 Y131.317 E.56675
G1 X176.007 Y131.852 E.01682
G1 X163.26 Y119.105 E.56675
G1 X163.26 Y119.64 E.01682
G1 X176.007 Y132.387 E.56675
G1 X176.007 Y132.921 E.01679
G1 X163.26 Y120.174 E.56675
G1 X163.26 Y120.709 E.01682
G1 X176.007 Y133.456 E.56675
G1 X176.007 Y133.991 E.01682
G1 X163.26 Y121.244 E.56675
G1 X163.26 Y121.778 E.01679
G1 X176.007 Y134.526 E.56677
G1 X176.007 Y135.06 E.01679
G1 X163.26 Y122.313 E.56675
G1 X163.26 Y122.848 E.01682
G1 X176.007 Y135.595 E.56675
G1 X176.007 Y136.13 E.01682
G1 X163.26 Y123.383 E.56675
G1 X163.26 Y123.917 E.01679
G1 X176.007 Y136.664 E.56675
G1 X176 Y137.192 E.0166
G1 X163.26 Y124.452 E.56644
G1 X163.26 Y124.987 E.01682
G1 X175.978 Y137.705 E.56546
G1 X175.928 Y138.19 E.01533
G1 X163.26 Y125.521 E.56326
G1 X163.26 Y126.056 E.01682
G1 X175.858 Y138.654 E.56013
G1 X175.765 Y139.096 E.0142
G1 X163.26 Y126.591 E.55599
G1 X163.258 Y127.124 E.01676
G1 X175.652 Y139.518 E.55105
G1 X175.528 Y139.928 E.01347
G1 X163.243 Y127.644 E.54619
G1 X163.205 Y128.141 E.01567
G1 X175.383 Y140.319 E.54145
G1 X175.221 Y140.691 E.01276
G1 X163.143 Y128.613 E.53701
G1 X163.072 Y129.077 E.01476
G1 X175.047 Y141.052 E.53243
G1 X174.858 Y141.397 E.01237
G1 X162.982 Y129.522 E.528
G1 X162.873 Y129.947 E.01379
G1 X174.667 Y141.741 E.52438
G1 X174.455 Y142.064 E.01215
G1 X162.752 Y130.361 E.52033
G1 X162.62 Y130.763 E.0133
G1 X174.229 Y142.373 E.51617
G1 X174.068 Y142.59 E.00849
G1 X173.996 Y142.675 E.0035
G1 X162.473 Y131.151 E.51235
G1 X162.316 Y131.529 E.01287
G1 X173.75 Y142.964 E.50839
G1 X173.49 Y143.238 E.01188
G1 X162.15 Y131.898 E.50419
G1 X161.968 Y132.25 E.01246
M73 Q1 S135
G1 X173.221 Y143.503 E.50032
G1 X172.942 Y143.759 E.0119
G1 X161.777 Y132.594 E.49641
G1 X161.577 Y132.929 E.01227
G1 X172.649 Y144.001 E.49228
G1 X172.546 Y144.085 E.00418
G1 X172.34 Y144.227 E.00787
G1 X161.368 Y133.254 E.48785
G1 X161.15 Y133.571 E.0121
G1 X172.024 Y144.445 E.48347
G1 X171.701 Y144.657 E.01215
G1 X160.919 Y133.875 E.47938
G1 X160.681 Y134.171 E.01194
G1 X171.361 Y144.852 E.47487
G1 X171.006 Y145.032 E.01251
G1 X160.435 Y134.461 E.47
G1 X160.174 Y134.735 E.0119
G1 X170.642 Y145.202 E.4654
G1 X170.259 Y145.354 E.01295
G1 X159.913 Y135.008 E.46
