; generated by PrusaSlicer 2.6.0+win64 on 2023-10-03 at 22:26:51 UTC


;
;
; 

; external perimeters extrusion width = 0.45mm
; perimeters extrusion width = 0.45mm
; infill extrusion width = 0.45mm
; solid infill extrusion width = 0.45mm
; top infill extrusion width = 0.40mm
; first layer extrusion width = 0.42mm

M73 P0 R250
M73 Q0 S260
M201 X1000 Y1000 Z200 E5000 ; sets maximum accelerations, mm/sec^2
M203 X200 Y200 Z12 E120 ; sets maximum feedrates, mm / sec
M204 S1250 T1250 ; sets acceleration (S) and retract acceleration (R), mm/sec^2
M205 X8.00 Y8.00 Z0.40 E4.50 ; sets the jerk limits, mm/sec
M205 S0 T0 ; sets the minimum extruding and travel feed rate, mm/sec
;TYPE:Custom
M862.3 P "MK3S" ; printer model check
M862.1 P0.4 ; nozzle diameter check
M115 U3.12.2 ; tell printer latest fw version
G90 ; use absolute coordinates
M83 ; extruder relative mode
M104 S215 ; set extruder temp
M140 S60 ; set bed temp
M190 S60 ; wait for bed temp
M109 S215 ; wait for extruder temp
G28 W ; home all without mesh bed level
G80 ; mesh bed leveling

G1 Z0.2 F720
G1 Y-3 F1000 ; go outside print area
G92 E0
G1 X60 E9 F1000 ; intro line
G1 X100 E12.5 F1000 ; intro line

G92 E0
M221 S95

; Don't change E values below. Excessive value can damage the printer.

M907 E538 ; set extruder motor current
G21 ; set units to millimeters
G90 ; use absolute coordinates
M83 ; use relative distances for extrusion
M900 K0.05 ; Filament gcode LA 1.5
M900 K30 ; Filament gcode LA 1.0
M107
;LAYER_CHANGE
;Z:0.2
;HEIGHT:0.2
;BEFORE_LAYER_CHANGE
G92 E0.0
;0.2


G1 E-.8 F2100
G1 Z.4 F720
;AFTER_LAYER_CHANGE
;0.2
G1 X24.213 Y65.817 F10800
G1 Z.2 F720
G1 E.8 F2100
M204 S800
;TYPE:Skirt/Brim
;WIDTH:0.42
G1 F1200
G1 X25.153 Y65.623 E.03009
G1 X104.881 Y65.623 E2.49982
G1 X203.159 Y69.631 E3.084
G1 X204.328 Y69.781 E.03695
G1 X205.497 Y70.13 E.03825
G1 X206.835 Y70.818 E.04717
G1 X208.012 Y71.769 E.04744
G1 X225.172 Y88.93 E.76093
G1 X225.893 Y89.796 E.03533
G1 X226.479 Y90.771 E.03567
G1 X227.044 Y92.305 E.05126
G1 X227.257 Y93.965 E.05247
G1 X227.255 Y110.155 E.50763
G1 X227.108 Y111.41 E.03962
G1 X226.754 Y112.608 E.03917
G1 X226.107 Y113.886 E.04491
G1 X225.2 Y115.041 E.04605
G1 X207.86 Y132.378 E.76882
G1 X206.978 Y133.087 E.03548
G1 X205.997 Y133.653 E.03551
G1 X204.941 Y134.063 E.03552
G1 X203.919 Y134.293 E.03285
G1 X105.122 Y144.365 E3.11377
G1 X25.153 Y144.377 E2.50737
G1 X23.846 Y143.985 E.04278
G1 X22.97 Y142.94 E.04275
G1 X22.776 Y142 E.03009
G1 X22.776 Y68 E2.32022
G1 X23.167 Y66.693 E.04277
G1 X24.167 Y65.855 E.04091
M204 S1000
; printing object 3a_mounting_plate.stl id:0 copy 0
;WIPE_START
G1 F8640
G1 X25.153 Y65.623 E-.23389
G1 X27.605 Y65.623 E-.56611
;WIPE_END
G1 Z.6 F720
G1 X104.096 Y141.213 F10800
G1 Z.2 F720
G1 E.8 F2100
M204 S800
;TYPE:Perimeter
;WIDTH:0.419999
G1 F1200
G1 X25.94 Y141.213 E2.45052
G1 X25.94 Y68.787 E2.27086
M73 P0 R249
G1 X104.293 Y68.787 E2.4567
G1 X104.451 Y69.251 E.01537
G1 X104.865 Y70.052 E.02827
G1 X105.403 Y70.782 E.02843
G1 X106.12 Y71.48 E.03137
G1 X106.944 Y72.042 E.03127
G1 X107.761 Y72.422 E.02825
G1 X108.636 Y72.671 E.02852
G1 X109.599 Y72.784 E.0304
G1 X202.785 Y72.787 E2.92178
G1 X203.526 Y72.85 E.02332
M73 Q0 S259
G1 X204.23 Y73.035 E.02282
G1 X204.778 Y73.282 E.01885
G1 X205.223 Y73.557 E.0164
G1 X205.745 Y73.978 E.02103
G1 X222.746 Y90.978 E.75383
G1 X223.13 Y91.412 E.01817
G1 X223.509 Y91.95 E.02063
G1 X223.799 Y92.524 E.02016
G1 X223.956 Y93.004 E.01583
G1 X224.054 Y93.498 E.01579
G1 X224.093 Y94.183 E.02151
G1 X224.093 Y109.981 E.49533
G1 X224.018 Y110.718 E.02323
G1 X223.847 Y111.346 E.02041
G1 X223.592 Y111.907 E.01932
G1 X223.312 Y112.363 E.01678
G1 X222.903 Y112.864 E.02028
G1 X205.75 Y130.017 E.76059
G1 X205.239 Y130.44 E.0208
G1 X204.683 Y130.772 E.0203
G1 X204.084 Y131.014 E.02026
G1 X203.455 Y131.162 E.02026
G1 X202.787 Y131.213 E.02101
G1 X109.694 Y131.22 E2.91886
G1 X109.19 Y131.267 E.01587
G1 X108.675 Y131.345 E.01633
G1 X108.08 Y131.501 E.01929
G1 X107.558 Y131.705 E.01757
G1 X107.093 Y131.943 E.01638
G1 X106.66 Y132.199 E.01577
G1 X106.09 Y132.629 E.02239
G1 X105.528 Y133.189 E.02488
G1 X105.097 Y133.745 E.02206
G1 X104.654 Y134.539 E.02851
G1 X104.306 Y135.45 E.03058
G1 X104.176 Y136.036 E.01882
G1 X104.107 Y136.639 E.01903
G1 X104.096 Y141.153 E.14153
M204 S1000
G1 X104.472 Y141.59 F10800
M204 S800
;TYPE:External perimeter
G1 F1200
G1 X25.563 Y141.59 E2.47413
G1 X25.563 Y68.41 E2.2945
G1 X104.567 Y68.41 E2.47711
G1 X104.787 Y69.08 E.02211
G1 X105.171 Y69.831 E.02645
G1 X105.668 Y70.514 E.02648
G1 X106.335 Y71.171 E.02935
G1 X107.103 Y71.701 E.02926
G1 X107.841 Y72.05 E.0256
G1 X108.273 Y72.175 E.0141
G1 X108.943 Y72.334 E.02159
G1 X109.599 Y72.407 E.0207
G1 X202.801 Y72.41 E2.92228
G1 X203.59 Y72.477 E.02483
G1 X204.35 Y72.677 E.02464
G1 X204.989 Y72.967 E.022
G1 X205.438 Y73.247 E.01659
G1 X206.002 Y73.702 E.02272
G1 X223.178 Y90.877 E.76159
G1 X223.631 Y91.425 E.02229
G1 X223.831 Y91.754 E.01207
G1 X224.151 Y92.387 E.02224
G1 X224.321 Y92.908 E.01718
G1 X224.428 Y93.446 E.0172
G1 X224.471 Y94.183 E.02315
G1 X224.471 Y110.001 E.49596
G1 X224.39 Y110.787 E.02477
G1 X224.29 Y111.154 E.01193
G1 X224.109 Y111.699 E.01801
G1 X223.886 Y112.155 E.01592
G1 X223.62 Y112.58 E.01572
G1 X223.179 Y113.121 E.02188
G1 X206.004 Y130.296 E.76157
G1 X205.457 Y130.749 E.02227
G1 X204.852 Y131.11 E.02209
G1 X204.198 Y131.374 E.02211
G1 X203.513 Y131.535 E.02206
G1 X202.802 Y131.59 E.02236
G1 X109.543 Y131.604 E2.92407
G1 X108.768 Y131.71 E.02453
G1 X108.216 Y131.853 E.01788
G1 X107.546 Y132.125 E.02267
G1 X106.885 Y132.502 E.02386
G1 X106.354 Y132.898 E.02077
G1 X105.825 Y133.421 E.02332
G1 X105.422 Y133.938 E.02055
G1 X105.006 Y134.676 E.02656
G1 X104.674 Y135.534 E.02885
G1 X104.55 Y136.082 E.01762
G1 X104.484 Y136.639 E.01759
G1 X104.472 Y141.53 E.15335
M204 S1000
G1 X104.126 Y141.388 F10800
;WIPE_START
G1 F8640
G1 X101.007 Y141.533 E-.8
;WIPE_END
G1 Z.6 F720
G1 X183.951 Y98.53 F10800
G1 Z.2 F720
G1 E.8 F2100
M204 S800
;TYPE:Perimeter
G1 F1200
G1 X184.601 Y98.711 E.02116
G1 X185.21 Y99.022 E.02144
G1 X185.74 Y99.436 E.02109
G1 X186.215 Y99.992 E.02293
G1 X186.548 Y100.59 E.02146
G1 X186.756 Y101.23 E.0211
G1 X186.84 Y101.9 E.02117
G1 X186.784 Y102.63 E.02296
G1 X186.599 Y103.285 E.02134
G1 X186.295 Y103.888 E.02117
G1 X185.883 Y104.419 E.02107
G1 X185.334 Y104.898 E.02284
G1 X184.79 Y105.209 E.01965
G1 X184.097 Y105.445 E.02295
G1 X183.422 Y105.533 E.02134
G1 X182.751 Y105.491 E.02108
G1 X182.041 Y105.3 E.02305
G1 X181.384 Y104.966 E.02311
G1 X180.851 Y104.543 E.02134
G1 X180.412 Y104.029 E.02119
G1 X180.058 Y103.393 E.02282
G1 X179.85 Y102.741 E.02146
G1 X179.772 Y102.07 E.02118
G1 X179.823 Y101.396 E.02119
G1 X180.022 Y100.695 E.02285
G1 X180.334 Y100.087 E.02143
G1 X180.753 Y99.556 E.02121
G1 X181.264 Y99.114 E.02118
G1 X181.851 Y98.779 E.02119
G1 X182.546 Y98.548 E.02296
G1 X183.217 Y98.466 E.0212
G1 X183.893 Y98.514 E.02125
M204 S1000
G1 X183.945 Y98.914 F10800
M204 S800
;TYPE:External perimeter
G1 F1200
G1 X184.494 Y99.073 E.01792
G1 X185.034 Y99.355 E.0191
G1 X185.503 Y99.73 E.01883
G1 X185.925 Y100.233 E.02059
G1 X186.215 Y100.768 E.01908
G1 X186.396 Y101.341 E.01884
G1 X186.465 Y101.941 E.01894
G1 X186.409 Y102.595 E.02058
G1 X186.238 Y103.176 E.01899
G1 X185.961 Y103.713 E.01895
G1 X185.589 Y104.184 E.01882
G1 X185.118 Y104.589 E.01948
G1 X184.604 Y104.88 E.01852
G1 X183.98 Y105.086 E.0206
G1 X183.379 Y105.158 E.01898
G1 X182.78 Y105.115 E.01883
G1 X182.144 Y104.938 E.0207
G1 X181.56 Y104.633 E.02066
G1 X181.09 Y104.251 E.01899
G1 X180.702 Y103.789 E.01892
G1 X180.39 Y103.215 E.02048
G1 X180.211 Y102.633 E.01909
G1 X180.147 Y102.032 E.01895
G1 X180.199 Y101.43 E.01895
G1 X180.383 Y100.803 E.02049
G1 X180.666 Y100.264 E.01909
G1 X181.045 Y99.794 E.01893
G1 X181.506 Y99.404 E.01893
G1 X182.033 Y99.109 E.01894
G1 X182.659 Y98.908 E.02061
G1 X183.257 Y98.841 E.01887
G1 X183.887 Y98.897 E.01983
M204 S1000
G1 X184.206 Y98.611 F10800
;WIPE_START
G1 F8640
G1 X184.494 Y99.073 E-.14593
G1 X185.034 Y99.355 E-.14067
G1 X185.503 Y99.73 E-.13865
G1 X185.925 Y100.233 E-.15161
G1 X186.215 Y100.768 E-.14051
G1 X186.323 Y101.109 E-.08263
;WIPE_END
G1 Z.6 F720
G1 X125.775 Y99.478 F10800
G1 Z.2 F720
G1 E.8 F2100
M204 S800
;TYPE:Perimeter
G1 F1200
G1 X126.215 Y99.992 E.02121
G1 X126.546 Y100.587 E.02135
G1 X126.757 Y101.233 E.02131
G1 X126.84 Y101.9 E.02107
G1 X126.776 Y102.677 E.02444
G1 X126.621 Y103.227 E.01792
G1 X126.327 Y103.836 E.0212
G1 X125.887 Y104.415 E.0228
G1 X125.376 Y104.865 E.02135
G1 X124.793 Y105.207 E.02119
G1 X124.152 Y105.432 E.0213
G1 X123.43 Y105.532 E.02285
G1 X122.711 Y105.486 E.02259
G1 X122.09 Y105.319 E.02016
G1 X121.439 Y105.001 E.02272
G1 X120.898 Y104.588 E.02134
G1 X120.448 Y104.079 E.0213
G1 X120.102 Y103.494 E.02131
G1 X119.877 Y102.857 E.02118
G1 X119.774 Y102.139 E.02274
G1 X119.813 Y101.46 E.02132
G1 X119.982 Y100.798 E.02142
G1 X120.297 Y100.145 E.02273
G1 X120.708 Y99.603 E.02133
G1 X121.214 Y99.151 E.02127
G1 X121.847 Y98.781 E.02299
G1 X122.546 Y98.548 E.0231
G1 X123.217 Y98.466 E.0212
G1 X123.895 Y98.514 E.02131
G1 X124.548 Y98.69 E.0212
G1 X125.155 Y98.987 E.02119
G1 X125.736 Y99.433 E.02297
M204 S1000
G1 X125.457 Y99.694 F10800
M204 S800
;TYPE:External perimeter
G1 F1200
G1 X125.925 Y100.233 E.02238
G1 X126.214 Y100.765 E.01898
G1 X126.397 Y101.344 E.01904
G1 X126.465 Y101.941 E.01884
G1 X126.419 Y102.539 E.01881
G1 X126.258 Y103.125 E.01905
G1 X125.99 Y103.666 E.01893
G1 X125.59 Y104.183 E.0205
G1 X125.132 Y104.578 E.01896
G1 X124.608 Y104.879 E.01895
G1 X124.033 Y105.075 E.01905
G1 X123.384 Y105.158 E.02051
G1 X122.767 Y105.114 E.01939
G1 X122.191 Y104.956 E.01873
G1 X121.609 Y104.665 E.0204
G1 X121.132 Y104.292 E.01899
G1 X120.734 Y103.834 E.01902
G1 X120.43 Y103.307 E.01908
G1 X120.234 Y102.736 E.01893
G1 X120.148 Y102.092 E.02037
G1 X120.189 Y101.488 E.01898
G1 X120.346 Y100.897 E.01917
G1 X120.634 Y100.315 E.02036
G1 X121.005 Y99.836 E.019
G1 X121.461 Y99.435 E.01904
G1 X122.032 Y99.109 E.02062
G1 X122.659 Y98.908 E.02064
G1 X123.257 Y98.841 E.01887
G1 X123.863 Y98.89 E.01906
G1 X124.444 Y99.053 E.01892
G1 X124.984 Y99.323 E.01893
G1 X125.41 Y99.657 E.01697
M204 S1000
G1 X125.841 Y99.58 F10800
;WIPE_START
G1 F8640
G1 X125.925 Y100.233 E-.17841
G1 X126.214 Y100.765 E-.1398
G1 X126.397 Y101.344 E-.14021
G1 X126.465 Y101.941 E-.13874
G1 X126.419 Y102.539 E-.13849
G1 X126.345 Y102.808 E-.06435
;WIPE_END
G1 Z.6 F720
G1 X109.693 Y124.978 F10800
G1 Z.2 F720
G1 E.8 F2100
M204 S800
;TYPE:Perimeter
G1 F1200
G1 X110.145 Y125.217 E.01603
G1 X110.464 Y125.494 E.01325
G1 X110.74 Y125.85 E.01412
G1 X110.924 Y126.225 E.0131
G1 X111.035 Y126.628 E.01311
G1 X111.066 Y127.045 E.01311
G1 X111.016 Y127.464 E.01323
G1 X110.876 Y127.892 E.01412
G1 X110.67 Y128.256 E.01311
G1 X110.398 Y128.573 E.0131
G1 X110.071 Y128.833 E.0131
G1 X109.696 Y129.027 E.01324
G1 X109.263 Y129.152 E.01413
G1 X108.801 Y129.181 E.01451
G1 X108.394 Y129.13 E.01286
G1 X108.097 Y129.04 E.00973
G1 X107.646 Y128.804 E.01596
G1 X107.315 Y128.524 E.01359
G1 X107.053 Y128.198 E.01311
G1 X106.857 Y127.823 E.01327
G1 X106.731 Y127.391 E.01411
G1 X106.696 Y126.974 E.01312
G1 X106.741 Y126.559 E.01309
G1 X106.866 Y126.155 E.01326
G1 X107.082 Y125.76 E.01412
G1 X107.351 Y125.44 E.01311
G1 X107.676 Y125.177 E.01311
G1 X108.049 Y124.98 E.01323
G1 X108.481 Y124.852 E.01413
G1 X108.897 Y124.815 E.01309
G1 X109.318 Y124.859 E.01327
G1 X109.636 Y124.96 E.01046
M204 S1000
G1 X109.593 Y125.339 F10800
M204 S800
;TYPE:External perimeter
G1 F1200
G1 X109.905 Y125.508 E.01113
G1 X110.172 Y125.732 E.01093
G1 X110.406 Y126.025 E.01176
G1 X110.563 Y126.333 E.01084
G1 X110.659 Y126.666 E.01087
G1 X110.691 Y127.01 E.01083
G1 X110.655 Y127.356 E.01091
G1 X110.544 Y127.714 E.01175
G1 X110.377 Y128.018 E.01088
G1 X110.156 Y128.284 E.01084
G1 X109.889 Y128.503 E.01083
G1 X109.583 Y128.668 E.0109
G1 X109.223 Y128.777 E.01179
G1 X108.837 Y128.805 E.01213
G1 X108.504 Y128.77 E.0105
G1 X108.207 Y128.679 E.00974
G1 X107.87 Y128.5 E.01196
G1 X107.603 Y128.281 E.01083
G1 X107.383 Y128.014 E.01085
G1 X107.217 Y127.709 E.01089
G1 X107.106 Y127.35 E.01178
G1 X107.072 Y127.006 E.01084
G1 X107.104 Y126.661 E.01086
G1 X107.202 Y126.328 E.01088
G1 X107.376 Y125.995 E.01178
G1 X107.595 Y125.727 E.01085
G1 X107.861 Y125.506 E.01084
G1 X108.165 Y125.338 E.01089
G1 X108.524 Y125.226 E.01179
G1 X108.868 Y125.191 E.01084
G1 X109.214 Y125.222 E.01089
G1 X109.537 Y125.318 E.01057
M204 S1000
G1 X109.876 Y125.124 F10800
;WIPE_START
G1 F8640
G1 X109.905 Y125.508 E-.09563
G1 X110.172 Y125.732 E-.08047
G1 X110.406 Y126.025 E-.08658
G1 X110.563 Y126.333 E-.07982
G1 X110.659 Y126.666 E-.08002
G1 X110.691 Y127.01 E-.07977
G1 X110.655 Y127.356 E-.08032
G1 X110.544 Y127.714 E-.08655
G1 X110.377 Y128.018 E-.08009
G1 X110.237 Y128.187 E-.05075
;WIPE_END
G1 Z.6 F720
G1 X92.031 Y127.366 F10800
G1 Z.2 F720
M73 P0 R248
G1 E.8 F2100
M204 S800
;TYPE:Perimeter
G1 F1200
G1 X91.904 Y127.827 E.01499
G1 X91.691 Y128.224 E.01413
G1 X91.425 Y128.546 E.0131
G1 X91.103 Y128.812 E.0131
G1 X90.731 Y129.013 E.01326
G1 X90.3 Y129.145 E.01413
G1 X89.879 Y129.185 E.01326
G1 X89.431 Y129.138 E.01412
G1 X89.032 Y129.014 E.0131
G1 X88.665 Y128.815 E.01309
G1 X88.342 Y128.551 E.01308
G1 X88.075 Y128.229 E.01312
G1 X87.874 Y127.863 E.01309
G1 X87.745 Y127.46 E.01327
G1 X87.696 Y127.013 E.0141
G1 X87.735 Y126.592 E.01326
G1 X87.866 Y126.156 E.01427
G1 X88.082 Y125.76 E.01414
G1 X88.355 Y125.437 E.01326
G1 X88.707 Y125.157 E.0141
G1 X89.08 Y124.967 E.01313
G1 X89.481 Y124.852 E.01308
G1 X89.939 Y124.818 E.0144
G1 X90.313 Y124.858 E.01179
G1 X90.717 Y124.981 E.01324
G1 X91.113 Y125.195 E.01411
G1 X91.434 Y125.463 E.01311
G1 X91.701 Y125.791 E.01326
G1 X91.911 Y126.189 E.01411
G1 X92.028 Y126.591 E.01313
G1 X92.066 Y127.006 E.01307
G1 X92.037 Y127.306 E.00945
M204 S1000
G1 X91.644 Y127.384 F10800
M204 S800
;TYPE:External perimeter
G1 F1200
G1 X91.567 Y127.658 E.00892
G1 X91.395 Y127.991 E.01175
G1 X91.178 Y128.261 E.01086
G1 X90.915 Y128.485 E.01083
G1 X90.611 Y128.655 E.01092
G1 X90.254 Y128.77 E.01176
G1 X89.909 Y128.809 E.01089
G1 X89.535 Y128.776 E.01177
G1 X89.203 Y128.677 E.01086
G1 X88.896 Y128.518 E.01084
G1 X88.626 Y128.303 E.01082
G1 X88.401 Y128.04 E.01085
G1 X88.23 Y127.739 E.01085
G1 X88.119 Y127.41 E.01089
G1 X88.072 Y127.037 E.01179
G1 X88.099 Y126.691 E.01088
G1 X88.202 Y126.328 E.01183
G1 X88.376 Y125.995 E.01178
G1 X88.596 Y125.726 E.0109
G1 X88.887 Y125.488 E.01179
G1 X89.193 Y125.327 E.01084
G1 X89.524 Y125.226 E.01085
G1 X89.91 Y125.194 E.01214
G1 X90.212 Y125.221 E.00951
G1 X90.546 Y125.317 E.0109
G1 X90.879 Y125.491 E.01178
G1 X91.148 Y125.708 E.01084
G1 X91.372 Y125.975 E.01093
G1 X91.551 Y126.304 E.01174
G1 X91.653 Y126.635 E.01086
G1 X91.69 Y126.979 E.01085
G1 X91.661 Y127.326 E.01092
M204 S1000
G1 X91.86 Y127.57 F10800
;WIPE_START
G1 F8640
G1 X91.567 Y127.658 E-.07967
G1 X91.395 Y127.991 E-.08654
G1 X91.178 Y128.261 E-.07998
G1 X90.915 Y128.485 E-.07977
G1 X90.611 Y128.655 E-.08042
G1 X90.254 Y128.77 E-.0866
G1 X89.909 Y128.809 E-.08017
G1 X89.535 Y128.776 E-.08669
G1 X89.203 Y128.677 E-.08
G1 X88.972 Y128.557 E-.06016
;WIPE_END
G1 Z.6 F720
G1 X204.742 Y73.456 F10800
G1 Z.2 F720
G1 E.8 F2100
M204 S800
;TYPE:Solid infill
;WIDTH:0.420234
G1 F1200
G1 X222.648 Y91.361 E.79445
G1 X223.046 Y91.842 E.01959
G1 X223.323 Y92.297 E.01671
G1 X223.522 Y92.768 E.01604
G1 X204.107 Y73.353 E.86143
G1 X203.4 Y73.18 E.02284
G1 X223.705 Y93.486 E.90094
G1 X223.754 Y94.068 E.01832
G1 X202.817 Y73.13 E.92898
G1 X202.279 Y73.126 E.01688
G1 X223.754 Y94.602 E.95285
G1 X223.754 Y95.135 E.01672
G1 X201.745 Y73.126 E.97652
G1 X201.212 Y73.126 E.01672
G1 X223.754 Y95.669 E1.00019
G1 X223.754 Y96.202 E.01672
M73 Q0 S258
G1 X200.678 Y73.126 E1.02386
G1 X200.144 Y73.126 E.01675
G1 X223.754 Y96.736 E1.04756
G1 X223.754 Y97.27 E.01675
G1 X199.611 Y73.126 E1.07123
G1 X199.077 Y73.126 E.01675
G1 X223.754 Y97.803 E1.0949
G1 X223.754 Y98.337 E.01675
G1 X198.544 Y73.126 E1.11857
G1 X198.01 Y73.126 E.01675
G1 X223.754 Y98.87 E1.14224
G1 X223.754 Y99.404 E.01675
G1 X197.476 Y73.126 E1.16593
