; generated by PrusaSlicer 2.6.0+win64 on 2024-01-05 at 12:18:03 UTC


;
;
; 

; external perimeters extrusion width = 0.45mm
; perimeters extrusion width = 0.45mm
; infill extrusion width = 0.45mm
; solid infill extrusion width = 0.45mm
; top infill extrusion width = 0.40mm
; first layer extrusion width = 0.42mm

M73 P0 R243
M73 Q0 S253
M201 X1000 Y1000 Z200 E5000 ; sets maximum accelerations, mm/sec^2
M203 X200 Y200 Z12 E120 ; sets maximum feedrates, mm / sec
M204 S1250 T1250 ; sets acceleration (S) and retract acceleration (R), mm/sec^2
M205 X8.00 Y8.00 Z0.40 E4.50 ; sets the jerk limits, mm/sec
M205 S0 T0 ; sets the minimum extruding and travel feed rate, mm/sec
;TYPE:Custom
M862.3 P "MK3S" ; printer model check
M862.1 P0.4 ; nozzle diameter check
M115 U3.12.2 ; tell printer latest fw version
G90 ; use absolute coordinates
M83 ; extruder relative mode
M104 S215 ; set extruder temp
M140 S60 ; set bed temp
M190 S60 ; wait for bed temp
M109 S215 ; wait for extruder temp
G28 W ; home all without mesh bed level
G80 ; mesh bed leveling

G1 Z0.2 F720
G1 Y-3 F1000 ; go outside print area
G92 E0
G1 X60 E9 F1000 ; intro line
G1 X100 E12.5 F1000 ; intro line

G92 E0
M221 S95

; Don't change E values below. Excessive value can damage the printer.

M907 E538 ; set extruder motor current
G21 ; set units to millimeters
G90 ; use absolute coordinates
M83 ; use relative distances for extrusion
M900 K0.05 ; Filament gcode LA 1.5
M900 K30 ; Filament gcode LA 1.0
M107
;LAYER_CHANGE
;Z:0.2
;HEIGHT:0.2
;BEFORE_LAYER_CHANGE
G92 E0.0
;0.2


G1 E-.8 F2100
G1 Z.4 F720
;AFTER_LAYER_CHANGE
;0.2
G1 X24.213 Y65.817 F10800
G1 Z.2 F720
M73 P0 R242
G1 E.8 F2100
M204 S800
;TYPE:Skirt/Brim
;WIDTH:0.42
G1 F1200
G1 X25.153 Y65.623 E.03009
G1 X104.881 Y65.623 E2.49982
G1 X203.562 Y75.661 E3.11004
G1 X204.696 Y75.868 E.03614
M73 Q0 S252
G1 X205.768 Y76.242 E.0356
G1 X206.978 Y76.913 E.04338
G1 X208.027 Y77.784 E.04275
G1 X225.172 Y94.93 E.76026
G1 X225.92 Y95.834 E.03679
G1 X226.497 Y96.807 E.03547
G1 X227.053 Y98.344 E.05125
G1 X227.208 Y99.209 E.02755
G1 X227.258 Y100.051 E.02645
G1 X227.255 Y116.155 E.50493
G1 X227.082 Y117.533 E.04355
G1 X226.639 Y118.887 E.04467
G1 X225.991 Y120.063 E.0421
G1 X225.2 Y121.041 E.03944
G1 X207.86 Y138.378 E.76882
G1 X206.978 Y139.087 E.03548
G1 X205.96 Y139.671 E.0368
G1 X204.902 Y140.074 E.0355
G1 X203.712 Y140.322 E.03811
G1 X104.881 Y144.377 E3.10138
G1 X25.153 Y144.377 E2.49982
G1 X23.846 Y143.985 E.04278
G1 X22.97 Y142.94 E.04275
G1 X22.776 Y142 E.03009
G1 X22.776 Y68 E2.32022
G1 X23.167 Y66.693 E.04277
G1 X24.167 Y65.855 E.04091
M204 S1000
; printing object 3b_mounting_plate.stl id:0 copy 0
;WIPE_START
G1 F8640
G1 X25.153 Y65.623 E-.23389
G1 X27.605 Y65.623 E-.56611
;WIPE_END
G1 Z.6 F720
G1 X104.094 Y68.787 F10800
G1 Z.2 F720
G1 E.8 F2100
M204 S800
;TYPE:Perimeter
;WIDTH:0.419999
G1 F1200
G1 X104.102 Y73.252 E.14
G1 X104.246 Y74.316 E.03367
G1 X104.413 Y74.892 E.0188
G1 X104.638 Y75.447 E.01878
G1 X104.919 Y75.976 E.01878
G1 X105.269 Y76.491 E.01952
G1 X105.992 Y77.284 E.03365
G1 X106.455 Y77.663 E.01876
G1 X107.008 Y78.018 E.0206
G1 X107.857 Y78.421 E.02947
G1 X108.428 Y78.601 E.01877
G1 X109.062 Y78.726 E.02026
G1 X109.611 Y78.78 E.0173
G1 X202.782 Y78.787 E2.92131
G1 X203.599 Y78.864 E.02573
G1 X204.295 Y79.059 E.02266
G1 X204.749 Y79.261 E.01558
G1 X205.3 Y79.609 E.02043
G1 X205.8 Y80.032 E.02053
G1 X222.746 Y96.978 E.75141
G1 X223.131 Y97.412 E.01819
G1 X223.509 Y97.95 E.02062
G1 X223.799 Y98.524 E.02016
G1 X223.956 Y99.004 E.01583
G1 X224.054 Y99.498 E.01579
G1 X224.093 Y100.183 E.02151
G1 X224.093 Y115.981 E.49533
G1 X224.018 Y116.714 E.0231
G1 X223.826 Y117.402 E.0224
G1 X223.546 Y117.964 E.01969
G1 X223.29 Y118.394 E.01569
G1 X222.903 Y118.864 E.01909
G1 X205.752 Y136.015 E.7605
G1 X205.177 Y136.483 E.02325
G1 X204.619 Y136.803 E.02017
G1 X204.018 Y137.034 E.02019
G1 X203.305 Y137.182 E.02283
G1 X202.792 Y137.213 E.01611
G1 X109.881 Y137.214 E2.91315
G1 X109.316 Y137.247 E.01775
G1 X108.733 Y137.31 E.01839
G1 X107.773 Y137.574 E.03122
G1 X106.95 Y137.954 E.02842
G1 X106.126 Y138.515 E.03126
G1 X105.47 Y139.142 E.02845
G1 X104.869 Y139.942 E.03137
G1 X104.453 Y140.744 E.02833
G1 X104.293 Y141.213 E.01554
G1 X25.94 Y141.213 E2.4567
G1 X25.94 Y68.787 E2.27086
G1 X104.034 Y68.787 E2.44858
M204 S1000
G1 X104.471 Y68.41 F10800
M204 S800
;TYPE:External perimeter
G1 F1200
G1 X104.476 Y73.203 E.15028
G1 X104.609 Y74.213 E.03194
G1 X104.763 Y74.752 E.01758
G1 X104.971 Y75.272 E.01756
G1 X105.233 Y75.767 E.01756
G1 X105.549 Y76.239 E.01781
G1 X106.232 Y76.993 E.0319
G1 X106.664 Y77.349 E.01755
G1 X107.172 Y77.678 E.01898
G1 X107.972 Y78.062 E.02782
G1 X108.506 Y78.232 E.01757
G1 X109.101 Y78.351 E.01903
G1 X109.611 Y78.403 E.01607
G1 X202.8 Y78.41 E2.92187
G1 X203.668 Y78.492 E.02734
G1 X204.423 Y78.703 E.02458
G1 X204.921 Y78.925 E.0171
G1 X205.523 Y79.305 E.02232
G1 X206.06 Y79.759 E.02205
G1 X223.178 Y96.877 E.75904
G1 X223.631 Y97.425 E.02229
G1 X223.831 Y97.754 E.01207
G1 X224.151 Y98.387 E.02224
G1 X224.321 Y98.908 E.01718
G1 X224.428 Y99.446 E.0172
M73 P0 R241
G1 X224.471 Y100.183 E.02315
G1 X224.471 Y116.001 E.49596
G1 X224.39 Y116.784 E.02468
G1 X224.179 Y117.538 E.02455
G1 X223.884 Y118.132 E.02079
G1 X223.598 Y118.612 E.01752
G1 X223.179 Y119.121 E.02067
G1 X206.005 Y136.296 E.76154
G1 X205.392 Y136.794 E.02476
G1 X204.781 Y137.145 E.02209
G1 X204.124 Y137.397 E.02206
G1 X203.355 Y137.557 E.02463
G1 X202.803 Y137.59 E.01734
G1 X109.881 Y137.591 E2.9135
G1 X108.83 Y137.675 E.03306
M73 Q0 S251
G1 X107.928 Y137.917 E.02928
G1 X107.16 Y138.268 E.02648
G1 X106.384 Y138.79 E.02932
G1 X105.769 Y139.37 E.02651
G1 X105.204 Y140.116 E.02934
G1 X104.776 Y140.947 E.02931
G1 X104.567 Y141.59 E.0212
G1 X25.563 Y141.59 E2.47711
G1 X25.563 Y68.41 E2.2945
G1 X104.411 Y68.41 E2.47222
M204 S1000
G1 X104.363 Y68.795 F10800
;WIPE_START
G1 F8640
G1 X104.458 Y71.874 E-.8
;WIPE_END
G1 Z.6 F720
G1 X199.101 Y108.099 F10800
G1 Z.2 F720
G1 E.8 F2100
M204 S800
;TYPE:Perimeter
G1 F1200
G1 X199.122 Y107.552 E.01716
G1 X199.238 Y106.973 E.01851
G1 X199.442 Y106.419 E.01851
G1 X199.73 Y105.903 E.01853
G1 X200.094 Y105.438 E.01852
G1 X200.575 Y104.998 E.02044
G1 X201.074 Y104.674 E.01865
G1 X201.614 Y104.433 E.01854
G1 X202.184 Y104.279 E.01851
G1 X202.88 Y104.213 E.02192
G1 X208.105 Y104.221 E.16383
G1 X208.638 Y104.29 E.01685
G1 X209.14 Y104.429 E.01633
G1 X209.589 Y104.623 E.01534
G1 X210.201 Y105.011 E.02272
G1 X210.694 Y105.467 E.02106
G1 X211.151 Y106.095 E.02435
G1 X211.455 Y106.754 E.02275
G1 X211.635 Y107.516 E.02455
G1 X211.654 Y108.302 E.02465
G1 X211.527 Y109.017 E.02277
G1 X211.268 Y109.691 E.02264
G1 X210.848 Y110.35 E.0245
G1 X210.297 Y110.913 E.0247
G1 X209.534 Y111.404 E.02845
G1 X208.726 Y111.689 E.02686
G1 X207.942 Y111.784 E.02476
G1 X202.657 Y111.779 E.16571
G1 X202.141 Y111.714 E.01631
G1 X201.658 Y111.584 E.01568
G1 X200.888 Y111.216 E.02676
G1 X200.393 Y110.853 E.01925
G1 X199.979 Y110.431 E.01854
G1 X199.606 Y109.897 E.02042
G1 X199.348 Y109.36 E.01868
G1 X199.18 Y108.794 E.01851
G1 X199.1 Y108.159 E.02007
M204 S1000
G1 X199.497 Y108.306 F10800
M204 S800
;TYPE:External perimeter
G1 F1200
G1 X199.473 Y108.105 E.00635
G1 X199.499 Y107.572 E.01673
G1 X199.606 Y107.051 E.01668
G1 X199.794 Y106.553 E.01669
G1 X200.057 Y106.09 E.0167
G1 X200.388 Y105.674 E.01667
G1 X200.826 Y105.28 E.01847
G1 X201.276 Y104.992 E.01675
G1 X201.763 Y104.779 E.01667
G1 X202.278 Y104.644 E.01669
G1 X202.863 Y104.591 E.01842
G1 X208.105 Y104.598 E.16436
G1 X208.541 Y104.655 E.01379
G1 X208.996 Y104.778 E.01478
G1 X209.387 Y104.942 E.01329
G1 X210 Y105.329 E.02273
G1 X210.433 Y105.739 E.0187
G1 X210.843 Y106.313 E.02212
G1 X211.11 Y106.907 E.02042
G1 X211.266 Y107.597 E.02218
G1 X211.277 Y108.305 E.0222
G1 X211.157 Y108.946 E.02045
G1 X210.918 Y109.55 E.02037
G1 X210.532 Y110.143 E.02219
G1 X210.032 Y110.645 E.02222
G1 X209.335 Y111.083 E.02581
G1 X208.607 Y111.331 E.02411
G1 X207.902 Y111.409 E.02224
G1 X202.658 Y111.402 E.16442
G1 X202.221 Y111.345 E.01382
G1 X201.756 Y111.218 E.01511
G1 X201.053 Y110.877 E.0245
G1 X200.621 Y110.553 E.01693
G1 X200.251 Y110.17 E.0167
G1 X199.917 Y109.685 E.01846
G1 X199.69 Y109.201 E.01676
G1 X199.542 Y108.69 E.01668
G1 X199.504 Y108.365 E.01026
M204 S1000
G1 X199.309 Y108.232 F10800
;WIPE_START
G1 F8640
G1 X199.473 Y108.105 E-.06046
G1 X199.499 Y107.572 E-.12322
G1 X199.606 Y107.051 E-.12281
G1 X199.794 Y106.553 E-.12291
G1 X200.057 Y106.09 E-.12295
G1 X200.388 Y105.674 E-.12275
G1 X200.79 Y105.312 E-.1249
;WIPE_END
G1 Z.6 F720
G1 X147.658 Y131.196 F10800
G1 Z.2 F720
G1 E.8 F2100
M204 S800
;TYPE:Perimeter
G1 F1200
G1 X148.08 Y130.967 E.01505
G1 X148.481 Y130.852 E.01308
G1 X148.902 Y130.815 E.01325
G1 X149.35 Y130.866 E.01414
G1 X149.748 Y130.994 E.01311
G1 X150.117 Y131.198 E.01322
G1 X150.464 Y131.494 E.0143
G1 X150.74 Y131.85 E.01412
G1 X150.924 Y132.225 E.0131
G1 X151.035 Y132.628 E.01311
G1 X151.066 Y133.05 E.01327
G1 X151.009 Y133.496 E.0141
G1 X150.876 Y133.893 E.01313
G1 X150.67 Y134.256 E.01309
G1 X150.398 Y134.573 E.0131
G1 X150.071 Y134.833 E.0131
G1 X149.696 Y135.027 E.01324
G1 X149.263 Y135.152 E.01413
G1 X148.846 Y135.185 E.01312
G1 X148.431 Y135.138 E.0131
G1 X148.032 Y135.014 E.0131
G1 X147.661 Y134.812 E.01324
G1 X147.396 Y134.602 E.0106
G1 X147.033 Y134.166 E.01779
G1 X146.845 Y133.793 E.0131
G1 X146.731 Y133.391 E.0131
G1 X146.697 Y132.969 E.01327
G1 X146.749 Y132.522 E.01411
G1 X146.916 Y132.055 E.01555
G1 X147.082 Y131.76 E.01061
G1 X147.355 Y131.437 E.01326
G1 X147.611 Y131.233 E.01026
M204 S1000
G1 X147.849 Y131.522 F10800
M204 S800
;TYPE:External perimeter
G1 F1200
G1 X148.193 Y131.327 E.0124
G1 X148.524 Y131.226 E.01085
G1 X148.869 Y131.191 E.01087
G1 X149.243 Y131.227 E.01178
G1 X149.574 Y131.329 E.01086
G1 X149.881 Y131.492 E.0109
G1 X150.172 Y131.732 E.01183
G1 X150.406 Y132.025 E.01176
G1 X150.563 Y132.333 E.01084
G1 X150.659 Y132.666 E.01087
G1 X150.69 Y133.012 E.01089
G1 X150.649 Y133.385 E.01177
G1 X150.544 Y133.714 E.01083
G1 X150.377 Y134.018 E.01088
G1 X150.156 Y134.284 E.01084
G1 X149.889 Y134.503 E.01083
G1 X149.583 Y134.668 E.0109
G1 X149.223 Y134.777 E.01179
G1 X148.879 Y134.809 E.01083
G1 X148.535 Y134.776 E.01084
G1 X148.203 Y134.677 E.01086
G1 X147.895 Y134.517 E.01088
G1 X147.63 Y134.307 E.0106
G1 X147.365 Y133.988 E.013
G1 X147.205 Y133.681 E.01085
G1 X147.106 Y133.35 E.01083
G1 X147.072 Y133.004 E.0109
G1 X147.11 Y132.63 E.01179
G1 X147.25 Y132.23 E.01329
G1 X147.51 Y131.829 E.01498
G1 X147.804 Y131.562 E.01245
M204 S1000
G1 X147.806 Y131.129 F10800
;WIPE_START
G1 F8640
G1 X148.193 Y131.327 E-.10494
G1 X148.524 Y131.226 E-.07991
G1 X148.869 Y131.191 E-.08007
G1 X149.243 Y131.227 E-.08676
G1 X149.574 Y131.329 E-.07998
G1 X149.881 Y131.492 E-.08026
G1 X150.172 Y131.732 E-.0871
G1 X150.406 Y132.025 E-.08658
G1 X150.563 Y132.333 E-.07982
G1 X150.604 Y132.477 E-.03458
;WIPE_END
G1 Z.6 F720
G1 X129.983 Y130.827 F10800
G1 Z.2 F720
G1 E.8 F2100
M204 S800
;TYPE:Perimeter
G1 F1200
G1 X130.318 Y130.859 E.01055
G1 X130.747 Y130.994 E.0141
G1 X131.117 Y131.198 E.01325
G1 X131.461 Y131.49 E.01415
G1 X131.772 Y131.917 E.01656
G1 X131.924 Y132.225 E.01077
G1 X132.035 Y132.628 E.01311
G1 X132.066 Y133.05 E.01327
G1 X132.009 Y133.497 E.01413
G1 X131.876 Y133.892 E.01307
G1 X131.67 Y134.256 E.01311
G1 X131.398 Y134.573 E.0131
G1 X131.071 Y134.833 E.0131
G1 X130.696 Y135.027 E.01324
G1 X130.263 Y135.152 E.01413
G1 X129.846 Y135.185 E.01312
G1 X129.431 Y135.138 E.0131
G1 X129.032 Y135.014 E.0131
G1 X128.661 Y134.812 E.01324
G1 X128.315 Y134.524 E.01411
G1 X128.051 Y134.193 E.01327
G1 X127.845 Y133.793 E.01411
G1 X127.731 Y133.391 E.0131
G1 X127.697 Y132.97 E.01324
G1 X127.749 Y132.522 E.01414
G1 X127.879 Y132.125 E.0131
G1 X128.082 Y131.76 E.0131
G1 X128.355 Y131.437 E.01326
G1 X128.707 Y131.157 E.0141
G1 X129.08 Y130.967 E.01313
G1 X129.481 Y130.852 E.01308
G1 X129.923 Y130.83 E.01388
M204 S1000
G1 X129.898 Y131.206 F10800
M204 S800
;TYPE:External perimeter
G1 F1200
G1 X130.214 Y131.222 E.00992
G1 X130.574 Y131.328 E.01177
G1 X130.881 Y131.492 E.01091
G1 X131.17 Y131.731 E.01176
G1 X131.44 Y132.095 E.01421
G1 X131.563 Y132.333 E.0084
G1 X131.659 Y132.666 E.01087
G1 X131.69 Y133.012 E.01089
G1 X131.649 Y133.385 E.01177
G1 X131.544 Y133.714 E.01083
G1 X131.377 Y134.018 E.01088
G1 X131.156 Y134.284 E.01084
G1 X130.889 Y134.503 E.01083
G1 X130.583 Y134.668 E.0109
G1 X130.223 Y134.777 E.01179
G1 X129.879 Y134.809 E.01083
G1 X129.535 Y134.776 E.01084
G1 X129.203 Y134.677 E.01086
G1 X128.895 Y134.517 E.01088
G1 X128.603 Y134.281 E.01177
G1 X128.382 Y134.012 E.01092
G1 X128.205 Y133.681 E.01177
G1 X128.106 Y133.35 E.01083
G1 X128.072 Y133.004 E.0109
G1 X128.11 Y132.63 E.01179
G1 X128.213 Y132.3 E.01084
G1 X128.376 Y131.995 E.01084
G1 X128.596 Y131.726 E.0109
G1 X128.887 Y131.488 E.01179
G1 X129.193 Y131.327 E.01084
G1 X129.524 Y131.226 E.01085
G1 X129.838 Y131.209 E.00986
M204 S1000
G1 X130.049 Y130.928 F10800
;WIPE_START
G1 F8640
G1 X130.214 Y131.222 E-.08687
G1 X130.574 Y131.328 E-.08665
G1 X130.881 Y131.492 E-.08037
G1 X131.17 Y131.731 E-.08659
G1 X131.44 Y132.095 E-.10465
G1 X131.563 Y132.333 E-.06186
G1 X131.659 Y132.666 E-.08002
G1 X131.69 Y133.012 E-.08021
G1 X131.649 Y133.385 E-.08665
G1 X131.588 Y133.575 E-.04613
;WIPE_END
G1 Z.6 F720
G1 X151.644 Y108.358 F10800
G1 Z.2 F720
G1 E.8 F2100
M204 S800
;TYPE:Perimeter
G1 F1200
G1 X151.527 Y109.017 E.02099
G1 X151.295 Y109.636 E.02073
G1 X150.888 Y110.299 E.02439
G1 X150.254 Y110.947 E.02842
G1 X149.584 Y111.38 E.02501
G1 X148.94 Y111.615 E.02149
G1 X148.606 Y111.714 E.01092
G1 X147.942 Y111.784 E.02093
G1 X142.657 Y111.779 E.16571
G1 X141.784 Y111.621 E.02782
G1 X141.266 Y111.424 E.01738
G1 X140.822 Y111.178 E.01592
G1 X140.347 Y110.812 E.0188
G1 X139.937 Y110.38 E.01867
G1 X139.603 Y109.893 E.01852
G1 X139.348 Y109.36 E.01853
G1 X139.18 Y108.794 E.01851
G1 X139.101 Y108.208 E.01854
G1 X139.115 Y107.618 E.0185
G1 X139.245 Y106.941 E.02161
G1 X139.468 Y106.364 E.0194
G1 X139.766 Y105.848 E.01868
G1 X140.139 Y105.39 E.01852
G1 X140.579 Y104.995 E.01854
G1 X141.074 Y104.673 E.01852
G1 X141.614 Y104.433 E.01853
G1 X142.184 Y104.279 E.01851
G1 X142.88 Y104.213 E.02192
G1 X148.105 Y104.221 E.16383
G1 X148.979 Y104.379 E.02785
G1 X149.497 Y104.576 E.01738
G1 X150.154 Y104.974 E.02408
G1 X150.724 Y105.501 E.02434
G1 X151.153 Y106.098 E.02305
G1 X151.474 Y106.812 E.02455
G1 X151.636 Y107.52 E.02277
G1 X151.654 Y108.298 E.0244
M204 S1000
G1 X151.274 Y108.148 F10800
M204 S800
;TYPE:External perimeter
G1 F1200
G1 X151.277 Y108.305 E.00492
G1 X151.157 Y108.946 E.02045
G1 X150.943 Y109.499 E.01859
G1 X150.569 Y110.097 E.02211
G1 X149.988 Y110.68 E.02581
G1 X149.386 Y111.059 E.0223
G1 X148.818 Y111.259 E.01888
G1 X148.567 Y111.339 E.00826
G1 X147.902 Y111.409 E.02097
G1 X142.658 Y111.402 E.16442
G1 X141.855 Y111.251 E.02562
G1 X141.39 Y111.067 E.01568
G1 X140.938 Y110.793 E.01657
G1 X140.556 Y110.493 E.01523
G1 X140.213 Y110.123 E.01582
G1 X139.916 Y109.683 E.01664
G1 X139.69 Y109.201 E.01669
G1 X139.542 Y108.69 E.01668
G1 X139.476 Y108.163 E.01665
G1 X139.492 Y107.631 E.01669
G1 X139.609 Y107.04 E.01889
G1 X139.819 Y106.501 E.01814
G1 X140.09 Y106.042 E.01671
G1 X140.429 Y105.631 E.0167
G1 X140.827 Y105.279 E.01666
G1 X141.276 Y104.992 E.01671
G1 X141.763 Y104.779 E.01667
G1 X142.278 Y104.644 E.01669
G1 X142.88 Y104.59 E.01895
G1 X148.105 Y104.598 E.16383
G1 X148.907 Y104.749 E.02559
G1 X149.376 Y104.935 E.01582
G1 X149.955 Y105.294 E.02136
G1 X150.463 Y105.774 E.02191
G1 X150.844 Y106.314 E.02072
G1 X151.128 Y106.962 E.02218
G1 X151.267 Y107.598 E.02041
G1 X151.274 Y108.088 E.01537
M204 S1000
G1 X151.415 Y108.22 F10800
;WIPE_START
G1 F8640
G1 X151.277 Y108.305 E-.05011
G1 X151.157 Y108.946 E-.15058
G1 X150.943 Y109.499 E-.13692
G1 X150.569 Y110.097 E-.16286
G1 X149.988 Y110.68 E-.19005
G1 X149.587 Y110.933 E-.10948
;WIPE_END
G1 Z.6 F720
G1 X204.74 Y79.452 F10800
G1 Z.2 F720
G1 E.8 F2100
M204 S800
;TYPE:Solid infill
;WIDTH:0.420032
G1 F1200
G1 X222.647 Y97.36 E.79412
G1 X223.046 Y97.842 E.01962
