; generated by PrusaSlicer 2.6.0+win64 on 2023-10-03 at 22:27:23 UTC


;
;
; 

; external perimeters extrusion width = 0.45mm
; perimeters extrusion width = 0.45mm
; infill extrusion width = 0.45mm
; solid infill extrusion width = 0.45mm
; top infill extrusion width = 0.40mm
; first layer extrusion width = 0.42mm

M73 P0 R239
M73 Q0 S250
M201 X1000 Y1000 Z200 E5000 ; sets maximum accelerations, mm/sec^2
M203 X200 Y200 Z12 E120 ; sets maximum feedrates, mm / sec
M204 S1250 T1250 ; sets acceleration (S) and retract acceleration (R), mm/sec^2
M205 X8.00 Y8.00 Z0.40 E4.50 ; sets the jerk limits, mm/sec
M205 S0 T0 ; sets the minimum extruding and travel feed rate, mm/sec
;TYPE:Custom
M862.3 P "MK3S" ; printer model check
M862.1 P0.4 ; nozzle diameter check
M115 U3.12.2 ; tell printer latest fw version
G90 ; use absolute coordinates
M83 ; extruder relative mode
M104 S215 ; set extruder temp
M140 S60 ; set bed temp
M190 S60 ; wait for bed temp
M109 S215 ; wait for extruder temp
G28 W ; home all without mesh bed level
G80 ; mesh bed leveling

G1 Z0.2 F720
G1 Y-3 F1000 ; go outside print area
G92 E0
G1 X60 E9 F1000 ; intro line
G1 X100 E12.5 F1000 ; intro line

G92 E0
M221 S95

; Don't change E values below. Excessive value can damage the printer.

M907 E538 ; set extruder motor current
G21 ; set units to millimeters
G90 ; use absolute coordinates
M83 ; use relative distances for extrusion
M900 K0.05 ; Filament gcode LA 1.5
M900 K30 ; Filament gcode LA 1.0
M107
;LAYER_CHANGE
;Z:0.2
;HEIGHT:0.2
;BEFORE_LAYER_CHANGE
G92 E0.0
;0.2


G1 E-.8 F2100
G1 Z.4 F720
;AFTER_LAYER_CHANGE
;0.2
G1 X24.213 Y65.817 F10800
G1 Z.2 F720
G1 E.8 F2100
M204 S800
;TYPE:Skirt/Brim
;WIDTH:0.42
G1 F1200
G1 X25.153 Y65.623 E.03009
G1 X104.881 Y65.623 E2.49982
G1 X203.562 Y75.661 E3.11004
G1 X204.696 Y75.868 E.03614
G1 X205.765 Y76.241 E.0355
G1 X206.978 Y76.913 E.04348
G1 X208.027 Y77.784 E.04275
G1 X225.172 Y94.93 E.76026
G1 X225.92 Y95.834 E.03679
G1 X226.497 Y96.807 E.03547
G1 X227.053 Y98.344 E.05125
G1 X227.208 Y99.209 E.02755
G1 X227.258 Y100.051 E.02645
G1 X227.255 Y116.155 E.50493
G1 X227.082 Y117.533 E.04355
G1 X226.639 Y118.887 E.04467
G1 X225.991 Y120.063 E.0421
G1 X225.2 Y121.041 E.03944
G1 X207.86 Y138.378 E.76882
G1 X206.978 Y139.087 E.03548
G1 X205.96 Y139.671 E.0368
G1 X204.902 Y140.074 E.0355
G1 X203.712 Y140.322 E.03811
G1 X104.881 Y144.377 E3.10138
G1 X25.153 Y144.377 E2.49982
G1 X23.846 Y143.985 E.04278
G1 X22.97 Y142.94 E.04275
G1 X22.776 Y142 E.03009
G1 X22.776 Y68 E2.32022
G1 X23.167 Y66.693 E.04277
G1 X24.167 Y65.855 E.04091
M204 S1000
; printing object 3b_mounting_plate.stl id:0 copy 0
;WIPE_START
G1 F8640
G1 X25.153 Y65.623 E-.23389
G1 X27.605 Y65.623 E-.56611
;WIPE_END
G1 Z.6 F720
G1 X104.293 Y141.213 F10800
G1 Z.2 F720
G1 E.8 F2100
M204 S800
;TYPE:Perimeter
;WIDTH:0.419999
G1 F1200
G1 X25.94 Y141.213 E2.4567
G1 X25.94 Y68.787 E2.27086
M73 Q0 S249
G1 X104.094 Y68.787 E2.45046
G1 X104.094 Y73.001 E.13213
G1 X104.132 Y73.645 E.02023
G1 X104.322 Y74.606 E.03071
G1 X104.528 Y75.193 E.01951
G1 X105.039 Y76.165 E.03443
G1 X105.723 Y77.022 E.03438
G1 X106.536 Y77.722 E.03364
G1 X107.237 Y78.132 E.02546
G1 X107.951 Y78.455 E.02457
G1 X108.549 Y78.629 E.01953
G1 X109.611 Y78.78 E.03363
G1 X202.785 Y78.787 E2.9214
G1 X203.523 Y78.85 E.02322
G1 X204.297 Y79.06 E.02515
G1 X204.75 Y79.261 E.01554
G1 X205.301 Y79.61 E.02045
G1 X205.8 Y80.032 E.02049
G1 X222.746 Y96.978 E.75141
G1 X223.13 Y97.412 E.01817
G1 X223.509 Y97.95 E.02063
G1 X223.799 Y98.524 E.02016
G1 X223.956 Y99.004 E.01583
G1 X224.054 Y99.498 E.01579
G1 X224.093 Y100.183 E.02151
G1 X224.093 Y115.981 E.49533
G1 X224.018 Y116.715 E.02313
G1 X223.826 Y117.402 E.02237
G1 X223.546 Y117.964 E.01969
G1 X223.29 Y118.394 E.01569
G1 X222.903 Y118.864 E.01909
G1 X205.752 Y136.015 E.7605
G1 X205.177 Y136.483 E.02325
G1 X204.619 Y136.803 E.02017
G1 X204.018 Y137.034 E.02019
G1 X203.305 Y137.182 E.02283
G1 X202.792 Y137.213 E.01611
G1 X109.689 Y137.214 E2.91917
G1 X108.733 Y137.31 E.03013
M73 P0 R238
G1 X107.674 Y137.619 E.03459
G1 X106.95 Y137.954 E.02501
G1 X106.126 Y138.515 E.03126
G1 X105.47 Y139.142 E.02845
G1 X104.869 Y139.942 E.03137
G1 X104.453 Y140.744 E.02833
G1 X104.312 Y141.156 E.01365
M204 S1000
G1 X104.567 Y141.59 F10800
M204 S800
;TYPE:External perimeter
G1 F1200
G1 X25.563 Y141.59 E2.47711
G1 X25.563 Y68.41 E2.2945
G1 X104.471 Y68.41 E2.4741
G1 X104.471 Y73.001 E.14395
G1 X104.502 Y73.574 E.01799
G1 X104.679 Y74.485 E.0291
G1 X104.864 Y75.02 E.01775
G1 X105.336 Y75.932 E.0322
G1 X105.971 Y76.737 E.03215
G1 X106.74 Y77.404 E.03192
G1 X107.395 Y77.79 E.02384
G1 X108.06 Y78.094 E.02293
G1 X108.604 Y78.256 E.0178
G1 X109.611 Y78.403 E.03191
G1 X202.801 Y78.41 E2.9219
G1 X203.589 Y78.477 E.0248
G1 X204.424 Y78.704 E.02713
G1 X204.922 Y78.925 E.01708
G1 X205.524 Y79.306 E.02234
G1 X206.06 Y79.759 E.022
G1 X223.178 Y96.877 E.75904
G1 X223.631 Y97.425 E.02229
G1 X223.831 Y97.754 E.01207
G1 X224.151 Y98.387 E.02224
G1 X224.321 Y98.908 E.01718
G1 X224.428 Y99.446 E.0172
G1 X224.471 Y100.183 E.02315
G1 X224.471 Y116.001 E.49596
G1 X224.39 Y116.786 E.02474
G1 X224.179 Y117.538 E.02449
G1 X223.884 Y118.132 E.02079
G1 X223.598 Y118.612 E.01752
G1 X223.179 Y119.121 E.02067
G1 X206.005 Y136.296 E.76154
G1 X205.392 Y136.794 E.02476
G1 X204.781 Y137.145 E.02209
G1 X204.124 Y137.397 E.02206
G1 X203.355 Y137.557 E.02463
G1 X202.803 Y137.59 E.01734
G1 X109.689 Y137.591 E2.91952
G1 X108.83 Y137.675 E.02706
G1 X107.829 Y137.962 E.03265
G1 X107.16 Y138.268 E.02307
G1 X106.384 Y138.79 E.02932
G1 X105.769 Y139.37 E.02651
G1 X105.204 Y140.116 E.02934
G1 X104.776 Y140.947 E.02931
G1 X104.586 Y141.533 E.01932
M204 S1000
G1 X104.251 Y141.345 F10800
;WIPE_START
G1 F8640
G1 X101.121 Y141.535 E-.8
;WIPE_END
G1 Z.6 F720
G1 X215.581 Y107.296 F10800
G1 Z.2 F720
G1 E.8 F2100
M204 S800
;TYPE:Perimeter
G1 F1200
G1 X215.657 Y107.901 E.01912
G1 X215.603 Y108.618 E.02254
G1 X215.421 Y109.263 E.02101
G1 X215.121 Y109.856 E.02084
G1 X214.715 Y110.382 E.02083
G1 X214.128 Y110.881 E.02416
G1 X213.639 Y111.157 E.01761
G1 X212.962 Y111.388 E.02243
G1 X212.299 Y111.475 E.02097
G1 X211.635 Y111.434 E.02086
G1 X210.989 Y111.267 E.02092
G1 X210.389 Y110.98 E.02085
G1 X209.816 Y110.548 E.0225
G1 X209.37 Y110.046 E.02105
G1 X209.031 Y109.471 E.02093
G1 X208.785 Y108.752 E.02383
G1 X208.707 Y108.137 E.01944
G1 X208.745 Y107.466 E.02107
G1 X208.91 Y106.822 E.02084
G1 X209.194 Y106.221 E.02084
G1 X209.622 Y105.646 E.02247
G1 X210.123 Y105.197 E.02109
G1 X210.745 Y104.834 E.02258
G1 X211.432 Y104.605 E.02271
G1 X212.094 Y104.524 E.02091
G1 X212.76 Y104.571 E.02093
G1 X213.4 Y104.743 E.02078
G1 X214.046 Y105.065 E.02263
G1 X214.655 Y105.557 E.02455
G1 X215.042 Y106.024 E.01902
G1 X215.368 Y106.609 E.021
G1 X215.573 Y107.237 E.02071
M204 S1000
G1 X215.228 Y107.47 F10800
M204 S800
;TYPE:External perimeter
G1 F1200
G1 X215.282 Y107.942 E.0149
G1 X215.227 Y108.584 E.0202
G1 X215.06 Y109.155 E.01865
G1 X214.787 Y109.681 E.01858
G1 X214.42 Y110.146 E.01857
G1 X213.973 Y110.532 E.01852
G1 X213.454 Y110.828 E.01873
G1 X212.846 Y111.029 E.02008
G1 X212.256 Y111.101 E.01864
G1 X211.665 Y111.058 E.01858
G1 X211.09 Y110.903 E.01867
G1 X210.557 Y110.642 E.01861
G1 X210.048 Y110.251 E.02012
G1 X209.656 Y109.8 E.01874
G1 X209.358 Y109.285 E.01866
G1 X209.158 Y108.693 E.01959
G1 X209.081 Y108.09 E.01906
G1 X209.121 Y107.494 E.01873
G1 X209.274 Y106.921 E.0186
G1 X209.532 Y106.387 E.01859
G1 X209.921 Y105.876 E.02014
G1 X210.37 Y105.482 E.01873
G1 X210.93 Y105.162 E.02022
G1 X211.545 Y104.965 E.02025
G1 X212.133 Y104.899 E.01855
G1 X212.727 Y104.947 E.01869
G1 X213.296 Y105.106 E.01852
G1 X213.872 Y105.4 E.02028
G1 X214.337 Y105.771 E.01865
G1 X214.752 Y106.265 E.02023
G1 X215.036 Y106.787 E.01863
G1 X215.221 Y107.41 E.02038
M204 S1000
G1 X215.607 Y107.597 F10800
;WIPE_START
G1 F8640
G1 X215.282 Y107.942 E-.12365
G1 X215.227 Y108.584 E-.14878
G1 X215.06 Y109.155 E-.13737
G1 X214.787 Y109.681 E-.13684
G1 X214.42 Y110.146 E-.13678
G1 X214.038 Y110.476 E-.11658
;WIPE_END
G1 Z.6 F720
G1 X155.598 Y108.616 F10800
G1 Z.2 F720
G1 E.8 F2100
M204 S800
;TYPE:Perimeter
G1 F1200
G1 X155.443 Y109.206 E.01913
G1 X155.152 Y109.807 E.02094
G1 X154.719 Y110.376 E.02242
G1 X154.217 Y110.819 E.02099
G1 X153.639 Y111.157 E.02099
G1 X152.962 Y111.388 E.02243
G1 X152.299 Y111.475 E.02097
G1 X151.635 Y111.434 E.02086
G1 X150.989 Y111.267 E.02092
G1 X150.344 Y110.952 E.02251
G1 X149.811 Y110.544 E.02105
G1 X149.371 Y110.048 E.02079
G1 X149.031 Y109.471 E.021
G1 X148.797 Y108.795 E.02243
G1 X148.707 Y108.133 E.02095
G1 X148.745 Y107.469 E.02085
G1 X148.91 Y106.82 E.021
G1 X149.221 Y106.176 E.02242
G1 X149.625 Y105.642 E.02099
G1 X150.168 Y105.165 E.02266
G1 X150.749 Y104.832 E.021
G1 X151.378 Y104.617 E.02084
G1 X152.089 Y104.524 E.02248
G1 X152.814 Y104.581 E.0228
G1 X153.458 Y104.766 E.02101
G1 X154.052 Y105.069 E.02091
G1 X154.574 Y105.477 E.02077
G1 X155.009 Y105.976 E.02076
G1 X155.343 Y106.554 E.02093
G1 X155.561 Y107.185 E.02093
G1 X155.656 Y107.896 E.02249
G1 X155.613 Y108.558 E.0208
M204 S1000
G1 X155.213 Y108.617 F10800
M204 S800
;TYPE:External perimeter
G1 F1200
G1 X155.08 Y109.104 E.01583
G1 X154.815 Y109.638 E.01869
G1 X154.423 Y110.143 E.02004
G1 X153.973 Y110.532 E.01865
G1 X153.454 Y110.828 E.01873
G1 X152.846 Y111.029 E.02008
G1 X152.256 Y111.101 E.01864
G1 X151.664 Y111.058 E.01861
G1 X151.09 Y110.903 E.01864
G1 X150.515 Y110.616 E.02015
G1 X150.045 Y110.248 E.01872
G1 X149.657 Y109.802 E.01854
G1 X149.358 Y109.285 E.01873
G1 X149.155 Y108.678 E.02007
G1 X149.081 Y108.088 E.01864
G1 X149.121 Y107.497 E.01857
G1 X149.274 Y106.919 E.01875
G1 X149.558 Y106.345 E.02008
G1 X149.922 Y105.875 E.01864
G1 X150.413 Y105.452 E.02032
G1 X150.931 Y105.162 E.01861
G1 X151.494 Y104.976 E.01859
G1 X152.132 Y104.899 E.02015
G1 X152.779 Y104.957 E.02037
G1 X153.348 Y105.127 E.01862
G1 X153.876 Y105.402 E.01867
G1 X154.337 Y105.771 E.01851
G1 X154.721 Y106.22 E.01852
G1 X155.014 Y106.738 E.01866
G1 X155.203 Y107.302 E.01865
G1 X155.282 Y107.94 E.02016
G1 X155.229 Y108.559 E.01948
M204 S1000
G1 X155.519 Y108.875 F10800
;WIPE_START
G1 F8640
G1 X155.08 Y109.104 E-.13046
G1 X154.815 Y109.638 E-.13765
G1 X154.423 Y110.143 E-.14761
G1 X153.973 Y110.532 E-.13735
G1 X153.454 Y110.828 E-.13796
G1 X153.006 Y110.976 E-.10897
;WIPE_END
G1 Z.6 F720
G1 X148.027 Y130.994 F10800
G1 Z.2 F720
G1 E.8 F2100
M204 S800
;TYPE:Perimeter
G1 F1200
G1 X148.481 Y130.852 E.01491
G1 X148.897 Y130.815 E.01309
G1 X149.318 Y130.859 E.01327
G1 X149.747 Y130.994 E.0141
G1 X150.117 Y131.198 E.01325
G1 X150.464 Y131.494 E.0143
G1 X150.74 Y131.85 E.01412
G1 X150.924 Y132.225 E.0131
G1 X151.035 Y132.628 E.01311
G1 X151.066 Y133.05 E.01327
G1 X151.009 Y133.496 E.0141
G1 X150.876 Y133.892 E.0131
G1 X150.67 Y134.256 E.01311
G1 X150.398 Y134.573 E.0131
G1 X150.071 Y134.833 E.0131
G1 X149.696 Y135.027 E.01324
G1 X149.263 Y135.152 E.01413
G1 X148.846 Y135.185 E.01312
G1 X148.431 Y135.138 E.0131
G1 X148.032 Y135.014 E.0131
G1 X147.661 Y134.812 E.01324
G1 X147.315 Y134.524 E.01411
G1 X147.051 Y134.193 E.01327
G1 X146.845 Y133.793 E.01411
G1 X146.731 Y133.391 E.0131
G1 X146.696 Y132.974 E.01312
G1 X146.742 Y132.554 E.01325
G1 X146.879 Y132.125 E.01412
G1 X147.139 Y131.688 E.01594
G1 X147.355 Y131.437 E.01038
G1 X147.673 Y131.177 E.01288
G1 X147.974 Y131.022 E.01062
M204 S1000
G1 X148.294 Y131.296 F10800
M204 S800
;TYPE:External perimeter
G1 F1200
G1 X148.524 Y131.226 E.00754
G1 X148.868 Y131.191 E.01084
G1 X149.214 Y131.222 E.01089
G1 X149.574 Y131.328 E.01177
G1 X149.881 Y131.492 E.01091
G1 X150.172 Y131.732 E.01183
G1 X150.406 Y132.025 E.01176
G1 X150.563 Y132.333 E.01084
G1 X150.659 Y132.666 E.01087
G1 X150.69 Y133.012 E.01089
G1 X150.649 Y133.385 E.01177
G1 X150.544 Y133.714 E.01083
G1 X150.377 Y134.018 E.01088
G1 X150.156 Y134.284 E.01084
G1 X149.889 Y134.503 E.01083
G1 X149.583 Y134.668 E.0109
G1 X149.223 Y134.777 E.01179
G1 X148.879 Y134.809 E.01083
G1 X148.535 Y134.776 E.01084
G1 X148.203 Y134.677 E.01086
G1 X147.895 Y134.517 E.01088
G1 X147.603 Y134.281 E.01177
G1 X147.382 Y134.012 E.01092
G1 X147.205 Y133.681 E.01177
G1 X147.106 Y133.35 E.01083
M73 Q0 S248
G1 X147.072 Y133.006 E.01084
G1 X147.104 Y132.66 E.01089
G1 X147.213 Y132.3 E.01179
G1 X147.434 Y131.924 E.01367
G1 X147.596 Y131.726 E.00802
G1 X147.875 Y131.495 E.01136
G1 X148.237 Y131.313 E.0127
M204 S1000
G1 X148.328 Y131.059 F10800
;WIPE_START
G1 F8640
G1 X148.524 Y131.226 E-.06925
G1 X148.868 Y131.191 E-.07984
G1 X149.214 Y131.222 E-.08021
G1 X149.574 Y131.328 E-.08665
G1 X149.881 Y131.492 E-.08037
G1 X150.172 Y131.732 E-.0871
G1 X150.406 Y132.025 E-.08658
G1 X150.563 Y132.333 E-.07982
G1 X150.659 Y132.666 E-.08002
G1 X150.686 Y132.969 E-.07016
;WIPE_END
G1 Z.6 F720
G1 X132.02 Y132.573 F10800
G1 Z.2 F720
G1 E.8 F2100
M204 S800
;TYPE:Perimeter
G1 F1200
G1 X132.066 Y133.05 E.01503
G1 X132.009 Y133.497 E.01413
G1 X131.876 Y133.892 E.01307
G1 X131.67 Y134.256 E.01311
G1 X131.398 Y134.573 E.0131
G1 X131.071 Y134.833 E.0131
G1 X130.696 Y135.027 E.01324
G1 X130.263 Y135.152 E.01413
G1 X129.846 Y135.185 E.01312
G1 X129.431 Y135.138 E.0131
G1 X129.032 Y135.014 E.0131
G1 X128.661 Y134.812 E.01324
G1 X128.315 Y134.524 E.01411
G1 X128.051 Y134.193 E.01327
G1 X127.845 Y133.793 E.01411
G1 X127.731 Y133.391 E.0131
G1 X127.696 Y132.975 E.01309
G1 X127.741 Y132.559 E.01312
G1 X127.866 Y132.155 E.01326
G1 X128.082 Y131.76 E.01412
G1 X128.351 Y131.44 E.01311
G1 X128.68 Y131.175 E.01325
G1 X129.08 Y130.967 E.01414
G1 X129.481 Y130.852 E.01308
G1 X129.832 Y130.813 E.01107
G1 X130.318 Y130.859 E.01531
G1 X130.747 Y130.994 E.0141
G1 X131.117 Y131.198 E.01325
G1 X131.464 Y131.494 E.0143
G1 X131.74 Y131.851 E.01415
G1 X131.924 Y132.225 E.01307
G1 X132.004 Y132.515 E.00943
M204 S1000
G1 X131.654 Y132.649 F10800
M204 S800
;TYPE:External perimeter
G1 F1200
G1 X131.69 Y133.012 E.01144
G1 X131.649 Y133.385 E.01177
G1 X131.544 Y133.714 E.01083
G1 X131.377 Y134.018 E.01088
G1 X131.156 Y134.284 E.01084
G1 X130.889 Y134.503 E.01083
G1 X130.583 Y134.668 E.0109
G1 X130.223 Y134.777 E.01179
G1 X129.879 Y134.809 E.01083
G1 X129.535 Y134.776 E.01084
G1 X129.203 Y134.677 E.01086
G1 X128.895 Y134.517 E.01088
G1 X128.603 Y134.281 E.01177
G1 X128.382 Y134.012 E.01092
G1 X128.205 Y133.681 E.01177
G1 X128.106 Y133.35 E.01083
G1 X128.072 Y133.006 E.01084
G1 X128.104 Y132.661 E.01086
G1 X128.202 Y132.328 E.01088
G1 X128.376 Y131.995 E.01178
G1 X128.595 Y131.727 E.01085
G1 X128.862 Y131.505 E.01089
G1 X129.193 Y131.327 E.01178
G1 X129.524 Y131.226 E.01085
G1 X129.846 Y131.19 E.01016
G1 X130.214 Y131.222 E.01158
G1 X130.574 Y131.328 E.01177
G1 X130.881 Y131.492 E.01091
G1 X131.247 Y131.824 E.01549
G1 X131.406 Y132.026 E.00806
G1 X131.563 Y132.333 E.01081
G1 X131.638 Y132.591 E.00842
M204 S1000
G1 X132 Y132.767 F10800
;WIPE_START
G1 F8640
G1 X131.69 Y133.012 E-.09795
G1 X131.649 Y133.385 E-.08665
G1 X131.544 Y133.714 E-.07974
G1 X131.377 Y134.018 E-.08009
G1 X131.156 Y134.284 E-.07985
G1 X130.889 Y134.503 E-.07974
G1 X130.583 Y134.668 E-.08027
G1 X130.223 Y134.777 E-.08685
G1 X129.879 Y134.809 E-.07977
G1 X129.667 Y134.789 E-.04909
;WIPE_END
G1 Z.6 F720
G1 X204.74 Y79.452 F10800
G1 Z.2 F720
G1 E.8 F2100
M204 S800
;TYPE:Solid infill
;WIDTH:0.420032
G1 F1200
G1 X222.647 Y97.36 E.79412
G1 X223.046 Y97.842 E.01962
G1 X223.323 Y98.297 E.0167
G1 X223.521 Y98.766 E.01596
G1 X204.118 Y79.363 E.86044
G1 X203.402 Y79.18 E.02317
G1 X223.705 Y99.484 E.90037
G1 X223.754 Y100.066 E.01831
G1 X202.819 Y79.131 E.92837
G1 X202.281 Y79.126 E.01687
G1 X223.754 Y100.599 E.95223
G1 X223.754 Y101.133 E.01674
G1 X201.748 Y79.126 E.97589
G1 X201.214 Y79.126 E.01674
G1 X223.754 Y101.666 E.99955
G1 X223.754 Y102.199 E.01671
G1 X200.681 Y79.126 E1.02318
G1 X200.148 Y79.126 E.01671
G1 X223.754 Y102.733 E1.04684
G1 X223.754 Y103.266 E.01671
G1 X199.614 Y79.126 E1.0705
G1 X199.081 Y79.126 E.01671
G1 X223.754 Y103.799 E1.09414
G1 X223.754 Y104.332 E.01671
G1 X198.548 Y79.126 E1.11777
G1 X198.014 Y79.126 E.01674
G1 X223.754 Y104.866 E1.14145
G1 X223.754 Y105.399 E.01671
M73 P0 R237
G1 X197.481 Y79.126 E1.16509
