; generated by PrusaSlicer 2.6.0+win64 on 2024-01-06 at 12:03:40 UTC


;
;
; 

; external perimeters extrusion width = 0.45mm
; perimeters extrusion width = 0.45mm
; infill extrusion width = 0.45mm
; solid infill extrusion width = 0.45mm
; top infill extrusion width = 0.40mm
; first layer extrusion width = 0.42mm

; external perimeters extrusion width = 0.45mm
; perimeters extrusion width = 0.45mm
; infill extrusion width = 0.45mm
; solid infill extrusion width = 0.45mm
; top infill extrusion width = 0.40mm
; first layer extrusion width = 0.42mm

; external perimeters extrusion width = 0.45mm
; perimeters extrusion width = 0.45mm
; infill extrusion width = 0.45mm
; solid infill extrusion width = 0.45mm
; top infill extrusion width = 0.40mm
; first layer extrusion width = 0.42mm

M73 P0 R98
M73 Q0 S99
M201 X1000 Y1000 Z200 E5000 ; sets maximum accelerations, mm/sec^2
M203 X200 Y200 Z12 E120 ; sets maximum feedrates, mm / sec
M204 S1250 T1250 ; sets acceleration (S) and retract acceleration (R), mm/sec^2
M205 X8.00 Y8.00 Z0.40 E4.50 ; sets the jerk limits, mm/sec
M205 S0 T0 ; sets the minimum extruding and travel feed rate, mm/sec
;TYPE:Custom
M862.3 P "MK3S" ; printer model check
M862.1 P0.4 ; nozzle diameter check
M115 U3.12.2 ; tell printer latest fw version
G90 ; use absolute coordinates
M83 ; extruder relative mode
M104 S215 ; set extruder temp
M140 S60 ; set bed temp
M190 S60 ; wait for bed temp
M109 S215 ; wait for extruder temp
G28 W ; home all without mesh bed level
G80 ; mesh bed leveling

G1 Z0.2 F720
G1 Y-3 F1000 ; go outside print area
G92 E0
G1 X60 E9 F1000 ; intro line
G1 X100 E12.5 F1000 ; intro line

G92 E0
M221 S95

; Don't change E values below. Excessive value can damage the printer.

M907 E538 ; set extruder motor current
G21 ; set units to millimeters
G90 ; use absolute coordinates
M83 ; use relative distances for extrusion
M900 K0.05 ; Filament gcode LA 1.5
M900 K30 ; Filament gcode LA 1.0
M107
;LAYER_CHANGE
;Z:0.2
;HEIGHT:0.2
;BEFORE_LAYER_CHANGE
G92 E0.0
;0.2


G1 E-.8 F2100
G1 Z.4 F720
;AFTER_LAYER_CHANGE
;0.2
G1 X58.522 Y72.93 F10800
G1 Z.2 F720
G1 E.8 F2100
M204 S800
;TYPE:Skirt/Brim
;WIDTH:0.42
G1 F1200
G1 X59.456 Y72.736 E.02991
G1 X104.994 Y72.623 E1.42782
G1 X145.005 Y72.623 E1.25452
G1 X189.914 Y72.719 E1.40809
G1 X191.22 Y73.113 E.04277
G1 X192.095 Y74.161 E.04281
G1 X192.286 Y75.096 E.02992
G1 X192.286 Y135.096 E1.88126
G1 X191.895 Y136.403 E.04277
G1 X190.849 Y137.279 E.04278
G1 X189.91 Y137.473 E.03006
G1 X59.462 Y137.491 E4.09011
G1 X58.155 Y137.099 E.04278
M73 P0 R97
G1 X57.279 Y136.053 E.04278
G1 X57.085 Y135.113 E.03009
G1 X57.085 Y75.113 E1.88126
G1 X57.476 Y73.806 E.04277
G1 X58.476 Y72.969 E.04089
M204 S1000
; printing object 1_distance.stl id:2 copy 0
;WIPE_START
G1 F8640
G1 X59.456 Y72.736 E-.23259
G1 X61.913 Y72.73 E-.56741
;WIPE_END
G1 Z.6 F720
G1 X98.675 Y134.326 F10800
G1 Z.2 F720
G1 E.8 F2100
M204 S800
;TYPE:Perimeter
;WIDTH:0.419999
G1 F1200
G1 X60.249 Y134.326 E1.20482
G1 X60.249 Y75.901 E1.83187
G1 X98.675 Y75.901 E1.20482
G1 X98.675 Y134.266 E1.82999
M204 S1000
G1 X99.052 Y134.703 F10800
M204 S800
;TYPE:External perimeter
G1 F1200
G1 X59.872 Y134.703 E1.22846
G1 X59.872 Y75.523 E1.85554
G1 X99.052 Y75.523 E1.22846
G1 X99.052 Y134.643 E1.85366
M204 S1000
G1 X98.673 Y134.574 F10800
;WIPE_START
G1 F8640
G1 X95.587 Y134.648 E-.8
;WIPE_END
G1 Z.6 F720
M73 Q0 S98
G1 X75.682 Y105.986 F10800
G1 Z.2 F720
G1 E.8 F2100
M204 S800
;TYPE:Perimeter
G1 F1200
G1 X75.582 Y105.299 E.02177
G1 X75.626 Y104.502 E.02503
G1 X75.816 Y103.773 E.02362
G1 X76.167 Y103.056 E.02503
G1 X76.622 Y102.463 E.02344
G1 X77.178 Y101.971 E.02328
G1 X77.824 Y101.591 E.0235
G1 X78.579 Y101.331 E.02504
G1 X79.319 Y101.231 E.02341
G1 X80.061 Y101.275 E.02331
G1 X80.784 Y101.46 E.0234
G1 X81.458 Y101.781 E.02341
G1 X82.097 Y102.259 E.02502
G1 X82.595 Y102.816 E.02343
G1 X82.976 Y103.457 E.02338
G1 X83.227 Y104.157 E.02332
G1 X83.343 Y104.95 E.02513
G1 X83.303 Y105.696 E.02342
G1 X83.121 Y106.419 E.02338
G1 X82.775 Y107.142 E.02513
G1 X82.323 Y107.742 E.02355
G1 X81.77 Y108.238 E.02329
G1 X81.079 Y108.645 E.02514
G1 X80.37 Y108.891 E.02353
G1 X79.631 Y108.995 E.0234
G1 X78.834 Y108.947 E.02503
G1 X78.109 Y108.755 E.02352
G1 X77.44 Y108.431 E.02331
G1 X76.846 Y107.985 E.02329
G1 X76.347 Y107.435 E.02328
G1 X75.962 Y106.8 E.02328
G1 X75.691 Y106.045 E.02515
M204 S1000
G1 X76.03 Y105.796 F10800
M204 S800
;TYPE:External perimeter
G1 F1200
G1 X75.955 Y105.25 E.01728
G1 X76.002 Y104.528 E.02269
G1 X76.179 Y103.873 E.02127
G1 X76.503 Y103.226 E.02269
G1 X76.918 Y102.697 E.02108
G1 X77.424 Y102.257 E.02102
G1 X78.011 Y101.918 E.02125
G1 X78.697 Y101.689 E.02268
G1 X79.364 Y101.606 E.02107
G1 X80.033 Y101.651 E.02102
G1 X80.685 Y101.824 E.02115
G1 X81.292 Y102.119 E.02116
G1 X81.866 Y102.558 E.02266
G1 X82.31 Y103.063 E.02108
G1 X82.649 Y103.645 E.02112
G1 X82.871 Y104.279 E.02106
G1 X82.969 Y104.999 E.02278
G1 X82.927 Y105.67 E.02108
G1 X82.756 Y106.322 E.02113
G1 X82.437 Y106.975 E.02279
G1 X82.025 Y107.51 E.02117
G1 X81.522 Y107.954 E.02104
G1 X80.893 Y108.318 E.02279
G1 X80.252 Y108.533 E.0212
G1 X79.583 Y108.621 E.02116
G1 X78.862 Y108.571 E.02266
G1 X78.21 Y108.392 E.0212
G1 X77.609 Y108.094 E.02103
G1 X77.076 Y107.687 E.02103
G1 X76.63 Y107.186 E.02103
G1 X76.287 Y106.609 E.02105
G1 X76.038 Y105.856 E.02487
M204 S1000
G1 X75.647 Y105.679 F10800
;WIPE_START
G1 F8640
G1 X75.955 Y105.25 E-.14123
G1 X76.002 Y104.528 E-.16706
G1 X76.179 Y103.873 E-.15667
G1 X76.503 Y103.226 E-.16708
G1 X76.918 Y102.697 E-.15525
G1 X76.96 Y102.661 E-.01271
;WIPE_END
G1 Z.6 F720
G1 X98.505 Y76.835 F10800
G1 Z.2 F720
G1 E.8 F2100
M204 S800
;TYPE:Solid infill
;WIDTH:0.421019
G1 F1200
G1 X97.91 Y76.24 E.02645
G1 X97.376 Y76.24 E.01679
G1 X98.336 Y77.2 E.04268
G1 X98.336 Y77.734 E.01679
G1 X96.841 Y76.24 E.06645
G1 X96.306 Y76.24 E.01682
G1 X98.336 Y78.269 E.09023
G1 X98.336 Y78.804 E.01682
G1 X95.772 Y76.24 E.114
G1 X95.237 Y76.24 E.01682
G1 X98.336 Y79.339 E.13779
G1 X98.336 Y79.873 E.01679
G1 X94.702 Y76.24 E.16155
G1 X94.167 Y76.24 E.01682
G1 X98.336 Y80.408 E.18534
G1 X98.336 Y80.943 E.01682
G1 X93.633 Y76.24 E.2091
G1 X93.098 Y76.24 E.01682
G1 X98.336 Y81.477 E.23287
G1 X98.336 Y82.012 E.01682
G1 X92.563 Y76.24 E.25665
G1 X92.029 Y76.24 E.01679
G1 X98.336 Y82.547 E.28042
G1 X98.336 Y83.081 E.01679
G1 X91.494 Y76.24 E.30418
G1 X90.959 Y76.24 E.01682
G1 X98.336 Y83.616 E.32797
G1 X98.336 Y84.151 E.01682
G1 X90.424 Y76.24 E.35176
G1 X89.89 Y76.24 E.01679
G1 X98.336 Y84.686 E.37552
G1 X98.336 Y85.22 E.01679
G1 X89.355 Y76.24 E.39929
G1 X88.82 Y76.24 E.01682
G1 X98.336 Y85.755 E.42307
G1 X98.336 Y86.29 E.01682
G1 X88.286 Y76.24 E.44684
G1 X87.751 Y76.24 E.01682
G1 X98.336 Y86.824 E.4706
G1 X98.336 Y87.359 E.01682
M73 P1 R97
M73 Q1 S98
G1 X87.216 Y76.24 E.49439
G1 X86.681 Y76.24 E.01682
G1 X98.336 Y87.894 E.51818
G1 X98.336 Y88.429 E.01682
G1 X86.147 Y76.24 E.54194
G1 X85.612 Y76.24 E.01682
G1 X98.336 Y88.963 E.56571
G1 X98.336 Y89.498 E.01682
G1 X85.077 Y76.24 E.58949
G1 X84.543 Y76.24 E.01679
G1 X98.336 Y90.033 E.61326
G1 X98.336 Y90.567 E.01679
G1 X84.008 Y76.24 E.63702
G1 X83.473 Y76.24 E.01682
G1 X98.336 Y91.102 E.66081
G1 X98.336 Y91.637 E.01682
G1 X82.938 Y76.24 E.6846
G1 X82.404 Y76.24 E.01679
G1 X98.336 Y92.172 E.70836
G1 X98.336 Y92.706 E.01679
G1 X81.869 Y76.24 E.73213
G1 X81.334 Y76.24 E.01682
G1 X98.336 Y93.241 E.75591
G1 X98.336 Y93.776 E.01682
G1 X80.8 Y76.24 E.77968
G1 X80.265 Y76.24 E.01682
G1 X98.336 Y94.31 E.80344
G1 X98.336 Y94.845 E.01682
G1 X79.73 Y76.24 E.82723
G1 X79.196 Y76.24 E.01679
G1 X98.336 Y95.38 E.85099
G1 X98.336 Y95.915 E.01682
G1 X78.661 Y76.24 E.87478
G1 X78.126 Y76.24 E.01682
G1 X98.336 Y96.449 E.89855
G1 X98.336 Y96.984 E.01682
M73 P1 R96
G1 X77.591 Y76.24 E.92233
G1 X77.057 Y76.24 E.01679
G1 X98.336 Y97.519 E.9461
G1 X98.336 Y98.053 E.01679
G1 X76.522 Y76.24 E.96986
G1 X75.987 Y76.24 E.01682
G1 X98.336 Y98.588 E.99365
G1 X98.336 Y99.123 E.01682
G1 X75.453 Y76.24 E1.01741
G1 X74.918 Y76.24 E.01682
G1 X98.336 Y99.658 E1.0412
G1 X98.336 Y100.192 E.01679
G1 X74.383 Y76.24 E1.06497
G1 X73.848 Y76.24 E.01682
G1 X98.336 Y100.727 E1.08875
G1 X98.336 Y101.262 E.01682
G1 X73.314 Y76.24 E1.11252
G1 X72.779 Y76.24 E.01682
G1 X98.336 Y101.796 E1.13628
G1 X98.336 Y102.331 E.01682
G1 X72.244 Y76.24 E1.16007
G1 X71.71 Y76.24 E.01679
G1 X98.336 Y102.866 E1.18383
G1 X98.336 Y103.401 E.01682
G1 X71.175 Y76.24 E1.20762
G1 X70.64 Y76.24 E.01682
G1 X98.336 Y103.935 E1.23138
G1 X98.336 Y104.47 E.01682
G1 X70.105 Y76.24 E1.25517
G1 X69.571 Y76.24 E.01679
G1 X98.336 Y105.005 E1.27894
G1 X98.336 Y105.539 E.01679
M73 Q1 S97
G1 X69.036 Y76.24 E1.3027
G1 X68.501 Y76.24 E.01682
G1 X98.336 Y106.074 E1.32649
G1 X98.336 Y106.609 E.01682
G1 X67.967 Y76.24 E1.35025
G1 X67.432 Y76.24 E.01682
G1 X98.336 Y107.144 E1.37404
G1 X98.336 Y107.678 E.01679
G1 X66.897 Y76.24 E1.3978
G1 X66.362 Y76.24 E.01682
M73 P2 R96
M73 Q2 S97
G1 X98.336 Y108.213 E1.42159
G1 X98.336 Y108.748 E.01682
G1 X65.828 Y76.24 E1.44536
G1 X65.293 Y76.24 E.01682
G1 X98.336 Y109.282 E1.46912
G1 X98.336 Y109.817 E.01682
G1 X64.758 Y76.24 E1.49291
G1 X64.224 Y76.24 E.01679
G1 X98.336 Y110.352 E1.51667
G1 X98.336 Y110.887 E.01682
G1 X63.689 Y76.24 E1.54046
G1 X63.154 Y76.24 E.01682
G1 X98.336 Y111.421 E1.56422
G1 X98.336 Y111.956 E.01682
G1 X62.619 Y76.24 E1.58801
G1 X62.085 Y76.24 E.01679
G1 X98.336 Y112.491 E1.61178
G1 X98.336 Y113.025 E.01679
M73 P2 R95
G1 X61.55 Y76.24 E1.63554
G1 X61.015 Y76.24 E.01682
G1 X98.336 Y113.56 E1.65933
G1 X98.336 Y114.095 E.01682
G1 X60.588 Y76.348 E1.67831
G1 X60.588 Y76.882 E.01679
G1 X98.336 Y114.63 E1.67833
G1 X98.336 Y115.164 E.01679
G1 X60.588 Y77.417 E1.67831
G1 X60.588 Y77.952 E.01682
G1 X98.336 Y115.699 E1.67831
G1 X98.336 Y116.234 E.01682
G1 X60.588 Y78.487 E1.67831
G1 X60.588 Y79.021 E.01679
G1 X98.336 Y116.768 E1.67831
G1 X98.336 Y117.303 E.01682
G1 X60.588 Y79.556 E1.67831
G1 X60.588 Y80.091 E.01682
G1 X98.336 Y117.838 E1.67831
G1 X98.336 Y118.373 E.01682
M73 Q2 S96
G1 X83.287 Y103.324 E.6691
G1 X82.905 Y102.661 E.02406
G1 X82.39 Y102.065 E.02476
G1 X81.707 Y101.532 E.02724
G1 X81.286 Y101.323 E.01478
G1 X60.588 Y80.625 E.92027
G1 X60.588 Y81.16 E.01682
G1 X80.45 Y101.021 E.88307
G1 X80.175 Y100.947 E.00895
G1 X79.815 Y100.922 E.01135
G1 X60.588 Y81.695 E.85486
G1 X60.588 Y82.23 E.01682
G1 X79.258 Y100.899 E.83007
G1 X78.783 Y100.958 E.01505
G1 X60.588 Y82.764 E.80896
G1 X60.588 Y83.299 E.01682
M73 P3 R95
G1 X78.342 Y101.053 E.78937
G1 X77.94 Y101.186 E.01331
G1 X60.588 Y83.834 E.7715
G1 X60.588 Y84.368 E.01679
M73 Q3 S96
G1 X77.57 Y101.35 E.75505
G1 X77.228 Y101.543 E.01235
G1 X60.588 Y84.903 E.73984
G1 X60.588 Y85.438 E.01682
G1 X76.911 Y101.76 E.72572
G1 X76.623 Y102.007 E.01193
G1 X60.588 Y85.973 E.71292
G1 X60.588 Y86.507 E.01679
G1 X76.348 Y102.267 E.70071
G1 X76.112 Y102.566 E.01198
G1 X60.588 Y87.042 E.69022
G1 X60.588 Y87.577 E.01682
G1 X75.884 Y102.872 E.68006
G1 X75.704 Y103.227 E.01251
G1 X60.588 Y88.111 E.67208
G1 X60.588 Y88.646 E.01682
G1 X75.524 Y103.581 E.66406
G1 X75.405 Y103.998 E.01363
G1 X60.588 Y89.181 E.65879
G1 X60.588 Y89.716 E.01682
G1 X75.295 Y104.422 E.65387
G1 X75.26 Y104.922 E.01576
G1 X60.588 Y90.25 E.65234
G1 X60.588 Y90.785 E.01682
G1 X75.264 Y105.461 E.65252
G1 X75.348 Y106.079 E.01961
G1 X60.419 Y91.15 E.66377
M204 S1000
;WIPE_START
G1 F8640
G1 X62.869 Y93.6 E-.8
;WIPE_END
G1 Z.6 F720
G1 X83.308 Y103.879 F10800
G1 Z.2 F720
G1 E.8 F2100
M204 S800
G1 F1200
G1 X98.336 Y118.907 E.66817
G1 X98.336 Y119.442 E.01682
G1 X83.657 Y104.763 E.65265
G1 X83.688 Y104.995 E.00736
G1 X83.666 Y105.307 E.00983
G1 X98.336 Y119.977 E.65225
G1 X98.336 Y120.511 E.01679
G1 X83.632 Y105.807 E.65376
G1 X83.519 Y106.229 E.01373
M73 P3 R94
G1 X98.336 Y121.046 E.65879
G1 X98.336 Y121.581 E.01682
G1 X83.397 Y106.643 E.66419
G1 X83.22 Y107 E.01253
G1 X98.336 Y122.116 E.67208
G1 X98.336 Y122.65 E.01679
G1 X83.042 Y107.357 E.67997
G1 X82.811 Y107.661 E.012
G1 X98.336 Y123.185 E.69024
G1 X98.336 Y123.72 E.01682
G1 X82.577 Y107.961 E.70067
G1 X82.301 Y108.219 E.01188
G1 X98.336 Y124.254 E.71294
G1 X98.336 Y124.789 E.01682
G1 X82.014 Y108.468 E.72568
G1 X81.9 Y108.566 E.00473
G1 X81.694 Y108.682 E.00743
G1 X98.336 Y125.324 E.73993
G1 X98.336 Y125.859 E.01682
G1 X81.352 Y108.875 E.75513
G1 X81.155 Y108.987 E.00712
G1 X80.984 Y109.042 E.00565
G1 X98.336 Y126.393 E.77147
G1 X98.336 Y126.928 E.01682
G1 X80.581 Y109.173 E.78941
G1 X80.368 Y109.242 E.00704
G1 X80.142 Y109.269 E.00716
G1 X98.336 Y127.463 E.80893
G1 X98.336 Y127.997 E.01679
G1 X79.665 Y109.327 E.83012
G1 X79.563 Y109.339 E.00323
G1 X79.108 Y109.304 E.01435
G1 X98.336 Y128.532 E.85491
G1 X98.336 Y129.067 E.01682
G1 X78.231 Y108.963 E.89388
M204 S1000
;WIPE_START
G1 F8640
G1 X80.681 Y111.413 E-.8
;WIPE_END
G1 Z.6 F720
G1 X60.419 Y91.685 F10800
G1 Z.2 F720
G1 E.8 F2100
M204 S800
G1 F1200
G1 X75.629 Y106.894 E.67624
G1 X76.038 Y107.593 E.02546
G1 X76.573 Y108.199 E.02541
G1 X77.193 Y108.68 E.02467
G1 X77.639 Y108.905 E.01571
G1 X98.336 Y129.601 E.9202
G1 X98.336 Y130.136 E.01682
G1 X60.588 Y92.389 E1.67831
G1 X60.588 Y92.924 E.01682
G1 X98.336 Y130.671 E1.67831
G1 X98.336 Y131.206 E.01682
M73 Q3 S95
G1 X60.588 Y93.459 E1.67831
G1 X60.588 Y93.993 E.01679
G1 X98.336 Y131.74 E1.67831
G1 X98.336 Y132.275 E.01682
G1 X60.588 Y94.528 E1.67831
G1 X60.588 Y95.063 E.01682
M73 P4 R94
G1 X98.336 Y132.81 E1.67831
G1 X98.336 Y133.344 E.01679
M73 Q4 S95
G1 X60.588 Y95.597 E1.67831
G1 X60.588 Y96.132 E.01682
G1 X98.336 Y133.879 E1.67831
G1 X98.336 Y133.987 E.0034
G1 X97.909 Y133.987 E.01342
G1 X60.588 Y96.667 E1.65933
G1 X60.588 Y97.202 E.01682
G1 X97.374 Y133.987 E1.63554
G1 X96.839 Y133.987 E.01682
G1 X60.588 Y97.736 E1.61178
G1 X60.588 Y98.271 E.01682
G1 X96.304 Y133.987 E1.58799
G1 X95.77 Y133.987 E.01679
G1 X60.588 Y98.806 E1.56422
G1 X60.588 Y99.34 E.01679
G1 X95.235 Y133.987 E1.54046
G1 X94.7 Y133.987 E.01682
M73 P4 R93
G1 X60.588 Y99.875 E1.51667
G1 X60.588 Y100.41 E.01682
G1 X94.166 Y133.987 E1.49291
G1 X93.631 Y133.987 E.01682
G1 X60.588 Y100.945 E1.46912
G1 X60.588 Y101.479 E.01679
G1 X93.096 Y133.987 E1.44536
G1 X92.561 Y133.987 E.01682
G1 X60.588 Y102.014 E1.42157
G1 X60.588 Y102.549 E.01682
G1 X92.027 Y133.987 E1.3978
G1 X91.492 Y133.987 E.01682
G1 X60.588 Y103.083 E1.37404
G1 X60.588 Y103.618 E.01682
G1 X90.957 Y133.987 E1.35025
G1 X90.423 Y133.987 E.01679
G1 X60.588 Y104.153 E1.32649
G1 X60.588 Y104.688 E.01682
G1 X89.888 Y133.987 E1.3027
G1 X89.353 Y133.987 E.01682
G1 X60.588 Y105.222 E1.27894
G1 X60.588 Y105.757 E.01682
G1 X88.818 Y133.987 E1.25515
G1 X88.284 Y133.987 E.01679
M73 Q4 S94
G1 X60.588 Y106.292 E1.23138
G1 X60.588 Y106.826 E.01679
G1 X87.749 Y133.987 E1.20762
G1 X87.214 Y133.987 E.01682
G1 X60.588 Y107.361 E1.18383
G1 X60.588 Y107.896 E.01682
G1 X86.68 Y133.987 E1.16007
G1 X86.145 Y133.987 E.01682
M73 P5 R93
G1 X60.588 Y108.43 E1.1363
G1 X60.588 Y108.965 E.01682
G1 X85.61 Y133.987 E1.11252
G1 X85.075 Y133.987 E.01682
M73 Q5 S94
G1 X60.588 Y109.5 E1.08873
G1 X60.588 Y110.035 E.01682
G1 X84.541 Y133.987 E1.06497
G1 X84.006 Y133.987 E.01682
G1 X60.588 Y110.569 E1.0412
G1 X60.588 Y111.104 E.01682
G1 X83.471 Y133.987 E1.01741
G1 X82.937 Y133.987 E.01679
G1 X60.588 Y111.639 E.99365
G1 X60.588 Y112.173 E.01679
G1 X82.402 Y133.987 E.96988
G1 X81.867 Y133.987 E.01682
G1 X60.588 Y112.708 E.9461
G1 X60.588 Y113.243 E.01682
G1 X81.332 Y133.987 E.92231
G1 X80.798 Y133.987 E.01679
G1 X60.588 Y113.778 E.89855
G1 X60.588 Y114.312 E.01679
G1 X80.263 Y133.987 E.87478
G1 X79.728 Y133.987 E.01682
G1 X60.588 Y114.847 E.85099
G1 X60.588 Y115.382 E.01682
G1 X79.194 Y133.987 E.82723
G1 X78.659 Y133.987 E.01682
G1 X60.588 Y115.916 E.80346
G1 X60.588 Y116.451 E.01682
G1 X78.124 Y133.987 E.77968
G1 X77.589 Y133.987 E.01682
M73 P5 R92
G1 X60.588 Y116.986 E.75589
G1 X60.588 Y117.521 E.01682
G1 X77.055 Y133.987 E.73213
G1 X76.52 Y133.987 E.01682
G1 X60.588 Y118.055 E.70836
G1 X60.588 Y118.59 E.01682
G1 X75.985 Y133.987 E.68457
G1 X75.451 Y133.987 E.01679
G1 X60.588 Y119.125 E.66081
G1 X60.588 Y119.659 E.01679
G1 X74.916 Y133.987 E.63705
G1 X74.381 Y133.987 E.01682
