; generated by PrusaSlicer 2.7.3+win64 on 2024-04-15 at 20:27:41 UTC


;
;
; 

; external perimeters extrusion width = 0.45mm
; perimeters extrusion width = 0.45mm
; infill extrusion width = 0.45mm
; solid infill extrusion width = 0.45mm
; top infill extrusion width = 0.40mm
; first layer extrusion width = 0.42mm

M73 P0 R109
M73 Q0 S114
M201 X1000 Y1000 Z200 E5000 ; sets maximum accelerations, mm/sec^2
M203 X200 Y200 Z12 E120 ; sets maximum feedrates, mm / sec
M204 S1250 T1250 ; sets acceleration (S) and retract acceleration (R), mm/sec^2
M205 X8.00 Y8.00 Z0.40 E4.50 ; sets the jerk limits, mm/sec
M205 S0 T0 ; sets the minimum extruding and travel feed rate, mm/sec

; printing object 1_front_cap.stl id:0 copy 0
; stop printing object 1_front_cap.stl id:0 copy 0

;TYPE:Custom
M862.3 P "MK3S" ; printer model check
M862.1 P0.4 ; nozzle diameter check
M115 U3.12.2 ; tell printer latest fw version
G90 ; use absolute coordinates
M83 ; extruder relative mode
M104 S215 ; set extruder temp
M140 S60 ; set bed temp
M190 S60 ; wait for bed temp
M109 S215 ; wait for extruder temp
G28 W ; home all without mesh bed level
G80 ; mesh bed leveling

G1 Z0.2 F720
G1 Y-3 F1000 ; go outside print area
G92 E0
G1 X60 E9 F1000 ; intro line
G1 X100 E12.5 F1000 ; intro line

G92 E0
M221 S95

; Don't change E values below. Excessive value can damage the printer.

M907 E538 ; set extruder motor current
G21 ; set units to millimeters
G90 ; use absolute coordinates
M83 ; use relative distances for extrusion
M900 K0.05 ; Filament gcode LA 1.5
M900 K30 ; Filament gcode LA 1.0
M107
;LAYER_CHANGE
;Z:0.2
;HEIGHT:0.2
G1 E-.8 F2100
G1 Z.6 F720
G1 X63.015 Y66.193 F10800
G1 Z.2 F720
G1 E.8 F2100
M204 S800
;TYPE:Skirt/Brim
;WIDTH:0.42
G1 F1200
G1 X64.06 Y65.317 E.04275
G1 X65 Y65.123 E.03009
G1 X185 Y65.123 E3.76252
G1 X186.307 Y65.515 E.04278
G1 X187.183 Y66.56 E.04275
G1 X187.377 Y67.5 E.03009
G1 X187.377 Y142.5 E2.35157
G1 X186.985 Y143.807 E.04278
G1 X185.94 Y144.683 E.04275
G1 X185 Y144.877 E.03009
G1 X65 Y144.877 E3.76252
G1 X63.693 Y144.485 E.04278
G1 X62.817 Y143.44 E.04275
G1 X62.623 Y142.5 E.03009
G1 X62.623 Y67.5 E2.35157
G1 X62.997 Y66.25 E.04091
M73 P0 R108
M204 S1000
;WIPE_START
G1 F8640
G1 X63.015 Y66.193 E-.0138
G1 X64.06 Y65.317 E-.31486
G1 X65 Y65.123 E-.22162
G1 X66.081 Y65.123 E-.24972
;WIPE_END
G1 Z.6 F720
; printing object 1_front_cap.stl id:0 copy 0
G1 X184.213 Y68.287 F10800
G1 Z.2 F720
G1 E.8 F2100
M204 S800
;TYPE:Perimeter
;WIDTH:0.419999
G1 F1200
G1 X184.213 Y70.216 E.06048
G1 X184.213 Y141.713 E2.24173
G1 X65.787 Y141.713 E3.71316
G1 X65.787 Y68.287 E2.30222
G1 X184.153 Y68.287 E3.71128
M204 S1000
G1 X184.59 Y67.91 F10800
M204 S800
;TYPE:External perimeter
G1 F1200
G1 X184.59 Y70.216 E.0723
G1 X184.59 Y142.09 E2.25356
G1 X65.41 Y142.09 E3.7368
M73 Q0 S113
G1 X65.41 Y67.91 E2.32586
G1 X184.53 Y67.91 E3.73492
M204 S1000
;WIPE_START
G1 F8640
M73 P1 R108
G1 X184.59 Y67.91 E-.01385
G1 X184.59 Y70.216 E-.53246
G1 X184.59 Y71.315 E-.25369
;WIPE_END
G1 Z.6 F720
G1 X179.857 Y70.78 F10800
G1 Z.2 F720
G1 E.8 F2100
M204 S800
;TYPE:Perimeter
G1 F1200
G1 X179.917 Y70.798 E.00196
G1 X180.349 Y71.033 E.01542
G1 X180.622 Y71.251 E.01095
G1 X181.009 Y71.715 E.01894
G1 X181.217 Y72.12 E.01428
G1 X181.344 Y72.558 E.0143
G1 X181.385 Y73.018 E.01448
G1 X181.331 Y73.507 E.01543
G1 X181.189 Y73.945 E.01444
G1 X180.949 Y74.375 E.01544
G1 X180.648 Y74.724 E.01445
G1 X180.259 Y75.026 E.01544
G1 X179.85 Y75.228 E.0143
G1 X179.411 Y75.35 E.01429
G1 X178.951 Y75.384 E.01446
G1 X178.463 Y75.324 E.01542
G1 X178.03 Y75.179 E.01432
G1 X177.633 Y74.955 E.01429
G1 X177.283 Y74.655 E.01445
G1 X176.98 Y74.268 E.01541
G1 X176.775 Y73.86 E.01432
G1 X176.652 Y73.421 E.01429
G1 X176.615 Y72.962 E.01444
G1 X176.674 Y72.473 E.01544
G1 X176.817 Y72.04 E.0143
G1 X177.039 Y71.642 E.01429
G1 X177.333 Y71.294 E.01428
G1 X177.689 Y71.008 E.01432
G1 X178.096 Y70.793 E.01443
G1 X178.568 Y70.654 E.01543
G1 X179.023 Y70.615 E.01432
G1 X179.476 Y70.663 E.01428
G1 X179.8 Y70.762 E.01062
M73 Q1 S113
M204 S1000
G1 X179.8 Y70.762 F10800
G1 X179.792 Y71.159
M204 S800
;TYPE:External perimeter
G1 F1200
G1 X180.114 Y71.328 E.0114
G1 X180.386 Y71.545 E.01091
G1 X180.678 Y71.894 E.01427
G1 X180.857 Y72.234 E.01205
G1 X180.969 Y72.601 E.01203
G1 X181.009 Y72.985 E.01211
G1 X180.969 Y73.4 E.01307
G1 X180.856 Y73.769 E.0121
G1 X180.658 Y74.136 E.01307
G1 X180.41 Y74.432 E.01211
G1 X180.084 Y74.692 E.01307
G1 X179.742 Y74.867 E.01205
G1 X179.373 Y74.974 E.01205
G1 X178.989 Y75.009 E.01209
G1 X178.574 Y74.964 E.01309
G1 X178.208 Y74.847 E.01205
G1 X177.871 Y74.662 E.01205
G1 X177.575 Y74.416 E.01207
G1 X177.313 Y74.091 E.01309
G1 X177.136 Y73.75 E.01205
G1 X177.027 Y73.382 E.01203
G1 X176.991 Y72.998 E.01209
G1 X177.034 Y72.583 E.01308
G1 X177.15 Y72.217 E.01204
G1 X177.333 Y71.879 E.01205
G1 X177.576 Y71.582 E.01203
G1 X177.872 Y71.337 E.01205
G1 X178.211 Y71.152 E.01211
G1 X178.609 Y71.029 E.01306
G1 X178.992 Y70.991 E.01207
G1 X179.374 Y71.026 E.01203
G1 X179.739 Y71.132 E.01192
M204 S1000
;WIPE_START
G1 F8640
G1 X179.792 Y71.159 E-.01373
G1 X180.114 Y71.328 E-.08397
G1 X180.386 Y71.545 E-.08034
G1 X180.678 Y71.894 E-.10507
G1 X180.857 Y72.234 E-.08872
G1 X180.969 Y72.601 E-.0886
G1 X181.009 Y72.985 E-.08915
G1 X180.969 Y73.4 E-.09627
G1 X180.856 Y73.769 E-.08911
G1 X180.722 Y74.017 E-.06504
;WIPE_END
G1 Z.6 F720
G1 X156.151 Y113.537 F10800
G1 Z.2 F720
G1 E.8 F2100
M204 S800
;TYPE:Perimeter
G1 F1200
G1 X155.275 Y113.862 E.0293
G1 X154.489 Y114.071 E.0255
G1 X153.538 Y114.228 E.03022
G1 X152.57 Y114.286 E.03041
G1 X151.602 Y114.243 E.03038
G1 X150.797 Y114.129 E.02549
G1 X150.01 Y113.946 E.02533
G1 X149.095 Y113.64 E.03025
G1 X148.213 Y113.238 E.03039
G1 X147.378 Y112.746 E.03039
G1 X146.618 Y112.186 E.0296
G1 X145.995 Y111.627 E.02624
G1 X145.443 Y111.036 E.02536
G1 X144.855 Y110.271 E.03025
G1 X144.347 Y109.446 E.03038
G1 X143.928 Y108.572 E.03039
G1 X143.648 Y107.808 E.02551
G1 X143.49 Y107.207 E.01948
G1 X143.358 Y106.578 E.02015
G1 X143.259 Y105.917 E.02096
G1 X143.241 Y105.624 E.0092
G1 X143.214 Y105.105 E.01629
G1 X143.253 Y104.161 E.02962
G1 X143.364 Y103.336 E.0261
G1 X143.568 Y102.471 E.02787
G1 X143.821 Y101.722 E.02479
G1 X144.246 Y100.745 E.03341
G1 X144.732 Y99.912 E.03024
G1 X145.304 Y99.13 E.03038
G1 X145.845 Y98.523 E.02549
G1 X146.553 Y97.868 E.03024
G1 X147.308 Y97.301 E.0296
G1 X148.022 Y96.864 E.02625
G1 X148.891 Y96.444 E.03026
G1 X149.653 Y96.161 E.02549
G1 X150.585 Y95.913 E.03024
G1 X151.543 Y95.763 E.0304
G1 X152.485 Y95.714 E.02958
G1 X153.322 Y95.75 E.02627
G1 X154.278 Y95.885 E.03027
G1 X155.218 Y96.12 E.03038
G1 X155.984 Y96.392 E.02549
G1 X156.858 Y96.8 E.03024
G1 X157.734 Y97.329 E.03209
G1 X158.343 Y97.782 E.0238
G1 X159.06 Y98.427 E.03024
G1 X159.709 Y99.146 E.03037
G1 X160.194 Y99.799 E.0255
G1 X160.617 Y100.488 E.02535
G1 X161.041 Y101.354 E.03023
G1 X161.374 Y102.264 E.03038
G1 X161.58 Y103.05 E.02548
G1 X161.733 Y104.003 E.03026
G1 X161.786 Y104.97 E.03037
G1 X161.739 Y105.939 E.03042
G1 X161.591 Y106.897 E.03039
G1 X161.343 Y107.834 E.03039
G1 X161.062 Y108.596 E.02546
G1 X160.717 Y109.327 E.02534
G1 X160.224 Y110.156 E.03024
G1 X159.644 Y110.933 E.0304
G1 X159.098 Y111.535 E.02548
G1 X158.405 Y112.167 E.02941
G1 X157.735 Y112.67 E.02627
G1 X156.863 Y113.198 E.03196
G1 X156.206 Y113.514 E.02286
M204 S1000
G1 X156.206 Y113.514 F10800
G1 X155.862 Y113.244
M204 S800
;TYPE:External perimeter
G1 F1200
G1 X155.144 Y113.508 E.02399
G1 X154.393 Y113.706 E.02435
G1 X153.477 Y113.856 E.0291
G1 X152.549 Y113.91 E.02915
G1 X151.62 Y113.866 E.02916
G1 X150.851 Y113.756 E.02436
G1 X150.096 Y113.579 E.02431
G1 X149.216 Y113.283 E.02911
G1 X148.371 Y112.895 E.02915
G1 X147.57 Y112.422 E.02917
G1 X146.843 Y111.883 E.02838
G1 X146.247 Y111.347 E.02513
G1 X145.719 Y110.779 E.02432
G1 X145.154 Y110.042 E.02912
G1 X144.669 Y109.249 E.02915
G1 X144.269 Y108.41 E.02914
G1 X144.003 Y107.68 E.02436
G1 X143.856 Y107.113 E.01837
G1 X143.73 Y106.523 E.01892
G1 X143.632 Y105.859 E.02104
G1 X143.618 Y105.604 E.00801
G1 X143.59 Y105.083 E.01636
G1 X143.629 Y104.178 E.0284
G1 X143.737 Y103.389 E.02497
G1 X143.935 Y102.558 E.02678
G1 X144.177 Y101.847 E.02355
G1 X144.588 Y100.904 E.03225
G1 X145.057 Y100.103 E.0291
G1 X145.608 Y99.354 E.02915
G1 X146.126 Y98.774 E.02438
G1 X146.808 Y98.145 E.02909
G1 X147.533 Y97.603 E.02838
G1 X148.218 Y97.187 E.02513
G1 X149.054 Y96.783 E.02911
G1 X149.783 Y96.514 E.02436
G1 X150.681 Y96.278 E.02911
G1 X151.6 Y96.136 E.02916
G1 X152.504 Y96.09 E.02838
G1 X153.305 Y96.127 E.02514
G1 X154.224 Y96.259 E.02911
G1 X155.126 Y96.486 E.02916
G1 X155.857 Y96.747 E.02434
G1 X156.698 Y97.141 E.02912
G1 X157.509 Y97.631 E.02971
G1 X158.118 Y98.084 E.0238
G1 X158.807 Y98.707 E.02912
G1 X159.429 Y99.398 E.02915
G1 X159.89 Y100.023 E.02435
G1 X160.295 Y100.684 E.02431
G1 X160.702 Y101.519 E.02913
G1 X161.02 Y102.393 E.02916
G1 X161.215 Y103.145 E.02436
G1 X161.36 Y104.061 E.02908
G1 X161.41 Y104.99 E.02917
G1 X161.362 Y105.919 E.02917
G1 X161.218 Y106.838 E.02917
G1 X160.979 Y107.736 E.02914
G1 X160.709 Y108.465 E.02437
G1 X160.376 Y109.165 E.0243
G1 X159.9 Y109.962 E.02911
G1 X159.343 Y110.706 E.02914
G1 X158.82 Y111.281 E.02437
G1 X158.151 Y111.888 E.02832
G1 X157.509 Y112.368 E.02513
G1 X157.043 Y112.651 E.01709
G1 X156.015 Y113.187 E.03635
G1 X155.918 Y113.223 E.00324
M204 S1000
;WIPE_START
G1 F8640
G1 X155.862 Y113.244 E-.01381
G1 X155.144 Y113.508 E-.17664
G1 X154.393 Y113.706 E-.17933
G1 X153.477 Y113.856 E-.21432
G1 X152.549 Y113.91 E-.21464
G1 X152.544 Y113.91 E-.00126
;WIPE_END
G1 Z.6 F720
G1 X179.053 Y139.38 F10800
G1 Z.2 F720
G1 E.8 F2100
M204 S800
;TYPE:Perimeter
G1 F1200
G1 X178.998 Y139.385 E.00173
G1 X178.539 Y139.34 E.01446
G1 X178.069 Y139.196 E.01541
G1 X177.664 Y138.975 E.01447
G1 X177.283 Y138.655 E.0156
G1 X176.98 Y138.268 E.01541
G1 X176.775 Y137.86 E.01432
G1 X176.652 Y137.421 E.01429
G1 X176.615 Y136.962 E.01444
G1 X176.674 Y136.473 E.01544
G1 X176.817 Y136.04 E.0143
G1 X177.039 Y135.642 E.01429
G1 X177.333 Y135.294 E.01428
G1 X177.617 Y135.055 E.01164
G1 X178.056 Y134.808 E.01579
G1 X178.568 Y134.654 E.01676
G1 X179.023 Y134.615 E.01432
G1 X179.476 Y134.663 E.01428
G1 X179.917 Y134.798 E.01446
G1 X180.349 Y135.033 E.01542
G1 X180.702 Y135.33 E.01446
G1 X181.009 Y135.715 E.01544
G1 X181.217 Y136.12 E.01428
G1 X181.344 Y136.558 E.0143
G1 X181.385 Y137.018 E.01448
G1 X181.331 Y137.507 E.01543
G1 X181.192 Y137.941 E.01429
G1 X180.973 Y138.341 E.0143
G1 X180.681 Y138.692 E.01432
G1 X180.324 Y138.983 E.01444
G1 X179.889 Y139.213 E.01543
G1 X179.452 Y139.342 E.01429
G1 X179.113 Y139.374 E.01068
M204 S1000
G1 X179.113 Y139.374 F10800
G1 X178.916 Y139
M204 S800
;TYPE:External perimeter
G1 F1200
G1 X178.641 Y138.977 E.00865
G1 X178.241 Y138.86 E.01307
G1 X177.899 Y138.681 E.0121
G1 X177.575 Y138.416 E.01312
G1 X177.313 Y138.091 E.01309
G1 X177.136 Y137.75 E.01205
G1 X177.027 Y137.382 E.01203
G1 X176.991 Y136.998 E.01209
G1 X177.034 Y136.583 E.01308
G1 X177.15 Y136.217 E.01204
G1 X177.333 Y135.879 E.01205
G1 X177.576 Y135.582 E.01203
G1 X177.849 Y135.353 E.01117
G1 X178.241 Y135.139 E.014
G1 X178.609 Y135.029 E.01204
G1 X178.992 Y134.991 E.01207
G1 X179.374 Y135.026 E.01203
G1 X179.745 Y135.134 E.01212
G1 X180.114 Y135.328 E.01307
G1 X180.413 Y135.572 E.0121
G1 X180.678 Y135.894 E.01308
G1 X180.857 Y136.234 E.01205
G1 X180.969 Y136.601 E.01203
G1 X181.009 Y136.985 E.01211
G1 X180.969 Y137.4 E.01307
G1 X180.857 Y137.767 E.01203
G1 X180.677 Y138.107 E.01206
G1 X180.436 Y138.406 E.01204
G1 X180.141 Y138.654 E.01208
G1 X179.775 Y138.854 E.01308
G1 X179.408 Y138.968 E.01205
G1 X179.026 Y139.009 E.01205
G1 X178.976 Y139.005 E.00157
M204 S1000
;WIPE_START
G1 F8640
G1 X178.916 Y139 E-.0139
G1 X178.641 Y138.977 E-.06372
G1 X178.241 Y138.86 E-.09623
G1 X177.899 Y138.681 E-.08913
G1 X177.575 Y138.416 E-.09665
G1 X177.313 Y138.091 E-.09639
G1 X177.136 Y137.75 E-.08871
G1 X177.027 Y137.382 E-.08862
G1 X176.991 Y136.998 E-.08906
G1 X177.026 Y136.664 E-.07759
;WIPE_END
G1 Z.6 F720
G1 X93.922 Y96.432 F10800
G1 Z.2 F720
G1 E.8 F2100
M204 S800
;TYPE:Perimeter
G1 F1200
G1 X94.653 Y96.161 E.02444
G1 X95.585 Y95.913 E.03024
G1 X96.543 Y95.763 E.0304
G1 X97.485 Y95.714 E.02958
G1 X98.322 Y95.75 E.02627
G1 X99.278 Y95.885 E.03027
G1 X100.218 Y96.12 E.03038
G1 X100.984 Y96.392 E.02549
G1 X101.858 Y96.8 E.03024
G1 X102.668 Y97.285 E.0296
G1 X103.342 Y97.781 E.02624
G1 X104.06 Y98.427 E.03028
G1 X104.61 Y99.026 E.0255
G1 X105.191 Y99.795 E.03022
G1 X105.691 Y100.625 E.03038
G1 X106.07 Y101.433 E.02798
G1 X106.338 Y102.179 E.02485
G1 X106.612 Y103.209 E.03342
G1 X106.742 Y104.11 E.02854
G1 X106.787 Y104.974 E.02713
G1 X106.754 Y105.783 E.02539
G1 X106.622 Y106.738 E.03023
G1 X106.436 Y107.529 E.02548
G1 X106.231 Y108.134 E.02003
G1 X105.991 Y108.737 E.02035
G1 X105.719 Y109.323 E.02026
G1 X105.224 Y110.156 E.03038
G1 X104.644 Y110.933 E.0304
G1 X104.098 Y111.535 E.02548
G1 X103.385 Y112.184 E.03023
G1 X102.734 Y112.671 E.02549
G1 X101.91 Y113.172 E.03024
G1 X101.179 Y113.527 E.02548
G1 X100.275 Y113.862 E.03023
G1 X99.489 Y114.071 E.0255
G1 X98.538 Y114.228 E.03022
G1 X97.57 Y114.286 E.03041
G1 X96.602 Y114.243 E.03038
G1 X95.797 Y114.129 E.02549
G1 X95.01 Y113.946 E.02533
G1 X94.095 Y113.64 E.03025
G1 X93.213 Y113.238 E.03039
G1 X92.396 Y112.757 E.02973
G1 X91.598 Y112.17 E.03106
G1 X90.994 Y111.627 E.02547
G1 X90.342 Y110.916 E.03025
G1 X89.747 Y110.114 E.03131
G1 X89.271 Y109.303 E.02948
G1 X88.926 Y108.567 E.02549
G1 X88.602 Y107.659 E.03023
G1 X88.404 Y106.87 E.02551
G1 X88.259 Y105.917 E.03022
G1 X88.214 Y105.105 E.0255
G1 X88.251 Y104.167 E.02943
G1 X88.363 Y103.337 E.02626
G1 X88.586 Y102.398 E.03026
G1 X88.905 Y101.483 E.03038
G1 X89.246 Y100.745 E.02549
G1 X89.732 Y99.912 E.03024
G1 X90.206 Y99.252 E.02548
G1 X90.842 Y98.527 E.03024
G1 X91.553 Y97.868 E.0304
G1 X92.329 Y97.287 E.03039
G1 X93.033 Y96.866 E.02572
G1 X93.867 Y96.455 E.02915
M204 S1000
G1 X93.867 Y96.455 F10800
G1 X94.022 Y96.799
M204 S800
;TYPE:External perimeter
G1 F1200
G1 X94.056 Y96.783 E.00118
G1 X94.783 Y96.514 E.0243
G1 X95.681 Y96.278 E.02911
G1 X96.6 Y96.136 E.02916
G1 X97.504 Y96.09 E.02838
G1 X98.305 Y96.127 E.02514
G1 X99.224 Y96.259 E.02911
G1 X100.126 Y96.486 E.02916
G1 X100.857 Y96.747 E.02434
G1 X101.698 Y97.141 E.02912
G1 X102.473 Y97.607 E.02835
G1 X103.118 Y98.084 E.02515
G1 X103.807 Y98.707 E.02912
G1 X104.331 Y99.28 E.02435
G1 X104.889 Y100.022 E.02911
G1 X105.368 Y100.819 E.02916
G1 X105.728 Y101.592 E.02674
G1 X105.982 Y102.302 E.02364
G1 X106.246 Y103.297 E.03228
G1 X106.369 Y104.163 E.02743
G1 X106.41 Y104.991 E.02599
G1 X106.377 Y105.766 E.02432
G1 X106.249 Y106.686 E.02912
G1 X106.069 Y107.441 E.02434
G1 X105.874 Y108.012 E.01892
G1 X105.649 Y108.578 E.0191
G1 X105.376 Y109.166 E.02033
G1 X104.9 Y109.962 E.02908
G1 X104.343 Y110.706 E.02914
G1 X103.82 Y111.281 E.02437
G1 X103.132 Y111.904 E.0291
G1 X102.509 Y112.369 E.02437
G1 X101.715 Y112.85 E.02911
G1 X101.015 Y113.187 E.02436
G1 X100.144 Y113.508 E.02911
G1 X99.393 Y113.706 E.02435
G1 X98.477 Y113.856 E.0291
G1 X97.549 Y113.91 E.02915
G1 X96.62 Y113.866 E.02916
G1 X95.851 Y113.756 E.02436
G1 X95.096 Y113.579 E.02431
G1 X94.216 Y113.283 E.02911
G1 X93.371 Y112.895 E.02915
G1 X92.588 Y112.432 E.02852
G1 X91.824 Y111.867 E.02979
G1 X91.247 Y111.347 E.02435
G1 X90.62 Y110.662 E.02912
G1 X90.062 Y109.906 E.02946
G1 X89.596 Y109.112 E.02887
G1 X89.268 Y108.408 E.02435
G1 X88.958 Y107.533 E.02911
G1 X88.77 Y106.779 E.02436
G1 X88.632 Y105.862 E.02908
G1 X88.591 Y105.086 E.02436
G1 X88.628 Y104.183 E.02834
G1 X88.737 Y103.389 E.02513
G1 X88.952 Y102.486 E.0291
G1 X89.261 Y101.609 E.02915
G1 X89.588 Y100.904 E.02437
G1 X90.057 Y100.103 E.0291
G1 X90.512 Y99.473 E.02437
G1 X91.125 Y98.776 E.0291
G1 X91.808 Y98.145 E.02916
G1 X92.554 Y97.589 E.02917
G1 X93.225 Y97.19 E.02448
G1 X93.968 Y96.826 E.02594
M204 S1000
;WIPE_START
G1 F8640
G1 X94.022 Y96.799 E-.01394
G1 X94.056 Y96.783 E-.00868
G1 X94.783 Y96.514 E-.17899
G1 X95.681 Y96.278 E-.21439
G1 X96.6 Y96.136 E-.21472
G1 X97.332 Y96.099 E-.16928
;WIPE_END
