; generated by PrusaSlicer 2.7.2+win64 on 2024-03-18 at 13:06:57 UTC


;
;
; 

; external perimeters extrusion width = 0.45mm
; perimeters extrusion width = 0.45mm
; infill extrusion width = 0.45mm
; solid infill extrusion width = 0.45mm
; top infill extrusion width = 0.40mm
; first layer extrusion width = 0.42mm

; external perimeters extrusion width = 0.45mm
; perimeters extrusion width = 0.45mm
; infill extrusion width = 0.45mm
; solid infill extrusion width = 0.45mm
; top infill extrusion width = 0.40mm
; first layer extrusion width = 0.42mm

; external perimeters extrusion width = 0.45mm
; perimeters extrusion width = 0.45mm
; infill extrusion width = 0.45mm
; solid infill extrusion width = 0.45mm
; top infill extrusion width = 0.40mm
; first layer extrusion width = 0.42mm

; external perimeters extrusion width = 0.45mm
; perimeters extrusion width = 0.45mm
; infill extrusion width = 0.45mm
; solid infill extrusion width = 0.45mm
; top infill extrusion width = 0.40mm
; first layer extrusion width = 0.42mm

M73 P0 R109
M73 Q0 S110
M201 X1000 Y1000 Z200 E5000 ; sets maximum accelerations, mm/sec^2
M203 X200 Y200 Z12 E120 ; sets maximum feedrates, mm / sec
M204 S1250 T1250 ; sets acceleration (S) and retract acceleration (R), mm/sec^2
M205 X8.00 Y8.00 Z0.40 E4.50 ; sets the jerk limits, mm/sec
M205 S0 T0 ; sets the minimum extruding and travel feed rate, mm/sec

; printing object 1_foot.stl id:3 copy 0
; stop printing object 1_foot.stl id:3 copy 0
; printing object 1_foot.stl id:0 copy 0
; stop printing object 1_foot.stl id:0 copy 0
; printing object 1_foot.stl id:1 copy 0
; stop printing object 1_foot.stl id:1 copy 0
; printing object 1_foot.stl id:2 copy 0
; stop printing object 1_foot.stl id:2 copy 0

;TYPE:Custom
M862.3 P "MK3S" ; printer model check
M862.1 P0.4 ; nozzle diameter check
M115 U3.13.2 ; tell printer latest fw version
G90 ; use absolute coordinates
M83 ; extruder relative mode
M104 S255 ; set extruder temp
M140 S100 ; set bed temp
M190 S100 ; wait for bed temp
M109 S255 ; wait for extruder temp
G28 W ; home all without mesh bed level
G80 X97.1147 Y65.4308 W75.8575 H73.2799 ; mesh bed levelling

G1 Z0.2 F720
G1 Y-3 F1000 ; go outside print area
G92 E0
G1 X60 E9 F1000 ; intro line
G1 X100 E12.5 F1000 ; intro line

G92 E0
M221 S95

; Don't change E values below. Excessive value can damage the printer.

M907 E538 ; set extruder motor current
G21 ; set units to millimeters
G90 ; use absolute coordinates
M83 ; use relative distances for extrusion

M900 K0.04 ; Filament gcode LA 1.5
M900 K20 ; Filament gcode LA 1.0




M107
;LAYER_CHANGE
;Z:0.2
;HEIGHT:0.2
G1 E-.8 F2100
G1 Z.6 F720
G1 X98.727 Y66.638 F10800
G1 Z.2 F720
G1 E.8 F2100
M204 S800
;TYPE:Skirt/Brim
;WIDTH:0.42
G1 F1200
G1 X99.795 Y65.789 E.04278
G1 X100.677 Y65.619 E.02816
G1 X130.764 Y65.621 E.94336
G1 X170.492 Y67.075 E1.24648
G1 X171.784 Y67.514 E.04278
G1 X172.621 Y68.592 E.04279
G1 X172.782 Y69.451 E.0274
G1 X172.784 Y134.645 E2.04411
G1 X172.392 Y135.952 E.04278
G1 X171.346 Y136.829 E.0428
G1 X170.494 Y137.021 E.02738
G1 X129.68 Y138.522 E1.28056
G1 X99.68 Y138.522 E.94063
G1 X98.373 Y138.131 E.04277
G1 X97.497 Y137.085 E.04278
G1 X97.303 Y136.145 E.03009
G1 X97.304 Y106.083 E.94257
G1 X98.301 Y67.934 E1.19654
G1 X98.708 Y66.695 E.04089
M204 S1000
; printing object 1_foot.stl id:0 copy 0
;WIPE_START
G1 F8640
G1 X98.727 Y66.638 E-.01387
G1 X99.795 Y65.789 E-.31503
G1 X100.677 Y65.619 E-.2074
G1 X101.819 Y65.619 E-.2637
;WIPE_END
G1 Z.6 F720
G1 X100.467 Y135.358 F10800
G1 Z.2 F720
G1 E.8 F2100
M204 S800
;TYPE:Perimeter
;WIDTH:0.419999
G1 F1200
G1 X100.467 Y106.932 E.89128
G1 X128.893 Y106.932 E.89128
G1 X128.893 Y121.145 E.44564
G1 X128.893 Y135.358 E.44564
G1 X100.527 Y135.358 E.88939
M204 S1000
G1 X100.527 Y135.358 F10800
M73 P0 R108
G1 X100.09 Y135.735
M204 S800
;TYPE:External perimeter
G1 F1200
G1 X100.09 Y106.555 E.91492
G1 X129.27 Y106.555 E.91492
G1 X129.27 Y121.145 E.45746
G1 X129.27 Y135.735 E.45746
G1 X100.15 Y135.735 E.91304
M204 S1000
;WIPE_START
G1 F8640
G1 X100.09 Y135.735 E-.01385
G1 X100.09 Y132.33 E-.78615
;WIPE_END
G1 Z.6 F720
G1 X128.724 Y107.868 F10800
G1 Z.2 F720
G1 E.8 F2100
M204 S800
;TYPE:Solid infill
;WIDTH:0.421716
G1 F1200
G1 X128.127 Y107.272 E.02657
G1 X127.592 Y107.272 E.01685
G1 X128.554 Y108.234 E.04285
G1 X128.554 Y108.77 E.01688
G1 X127.056 Y107.272 E.06673
G1 X126.52 Y107.272 E.01688
G1 X128.554 Y109.305 E.09058
G1 X128.554 Y109.841 E.01688
G1 X125.985 Y107.272 E.11443
G1 X125.449 Y107.272 E.01688
G1 X128.554 Y110.377 E.13831
G1 X128.554 Y110.912 E.01685
G1 X124.913 Y107.272 E.16216
G1 X124.377 Y107.272 E.01688
G1 X128.554 Y111.448 E.18604
G1 X128.554 Y111.984 E.01688
G1 X123.842 Y107.272 E.20989
G1 X123.306 Y107.272 E.01688
G1 X128.554 Y112.519 E.23374
G1 X128.554 Y113.055 E.01688
G1 X122.77 Y107.272 E.25762
G1 X122.235 Y107.272 E.01685
G1 X128.554 Y113.591 E.28147
G1 X128.554 Y114.127 E.01688
G1 X121.699 Y107.272 E.30535
G1 X121.163 Y107.272 E.01688
G1 X128.554 Y114.662 E.3292
G1 X128.554 Y115.198 E.01688
G1 X120.628 Y107.272 E.35305
G1 X120.092 Y107.272 E.01688
G1 X128.554 Y115.734 E.37693
G1 X128.554 Y116.269 E.01685
G1 X119.556 Y107.272 E.40078
G1 X119.02 Y107.272 E.01688
G1 X128.554 Y116.805 E.42466
G1 X128.554 Y117.341 E.01688
G1 X118.485 Y107.272 E.44851
G1 X117.949 Y107.272 E.01688
M73 Q0 S109
G1 X128.554 Y117.876 E.47236
G1 X128.554 Y118.412 E.01688
G1 X117.413 Y107.272 E.49624
G1 X116.878 Y107.272 E.01685
G1 X128.554 Y118.948 E.52009
G1 X128.554 Y119.483 E.01685
G1 X116.342 Y107.272 E.54394
G1 X115.806 Y107.272 E.01688
G1 X128.554 Y120.019 E.56782
G1 X128.554 Y120.555 E.01688
G1 X115.271 Y107.272 E.59167
G1 X114.735 Y107.272 E.01688
G1 X128.554 Y121.091 E.61555
G1 X128.554 Y121.626 E.01685
G1 X114.199 Y107.272 E.6394
G1 X113.663 Y107.272 E.01688
G1 X128.554 Y122.162 E.66328
G1 X128.554 Y122.698 E.01688
G1 X113.128 Y107.272 E.68713
G1 X112.592 Y107.272 E.01688
G1 X128.554 Y123.233 E.71098
G1 X128.554 Y123.769 E.01688
G1 X112.056 Y107.272 E.73486
G1 X111.521 Y107.272 E.01685
G1 X128.554 Y124.305 E.75871
G1 X128.554 Y124.84 E.01685
G1 X110.985 Y107.272 E.78256
G1 X110.449 Y107.272 E.01688
G1 X128.554 Y125.376 E.80644
G1 X128.554 Y125.912 E.01688
G1 X109.914 Y107.272 E.83029
G1 X109.378 Y107.272 E.01688
G1 X128.554 Y126.448 E.85417
G1 X128.554 Y126.983 E.01685
G1 X108.842 Y107.272 E.87802
G1 X108.307 Y107.272 E.01685
G1 X128.554 Y127.519 E.90187
G1 X128.554 Y128.055 E.01688
G1 X107.771 Y107.272 E.92575
G1 X107.235 Y107.272 E.01688
G1 X128.554 Y128.59 E.9496
G1 X128.554 Y129.126 E.01688
M73 P1 R108
M73 Q1 S109
G1 X106.699 Y107.272 E.97348
G1 X106.164 Y107.272 E.01685
G1 X128.554 Y129.662 E.99733
G1 X128.554 Y130.197 E.01685
G1 X105.628 Y107.272 E1.02118
G1 X105.092 Y107.272 E.01688
G1 X128.554 Y130.733 E1.04506
G1 X128.554 Y131.269 E.01688
G1 X104.557 Y107.272 E1.06891
G1 X104.021 Y107.272 E.01688
G1 X128.554 Y131.805 E1.09279
G1 X128.554 Y132.34 E.01685
G1 X103.485 Y107.272 E1.11664
G1 X102.95 Y107.272 E.01685
G1 X128.554 Y132.876 E1.14049
G1 X128.554 Y133.412 E.01688
G1 X102.414 Y107.272 E1.16437
G1 X101.878 Y107.272 E.01688
G1 X128.554 Y133.947 E1.18822
G1 X128.554 Y134.483 E.01688
G1 X101.342 Y107.272 E1.2121
G1 X100.807 Y107.272 E.01685
G1 X128.554 Y135.019 E1.23595
G1 X128.018 Y135.019 E.01688
M73 P1 R107
G1 X100.807 Y107.807 E1.2121
G1 X100.807 Y108.343 E.01688
G1 X127.482 Y135.019 E1.18822
G1 X126.947 Y135.019 E.01685
G1 X100.807 Y108.879 E1.16437
G1 X100.807 Y109.414 E.01685
G1 X126.411 Y135.019 E1.14051
G1 X125.875 Y135.019 E.01688
G1 X100.807 Y109.95 E1.11664
G1 X100.807 Y110.486 E.01688
G1 X125.34 Y135.019 E1.09279
G1 X124.804 Y135.019 E.01688
G1 X100.807 Y111.022 E1.06891
G1 X100.807 Y111.557 E.01685
G1 X124.268 Y135.019 E1.04506
G1 X123.733 Y135.019 E.01685
M73 Q1 S108
G1 X100.807 Y112.093 E1.0212
G1 X100.807 Y112.629 E.01688
G1 X123.197 Y135.019 E.99733
G1 X122.661 Y135.019 E.01688
G1 X100.807 Y113.164 E.97348
G1 X100.807 Y113.7 E.01688
G1 X122.125 Y135.019 E.9496
G1 X121.59 Y135.019 E.01685
G1 X100.807 Y114.236 E.92575
G1 X100.807 Y114.771 E.01685
G1 X121.054 Y135.019 E.90189
G1 X120.518 Y135.019 E.01688
G1 X100.807 Y115.307 E.87802
G1 X100.807 Y115.843 E.01688
G1 X119.983 Y135.019 E.85417
G1 X119.447 Y135.019 E.01688
G1 X100.807 Y116.379 E.83029
G1 X100.807 Y116.914 E.01685
G1 X118.911 Y135.019 E.80644
G1 X118.376 Y135.019 E.01685
G1 X100.807 Y117.45 E.78258
G1 X100.807 Y117.986 E.01688
G1 X117.84 Y135.019 E.75871
G1 X117.304 Y135.019 E.01688
G1 X100.807 Y118.521 E.73486
G1 X100.807 Y119.057 E.01688
G1 X116.768 Y135.019 E.71098
G1 X116.233 Y135.019 E.01685
G1 X100.807 Y119.593 E.68713
G1 X100.807 Y120.128 E.01685
G1 X115.697 Y135.019 E.66328
G1 X115.161 Y135.019 E.01688
G1 X100.807 Y120.664 E.6394
G1 X100.807 Y121.2 E.01688
G1 X114.626 Y135.019 E.61555
G1 X114.09 Y135.019 E.01688
G1 X100.807 Y121.736 E.59167
G1 X100.807 Y122.271 E.01685
G1 X113.554 Y135.019 E.56782
G1 X113.019 Y135.019 E.01685
G1 X100.807 Y122.807 E.54397
G1 X100.807 Y123.343 E.01688
G1 X112.483 Y135.019 E.52009
G1 X111.947 Y135.019 E.01688
G1 X100.807 Y123.878 E.49624
G1 X100.807 Y124.414 E.01688
M73 P2 R107
G1 X111.411 Y135.019 E.47236
G1 X110.876 Y135.019 E.01685
M73 Q2 S108
G1 X100.807 Y124.95 E.44851
G1 X100.807 Y125.485 E.01685
G1 X110.34 Y135.019 E.42466
G1 X109.804 Y135.019 E.01688
G1 X100.807 Y126.021 E.40078
G1 X100.807 Y126.557 E.01688
G1 X109.269 Y135.019 E.37693
G1 X108.733 Y135.019 E.01688
G1 X100.807 Y127.092 E.35307
G1 X100.807 Y127.628 E.01688
G1 X108.197 Y135.019 E.3292
G1 X107.662 Y135.019 E.01685
G1 X100.807 Y128.164 E.30535
G1 X100.807 Y128.7 E.01688
G1 X107.126 Y135.019 E.28147
G1 X106.59 Y135.019 E.01688
G1 X100.807 Y129.235 E.25762
G1 X100.807 Y129.771 E.01688
G1 X106.055 Y135.019 E.23376
G1 X105.519 Y135.019 E.01688
G1 X100.807 Y130.307 E.20989
G1 X100.807 Y130.842 E.01685
G1 X104.983 Y135.019 E.18604
G1 X104.447 Y135.019 E.01688
G1 X100.807 Y131.378 E.16216
G1 X100.807 Y131.914 E.01688
G1 X103.912 Y135.019 E.13831
G1 X103.376 Y135.019 E.01688
G1 X100.807 Y132.449 E.11445
G1 X100.807 Y132.985 E.01688
G1 X102.84 Y135.019 E.09058
G1 X102.305 Y135.019 E.01685
G1 X100.807 Y133.521 E.06673
G1 X100.807 Y134.057 E.01688
G1 X101.769 Y135.019 E.04285
G1 X101.233 Y135.019 E.01688
G1 X100.637 Y134.423 E.02655
M204 S1000
; stop printing object 1_foot.stl id:0 copy 0
; printing object 1_foot.stl id:2 copy 0
;WIPE_START
G1 F8640
G1 X101.233 Y135.019 E-.19462
G1 X101.769 Y135.019 E-.12376
G1 X100.807 Y134.057 E-.31414
G1 X100.807 Y133.521 E-.12376
G1 X100.941 Y133.655 E-.04372
;WIPE_END
G1 Z.6 F720
G1 X101.464 Y97.209 F10800
G1 Z.2 F720
G1 E.8 F2100
M204 S800
;TYPE:Perimeter
;WIDTH:0.419999
G1 F1200
G1 X101.464 Y68.784 E.89124
G1 X129.89 Y68.784 E.89128
G1 X129.89 Y82.996 E.44561
G1 X129.89 Y97.209 E.44564
G1 X101.524 Y97.209 E.88939
M204 S1000
G1 X101.524 Y97.209 F10800
M73 P2 R106
G1 X101.087 Y97.586
M204 S800
;TYPE:External perimeter
G1 F1200
G1 X101.087 Y68.406 E.91492
G1 X130.267 Y68.406 E.91492
G1 X130.267 Y82.996 E.45746
G1 X130.267 Y97.586 E.45746
G1 X101.147 Y97.586 E.91304
M204 S1000
;WIPE_START
G1 F8640
G1 X101.087 Y97.586 E-.01385
G1 X101.087 Y94.181 E-.78615
;WIPE_END
G1 Z.6 F720
G1 X129.72 Y69.719 F10800
G1 Z.2 F720
G1 E.8 F2100
M204 S800
;TYPE:Solid infill
;WIDTH:0.421716
G1 F1200
G1 X129.124 Y69.123 E.02655
G1 X128.589 Y69.123 E.01685
G1 X129.551 Y70.085 E.04285
G1 X129.551 Y70.621 E.01688
G1 X128.053 Y69.123 E.06673
G1 X127.517 Y69.123 E.01688
G1 X129.551 Y71.157 E.0906
G1 X129.551 Y71.692 E.01685
G1 X126.981 Y69.123 E.11445
G1 X126.446 Y69.123 E.01685
G1 X129.551 Y72.228 E.13831
G1 X129.551 Y72.764 E.01688
G1 X125.91 Y69.123 E.16218
G1 X125.374 Y69.123 E.01688
G1 X129.551 Y73.299 E.18604
G1 X129.551 Y73.835 E.01688
G1 X124.839 Y69.123 E.20989
G1 X124.303 Y69.123 E.01688
G1 X129.551 Y74.371 E.23376
G1 X129.551 Y74.906 E.01685
G1 X123.767 Y69.123 E.25762
G1 X123.232 Y69.123 E.01685
G1 X129.551 Y75.442 E.28147
G1 X129.551 Y75.978 E.01688
G1 X122.696 Y69.123 E.30535
G1 X122.16 Y69.123 E.01688
G1 X129.551 Y76.514 E.32922
G1 X129.551 Y77.049 E.01685
G1 X121.624 Y69.123 E.35307
G1 X121.089 Y69.123 E.01685
G1 X129.551 Y77.585 E.37693
G1 X129.551 Y78.121 E.01688
G1 X120.553 Y69.123 E.4008
G1 X120.017 Y69.123 E.01688
G1 X129.551 Y78.656 E.42466
G1 X129.551 Y79.192 E.01688
G1 X119.482 Y69.123 E.44851
G1 X118.946 Y69.123 E.01688
G1 X129.551 Y79.728 E.47238
G1 X129.551 Y80.263 E.01685
M73 Q2 S107
G1 X118.41 Y69.123 E.49624
G1 X117.875 Y69.123 E.01685
G1 X129.551 Y80.799 E.52009
G1 X129.551 Y81.335 E.01688
G1 X117.339 Y69.123 E.54397
G1 X116.803 Y69.123 E.01688
G1 X129.551 Y81.87 E.56782
G1 X129.551 Y82.406 E.01688
G1 X116.267 Y69.123 E.59169
G1 X115.732 Y69.123 E.01685
G1 X129.551 Y82.942 E.61555
G1 X129.551 Y83.478 E.01688
G1 X115.196 Y69.123 E.63942
G1 X114.66 Y69.123 E.01688
G1 X129.551 Y84.013 E.66328
G1 X129.551 Y84.549 E.01688
G1 X114.125 Y69.123 E.68713
G1 X113.589 Y69.123 E.01688
G1 X129.551 Y85.085 E.711
G1 X129.551 Y85.62 E.01685
G1 X113.053 Y69.123 E.73486
G1 X112.518 Y69.123 E.01685
G1 X129.551 Y86.156 E.75871
G1 X129.551 Y86.692 E.01688
G1 X111.982 Y69.123 E.78258
G1 X111.446 Y69.123 E.01688
G1 X129.551 Y87.227 E.80644
G1 X129.551 Y87.763 E.01688
G1 X110.91 Y69.123 E.83031
G1 X110.375 Y69.123 E.01685
G1 X129.551 Y88.299 E.85417
G1 X129.551 Y88.835 E.01688
G1 X109.839 Y69.123 E.87804
G1 X109.303 Y69.123 E.01688
G1 X129.551 Y89.37 E.90189
G1 X129.551 Y89.906 E.01688
G1 X108.768 Y69.123 E.92575
G1 X108.232 Y69.123 E.01688
G1 X129.551 Y90.442 E.94962
G1 X129.551 Y90.977 E.01685
G1 X107.696 Y69.123 E.97348
G1 X107.161 Y69.123 E.01685
G1 X129.551 Y91.513 E.99733
G1 X129.551 Y92.049 E.01688
G1 X106.625 Y69.123 E1.0212
G1 X106.089 Y69.123 E.01688
G1 X129.551 Y92.584 E1.04506
G1 X129.551 Y93.12 E.01688
G1 X105.553 Y69.123 E1.06893
G1 X105.018 Y69.123 E.01685
G1 X129.551 Y93.656 E1.09279
G1 X129.551 Y94.192 E.01688
G1 X104.482 Y69.123 E1.11666
G1 X103.946 Y69.123 E.01688
M73 P3 R106
G1 X129.551 Y94.727 E1.14051
G1 X129.551 Y95.263 E.01688
M73 Q3 S107
G1 X103.411 Y69.123 E1.16437
G1 X102.875 Y69.123 E.01688
G1 X129.551 Y95.799 E1.18824
G1 X129.551 Y96.334 E.01685
G1 X102.339 Y69.123 E1.2121
G1 X101.804 Y69.123 E.01685
G1 X129.551 Y96.87 E1.23595
G1 X129.015 Y96.87 E.01688
M73 P3 R105
G1 X101.804 Y69.659 E1.21207
G1 X101.804 Y70.194 E.01685
G1 X128.479 Y96.87 E1.18822
G1 X127.944 Y96.87 E.01685
G1 X101.804 Y70.73 E1.16437
G1 X101.804 Y71.266 E.01688
G1 X127.408 Y96.87 E1.14049
G1 X126.872 Y96.87 E.01688
G1 X101.804 Y71.801 E1.11664
G1 X101.804 Y72.337 E.01688
G1 X126.337 Y96.87 E1.09279
G1 X125.801 Y96.87 E.01688
G1 X101.804 Y72.873 E1.06891
G1 X101.804 Y73.409 E.01688
G1 X125.265 Y96.87 E1.04504
G1 X124.729 Y96.87 E.01688
M73 Q3 S106
G1 X101.804 Y73.944 E1.02118
G1 X101.804 Y74.48 E.01688
G1 X124.194 Y96.87 E.99733
G1 X123.658 Y96.87 E.01688
G1 X101.804 Y75.016 E.97345
G1 X101.804 Y75.551 E.01685
G1 X123.122 Y96.87 E.9496
G1 X122.587 Y96.87 E.01685
G1 X101.804 Y76.087 E.92575
G1 X101.804 Y76.623 E.01688
G1 X122.051 Y96.87 E.90187
G1 X121.515 Y96.87 E.01688
G1 X101.804 Y77.158 E.87802
G1 X101.804 Y77.694 E.01688
G1 X120.98 Y96.87 E.85417
G1 X120.444 Y96.87 E.01688
G1 X101.804 Y78.23 E.83029
G1 X101.804 Y78.766 E.01688
G1 X119.908 Y96.87 E.80642
G1 X119.372 Y96.87 E.01688
G1 X101.804 Y79.301 E.78256
G1 X101.804 Y79.837 E.01688
G1 X118.837 Y96.87 E.75871
G1 X118.301 Y96.87 E.01688
G1 X101.804 Y80.373 E.73483
G1 X101.804 Y80.908 E.01685
G1 X117.765 Y96.87 E.71098
G1 X117.23 Y96.87 E.01685
G1 X101.804 Y81.444 E.68713
G1 X101.804 Y81.98 E.01688
G1 X116.694 Y96.87 E.66325
G1 X116.158 Y96.87 E.01688
G1 X101.804 Y82.515 E.6394
G1 X101.804 Y83.051 E.01688
G1 X115.623 Y96.87 E.61555
G1 X115.087 Y96.87 E.01688
G1 X101.804 Y83.587 E.59167
G1 X101.804 Y84.123 E.01688
G1 X114.551 Y96.87 E.5678
G1 X114.015 Y96.87 E.01688
G1 X101.804 Y84.658 E.54394
G1 X101.804 Y85.194 E.01688
G1 X113.48 Y96.87 E.52009
G1 X112.944 Y96.87 E.01688
G1 X101.804 Y85.73 E.49621
G1 X101.804 Y86.265 E.01685
G1 X112.408 Y96.87 E.47236
G1 X111.873 Y96.87 E.01685
G1 X101.804 Y86.801 E.44851
G1 X101.804 Y87.337 E.01688
