; generated by PrusaSlicer 2.7.3+win64 on 2024-04-10 at 12:02:50 UTC


;
;
; 

; external perimeters extrusion width = 0.45mm
; perimeters extrusion width = 0.45mm
; infill extrusion width = 0.45mm
; solid infill extrusion width = 0.45mm
; top infill extrusion width = 0.40mm
; support material extrusion width = 0.35mm
; first layer extrusion width = 0.42mm

; external perimeters extrusion width = 0.45mm
; perimeters extrusion width = 0.45mm
; infill extrusion width = 0.45mm
; solid infill extrusion width = 0.45mm
; top infill extrusion width = 0.40mm
; support material extrusion width = 0.35mm
; first layer extrusion width = 0.42mm

; external perimeters extrusion width = 0.45mm
; perimeters extrusion width = 0.45mm
; infill extrusion width = 0.45mm
; solid infill extrusion width = 0.45mm
; top infill extrusion width = 0.40mm
; support material extrusion width = 0.35mm
; first layer extrusion width = 0.42mm

; external perimeters extrusion width = 0.45mm
; perimeters extrusion width = 0.45mm
; infill extrusion width = 0.45mm
; solid infill extrusion width = 0.45mm
; top infill extrusion width = 0.40mm
; support material extrusion width = 0.35mm
; first layer extrusion width = 0.42mm

M73 P0 R119
M73 Q0 S120
M201 X1000 Y1000 Z200 E5000 ; sets maximum accelerations, mm/sec^2
M203 X200 Y200 Z12 E120 ; sets maximum feedrates, mm / sec
M204 S1250 T1250 ; sets acceleration (S) and retract acceleration (R), mm/sec^2
M205 X8.00 Y8.00 Z0.40 E4.50 ; sets the jerk limits, mm/sec
M205 S0 T0 ; sets the minimum extruding and travel feed rate, mm/sec

; printing object 1_foot.stl id:2 copy 0
; stop printing object 1_foot.stl id:2 copy 0
; printing object 1_foot.stl id:3 copy 0
; stop printing object 1_foot.stl id:3 copy 0
; printing object 1_foot.stl id:0 copy 0
; stop printing object 1_foot.stl id:0 copy 0
; printing object 1_foot.stl id:1 copy 0
; stop printing object 1_foot.stl id:1 copy 0

;TYPE:Custom
M862.3 P "MK3S" ; printer model check
M862.1 P0.4 ; nozzle diameter check
M115 U3.12.2 ; tell printer latest fw version
G90 ; use absolute coordinates
M83 ; extruder relative mode
M104 S215 ; set extruder temp
M140 S60 ; set bed temp
M190 S60 ; wait for bed temp
M109 S215 ; wait for extruder temp
G28 W ; home all without mesh bed level
G80 ; mesh bed leveling

G1 Z0.2 F720
G1 Y-3 F1000 ; go outside print area
G92 E0
G1 X60 E9 F1000 ; intro line
G1 X100 E12.5 F1000 ; intro line

G92 E0
M221 S95

; Don't change E values below. Excessive value can damage the printer.

M907 E538 ; set extruder motor current
G21 ; set units to millimeters
G90 ; use absolute coordinates
M83 ; use relative distances for extrusion
M900 K0.05 ; Filament gcode LA 1.5
M900 K30 ; Filament gcode LA 1.0
M107
;LAYER_CHANGE
;Z:0.2
;HEIGHT:0.2
G1 E-.8 F2100
G1 Z.6 F720
G1 X108.806 Y53.537 F10800
G1 Z.2 F720
G1 E.8 F2100
M204 S800
;TYPE:Skirt/Brim
;WIDTH:0.42
G1 F1200
G1 X109.87 Y52.684 E.04276
G1 X110.763 Y52.51 E.02853
G1 X141.037 Y52.526 E.94922
G1 X173.786 Y56.337 E1.03375
G1 X175.039 Y56.877 E.04278
G1 X175.888 Y58.698 E.063
G1 X175.888 Y88.721 E.94135
G1 X175.553 Y122.96 E1.07359
G1 X175.149 Y124.263 E.04277
G1 X174.094 Y125.129 E.0428
G1 X173.176 Y125.314 E.02936
G1 X142.967 Y125.304 E.94718
G1 X109.79 Y122.368 E1.04431
G1 X108.523 Y121.863 E.04277
G1 X107.742 Y120.744 E.04279
G1 X107.623 Y120 E.02362
G1 X107.623 Y89.948 E.94226
G1 X108.386 Y54.835 E1.1012
G1 X108.788 Y53.594 E.0409
M204 S1000
;WIPE_START
G1 F8640
G1 X108.806 Y53.537 E-.0138
G1 X109.87 Y52.684 E-.31488
G1 X110.763 Y52.51 E-.21007
G1 X111.894 Y52.511 E-.26125
;WIPE_END
G1 Z.6 F720
; printing object 1_foot.stl id:0 copy 0
G1 X110.787 Y119.213 F10800
G1 Z.2 F720
G1 E.8 F2100
M204 S800
;TYPE:Perimeter
;WIDTH:0.419999
G1 F1200
G1 X110.787 Y90.787 E.89128
G1 X139.213 Y90.787 E.89128
G1 X139.213 Y105 E.44564
G1 X139.213 Y119.213 E.44564
G1 X110.847 Y119.213 E.88939
M204 S1000
G1 X110.41 Y119.59 F10800
M73 P0 R118
M73 Q0 S119
M204 S800
;TYPE:External perimeter
G1 F1200
G1 X110.41 Y90.41 E.91492
G1 X139.59 Y90.41 E.91492
G1 X139.59 Y105 E.45746
G1 X139.59 Y119.59 E.45746
G1 X110.47 Y119.59 E.91304
M204 S1000
;WIPE_START
G1 F8640
G1 X110.41 Y119.59 E-.01385
G1 X110.41 Y116.185 E-.78615
;WIPE_END
G1 Z.6 F720
G1 X139.043 Y91.723 F10800
G1 Z.2 F720
G1 E.8 F2100
M204 S800
;TYPE:Solid infill
;WIDTH:0.421716
G1 F1200
G1 X138.447 Y91.126 E.02657
G1 X137.911 Y91.126 E.01688
G1 X138.874 Y92.089 E.0429
G1 X138.874 Y92.624 E.01685
G1 X137.376 Y91.126 E.06673
G1 X136.84 Y91.126 E.01688
G1 X138.874 Y93.16 E.0906
G1 X138.874 Y93.696 E.01688
G1 X136.304 Y91.126 E.11448
G1 X135.769 Y91.126 E.01685
G1 X138.874 Y94.231 E.13831
G1 X138.874 Y94.767 E.01688
G1 X135.233 Y91.126 E.16218
G1 X134.697 Y91.126 E.01688
G1 X138.874 Y95.303 E.18606
G1 X138.874 Y95.839 E.01688
G1 X134.161 Y91.126 E.20993
G1 X133.626 Y91.126 E.01685
G1 X138.874 Y96.374 E.23376
G1 X138.874 Y96.91 E.01688
G1 X133.09 Y91.126 E.25764
G1 X132.554 Y91.126 E.01688
G1 X138.874 Y97.446 E.28151
G1 X138.874 Y97.981 E.01685
G1 X132.019 Y91.126 E.30535
G1 X131.483 Y91.126 E.01688
G1 X138.874 Y98.517 E.32922
G1 X138.874 Y99.053 E.01688
G1 X130.947 Y91.126 E.3531
G1 X130.412 Y91.126 E.01685
G1 X138.874 Y99.588 E.37693
G1 X138.874 Y100.124 E.01688
G1 X129.876 Y91.126 E.4008
G1 X129.34 Y91.126 E.01688
G1 X138.874 Y100.66 E.42468
G1 X138.874 Y101.196 E.01688
G1 X128.804 Y91.126 E.44855
G1 X128.269 Y91.126 E.01685
G1 X138.874 Y101.731 E.47238
G1 X138.874 Y102.267 E.01688
G1 X127.733 Y91.126 E.49626
G1 X127.197 Y91.126 E.01688
G1 X138.874 Y102.803 E.52013
G1 X138.874 Y103.338 E.01685
G1 X126.662 Y91.126 E.54397
G1 X126.126 Y91.126 E.01688
G1 X138.874 Y103.874 E.56784
G1 X138.874 Y104.41 E.01688
G1 X125.59 Y91.126 E.59172
G1 X125.055 Y91.126 E.01685
G1 X138.874 Y104.945 E.61555
G1 X138.874 Y105.481 E.01688
G1 X124.519 Y91.126 E.63942
G1 X123.983 Y91.126 E.01688
G1 X138.874 Y106.017 E.6633
G1 X138.874 Y106.553 E.01688
G1 X123.447 Y91.126 E.68717
G1 X122.912 Y91.126 E.01685
G1 X138.874 Y107.088 E.711
G1 X138.874 Y107.624 E.01688
G1 X122.376 Y91.126 E.73488
G1 X121.84 Y91.126 E.01688
G1 X138.874 Y108.16 E.75875
G1 X138.874 Y108.695 E.01685
G1 X121.305 Y91.126 E.78258
G1 X120.769 Y91.126 E.01688
G1 X138.874 Y109.231 E.80646
G1 X138.874 Y109.767 E.01688
G1 X120.233 Y91.126 E.83034
G1 X119.698 Y91.126 E.01685
G1 X138.874 Y110.302 E.85417
G1 X138.874 Y110.838 E.01688
G1 X119.162 Y91.126 E.87804
G1 X118.626 Y91.126 E.01688
G1 X138.874 Y111.374 E.90192
G1 X138.874 Y111.91 E.01688
G1 X118.09 Y91.126 E.92579
G1 X117.555 Y91.126 E.01685
G1 X138.874 Y112.445 E.94962
G1 X138.874 Y112.981 E.01688
G1 X117.019 Y91.126 E.9735
G1 X116.483 Y91.126 E.01688
G1 X138.874 Y113.517 E.99737
G1 X138.874 Y114.052 E.01685
G1 X115.948 Y91.126 E1.0212
G1 X115.412 Y91.126 E.01688
G1 X138.874 Y114.588 E1.04508
G1 X138.874 Y115.124 E.01688
M73 P1 R118
M73 Q1 S119
G1 X114.876 Y91.126 E1.06896
G1 X114.341 Y91.126 E.01685
G1 X138.874 Y115.659 E1.09279
G1 X138.874 Y116.195 E.01688
G1 X113.805 Y91.126 E1.11666
G1 X113.269 Y91.126 E.01688
G1 X138.874 Y116.731 E1.14054
G1 X138.874 Y117.267 E.01688
G1 X112.733 Y91.126 E1.16441
G1 X112.198 Y91.126 E.01685
G1 X138.874 Y117.802 E1.18824
G1 X138.874 Y118.338 E.01688
G1 X111.662 Y91.126 E1.21212
G1 X111.126 Y91.126 E.01688
G1 X138.873 Y118.874 E1.23597
G1 X138.338 Y118.874 E.01685
M73 P1 R117
M73 Q1 S118
G1 X111.126 Y91.662 E1.21212
G1 X111.126 Y92.198 E.01688
G1 X137.802 Y118.874 E1.18824
G1 X137.266 Y118.874 E.01688
G1 X111.126 Y92.734 E1.16437
G1 X111.126 Y93.269 E.01685
G1 X136.731 Y118.874 E1.14054
G1 X136.195 Y118.874 E.01688
G1 X111.126 Y93.805 E1.11666
G1 X111.126 Y94.341 E.01688
G1 X135.659 Y118.874 E1.09279
G1 X135.124 Y118.874 E.01685
G1 X111.126 Y94.876 E1.06896
G1 X111.126 Y95.412 E.01688
G1 X134.588 Y118.874 E1.04508
G1 X134.052 Y118.874 E.01688
G1 X111.126 Y95.948 E1.0212
G1 X111.126 Y96.483 E.01685
G1 X133.517 Y118.874 E.99737
G1 X132.981 Y118.874 E.01688
G1 X111.126 Y97.019 E.9735
G1 X111.126 Y97.555 E.01688
G1 X132.445 Y118.874 E.94962
G1 X131.909 Y118.874 E.01688
G1 X111.126 Y98.091 E.92575
G1 X111.126 Y98.626 E.01685
G1 X131.374 Y118.874 E.90192
G1 X130.838 Y118.874 E.01688
G1 X111.126 Y99.162 E.87804
G1 X111.126 Y99.698 E.01688
G1 X130.302 Y118.874 E.85417
G1 X129.767 Y118.874 E.01685
G1 X111.126 Y100.233 E.83034
G1 X111.126 Y100.769 E.01688
G1 X129.231 Y118.874 E.80646
G1 X128.695 Y118.874 E.01688
G1 X111.126 Y101.305 E.78258
G1 X111.126 Y101.84 E.01685
G1 X128.16 Y118.874 E.75875
G1 X127.624 Y118.874 E.01688
G1 X111.126 Y102.376 E.73488
G1 X111.126 Y102.912 E.01688
G1 X127.088 Y118.874 E.711
G1 X126.552 Y118.874 E.01688
G1 X111.126 Y103.448 E.68713
G1 X111.126 Y103.983 E.01685
G1 X126.017 Y118.874 E.6633
G1 X125.481 Y118.874 E.01688
G1 X111.126 Y104.519 E.63942
G1 X111.126 Y105.055 E.01688
G1 X124.945 Y118.874 E.61555
G1 X124.41 Y118.874 E.01685
G1 X111.126 Y105.59 E.59172
G1 X111.126 Y106.126 E.01688
G1 X123.874 Y118.874 E.56784
G1 X123.338 Y118.874 E.01688
G1 X111.126 Y106.662 E.54397
G1 X111.126 Y107.197 E.01685
G1 X122.803 Y118.874 E.52013
G1 X122.267 Y118.874 E.01688
G1 X111.126 Y107.733 E.49626
G1 X111.126 Y108.269 E.01688
G1 X121.731 Y118.874 E.47238
G1 X121.195 Y118.874 E.01688
G1 X111.126 Y108.805 E.44851
G1 X111.126 Y109.34 E.01685
G1 X120.66 Y118.874 E.42468
G1 X120.124 Y118.874 E.01688
G1 X111.126 Y109.876 E.4008
G1 X111.126 Y110.412 E.01688
G1 X119.588 Y118.874 E.37693
G1 X119.053 Y118.874 E.01685
G1 X111.126 Y110.947 E.3531
G1 X111.126 Y111.483 E.01688
G1 X118.517 Y118.874 E.32922
G1 X117.981 Y118.874 E.01688
G1 X111.126 Y112.019 E.30535
G1 X111.126 Y112.554 E.01685
G1 X117.446 Y118.874 E.28151
G1 X116.91 Y118.874 E.01688
G1 X111.126 Y113.09 E.25764
G1 X111.126 Y113.626 E.01688
G1 X116.374 Y118.874 E.23376
G1 X115.838 Y118.874 E.01688
G1 X111.126 Y114.162 E.20989
G1 X111.126 Y114.697 E.01685
G1 X115.303 Y118.874 E.18606
G1 X114.767 Y118.874 E.01688
G1 X111.126 Y115.233 E.16218
G1 X111.126 Y115.769 E.01688
G1 X114.231 Y118.874 E.13831
G1 X113.696 Y118.874 E.01685
G1 X111.126 Y116.304 E.11448
G1 X111.126 Y116.84 E.01688
G1 X113.16 Y118.874 E.0906
G1 X112.624 Y118.874 E.01688
G1 X111.126 Y117.376 E.06673
G1 X111.126 Y117.911 E.01685
G1 X112.089 Y118.874 E.0429
G1 X111.553 Y118.874 E.01688
G1 X110.957 Y118.277 E.02657
M204 S1000
;WIPE_START
G1 F8640
G1 X111.553 Y118.874 E-.19478
G1 X112.089 Y118.874 E-.12376
G1 X111.126 Y117.911 E-.31446
G1 X111.126 Y117.376 E-.12353
G1 X111.259 Y117.509 E-.04347
;WIPE_END
G1 Z.6 F720
; stop printing object 1_foot.stl id:0 copy 0
; printing object 1_foot.stl id:1 copy 0
G1 X143.963 Y122.149 F10800
G1 Z.2 F720
G1 E.8 F2100
M204 S800
;TYPE:Perimeter
;WIDTH:0.419999
G1 F1200
G1 X143.963 Y93.724 E.89124
G1 X172.389 Y93.724 E.89128
G1 X172.389 Y107.937 E.44564
G1 X172.389 Y122.149 E.44561
M73 P2 R117
G1 X144.023 Y122.149 E.88939
M73 Q2 S118
M204 S1000
G1 X144.023 Y122.149 F10800
M73 P2 R116
M73 Q2 S117
G1 X143.586 Y122.527
M204 S800
;TYPE:External perimeter
G1 F1200
G1 X143.586 Y93.347 E.91492
G1 X172.766 Y93.347 E.91492
G1 X172.766 Y107.937 E.45746
G1 X172.766 Y122.527 E.45746
G1 X143.646 Y122.527 E.91304
M204 S1000
;WIPE_START
G1 F8640
G1 X143.586 Y122.527 E-.01385
G1 X143.586 Y119.122 E-.78615
;WIPE_END
G1 Z.6 F720
G1 X172.219 Y94.659 F10800
G1 Z.2 F720
G1 E.8 F2100
M204 S800
;TYPE:Solid infill
;WIDTH:0.421716
G1 F1200
G1 X171.623 Y94.063 E.02655
G1 X171.087 Y94.063 E.01688
G1 X172.05 Y95.025 E.04287
G1 X172.05 Y95.561 E.01688
G1 X170.552 Y94.063 E.06673
G1 X170.016 Y94.063 E.01688
G1 X172.05 Y96.097 E.0906
G1 X172.05 Y96.632 E.01685
G1 X169.48 Y94.063 E.11445
G1 X168.945 Y94.063 E.01685
G1 X172.05 Y97.168 E.13831
G1 X172.05 Y97.704 E.01688
G1 X168.409 Y94.063 E.16218
G1 X167.873 Y94.063 E.01688
G1 X172.05 Y98.239 E.18604
G1 X172.05 Y98.775 E.01688
G1 X167.338 Y94.063 E.20989
G1 X166.802 Y94.063 E.01688
G1 X172.05 Y99.311 E.23376
G1 X172.05 Y99.847 E.01688
G1 X166.266 Y94.063 E.25764
G1 X165.73 Y94.063 E.01688
G1 X172.05 Y100.382 E.28149
G1 X172.05 Y100.918 E.01688
G1 X165.195 Y94.063 E.30535
G1 X164.659 Y94.063 E.01688
G1 X172.05 Y101.454 E.32922
G1 X172.05 Y101.989 E.01685
G1 X164.123 Y94.063 E.35307
G1 X163.588 Y94.063 E.01685
G1 X172.05 Y102.525 E.37693
G1 X172.05 Y103.061 E.01688
G1 X163.052 Y94.063 E.4008
G1 X162.516 Y94.063 E.01688
G1 X172.05 Y103.596 E.42466
G1 X172.05 Y104.132 E.01688
G1 X161.981 Y94.063 E.44851
G1 X161.445 Y94.063 E.01688
G1 X172.05 Y104.668 E.47238
G1 X172.05 Y105.203 E.01685
G1 X160.909 Y94.063 E.49624
G1 X160.373 Y94.063 E.01688
G1 X172.05 Y105.739 E.52011
G1 X172.05 Y106.275 E.01688
G1 X159.838 Y94.063 E.54397
G1 X159.302 Y94.063 E.01688
G1 X172.05 Y106.811 E.56784
G1 X172.05 Y107.346 E.01685
G1 X158.766 Y94.063 E.59169
G1 X158.231 Y94.063 E.01685
G1 X172.05 Y107.882 E.61555
G1 X172.05 Y108.418 E.01688
G1 X157.695 Y94.063 E.63942
G1 X157.159 Y94.063 E.01688
G1 X172.05 Y108.953 E.66328
G1 X172.05 Y109.489 E.01688
G1 X156.624 Y94.063 E.68713
G1 X156.088 Y94.063 E.01688
G1 X172.05 Y110.025 E.711
G1 X172.05 Y110.56 E.01685
G1 X155.552 Y94.063 E.73486
G1 X155.016 Y94.063 E.01688
G1 X172.05 Y111.096 E.75873
G1 X172.05 Y111.632 E.01688
G1 X154.481 Y94.063 E.78258
G1 X153.945 Y94.063 E.01688
G1 X172.05 Y112.168 E.80646
G1 X172.05 Y112.703 E.01685
G1 X153.409 Y94.063 E.83031
G1 X152.874 Y94.063 E.01685
G1 X172.05 Y113.239 E.85417
G1 X172.05 Y113.775 E.01688
G1 X152.338 Y94.063 E.87804
G1 X151.802 Y94.063 E.01688
G1 X172.05 Y114.31 E.90189
G1 X172.05 Y114.846 E.01688
G1 X151.267 Y94.063 E.92575
G1 X150.731 Y94.063 E.01688
G1 X172.05 Y115.382 E.94962
G1 X172.05 Y115.917 E.01685
G1 X150.195 Y94.063 E.97348
G1 X149.659 Y94.063 E.01688
G1 X172.05 Y116.453 E.99735
G1 X172.05 Y116.989 E.01688
G1 X149.124 Y94.063 E1.0212
G1 X148.588 Y94.063 E.01688
G1 X172.05 Y117.525 E1.04508
G1 X172.05 Y118.06 E.01685
G1 X148.052 Y94.063 E1.06893
G1 X147.517 Y94.063 E.01685
G1 X172.05 Y118.596 E1.09279
G1 X172.05 Y119.132 E.01688
G1 X146.981 Y94.063 E1.11666
G1 X146.445 Y94.063 E.01688
G1 X172.05 Y119.667 E1.14051
G1 X172.05 Y120.203 E.01688
G1 X145.91 Y94.063 E1.16437
G1 X145.374 Y94.063 E.01688
G1 X172.05 Y120.739 E1.18824
G1 X172.05 Y121.274 E.01685
G1 X144.838 Y94.063 E1.2121
G1 X144.303 Y94.063 E.01685
G1 X172.05 Y121.81 E1.23595
G1 X171.514 Y121.81 E.01688
M73 P2 R115
M73 Q2 S116
G1 X144.303 Y94.599 E1.21207
G1 X144.303 Y95.134 E.01685
G1 X170.978 Y121.81 E1.18822
G1 X170.443 Y121.81 E.01685
G1 X144.303 Y95.67 E1.16437
G1 X144.303 Y96.206 E.01688
G1 X169.907 Y121.81 E1.14049
G1 X169.371 Y121.81 E.01688
G1 X144.303 Y96.742 E1.11662
G1 X144.303 Y97.277 E.01685
M73 P3 R115
G1 X168.835 Y121.81 E1.09276
G1 X168.3 Y121.81 E.01685
M73 Q3 S116
G1 X144.303 Y97.813 E1.06891
G1 X144.303 Y98.349 E.01688
G1 X167.764 Y121.81 E1.04504
G1 X167.228 Y121.81 E.01688
G1 X144.303 Y98.884 E1.02118
G1 X144.303 Y99.42 E.01688
G1 X166.693 Y121.81 E.99733
G1 X166.157 Y121.81 E.01688
G1 X144.303 Y99.956 E.97345
G1 X144.303 Y100.491 E.01685
G1 X165.621 Y121.81 E.9496
G1 X165.086 Y121.81 E.01685
G1 X144.303 Y101.027 E.92575
G1 X144.303 Y101.563 E.01688
G1 X164.55 Y121.81 E.90187
G1 X164.014 Y121.81 E.01688
G1 X144.303 Y102.099 E.878
G1 X144.303 Y102.634 E.01685
G1 X163.478 Y121.81 E.85414
G1 X162.943 Y121.81 E.01685
G1 X144.303 Y103.17 E.83029
G1 X144.303 Y103.706 E.01688
G1 X162.407 Y121.81 E.80642
G1 X161.871 Y121.81 E.01688
G1 X144.303 Y104.241 E.78256
G1 X144.303 Y104.777 E.01688
G1 X161.336 Y121.81 E.75871
G1 X160.8 Y121.81 E.01688
G1 X144.303 Y105.313 E.73483
G1 X144.303 Y105.848 E.01685
G1 X160.264 Y121.81 E.71098
G1 X159.729 Y121.81 E.01685
G1 X144.303 Y106.384 E.68713
G1 X144.303 Y106.92 E.01688
G1 X159.193 Y121.81 E.66325
G1 X158.657 Y121.81 E.01688
G1 X144.303 Y107.456 E.63938
G1 X144.303 Y107.991 E.01685
G1 X158.121 Y121.81 E.61552
G1 X157.586 Y121.81 E.01685
G1 X144.303 Y108.527 E.59167
G1 X144.303 Y109.063 E.01688
G1 X157.05 Y121.81 E.5678
G1 X156.514 Y121.81 E.01688
G1 X144.303 Y109.598 E.54394
G1 X144.303 Y110.134 E.01688
G1 X155.979 Y121.81 E.52009
G1 X155.443 Y121.81 E.01688
G1 X144.303 Y110.67 E.49621
G1 X144.303 Y111.205 E.01685
G1 X154.907 Y121.81 E.47236
