; generated by PrusaSlicer 2.7.3+win64 on 2024-04-07 at 21:09:37 UTC


;
;
; 

; external perimeters extrusion width = 0.45mm
; perimeters extrusion width = 0.45mm
; infill extrusion width = 0.45mm
; solid infill extrusion width = 0.45mm
; top infill extrusion width = 0.40mm
; first layer extrusion width = 0.42mm

M73 P0 R219
M73 Q0 S231
M201 X1000 Y1000 Z200 E5000 ; sets maximum accelerations, mm/sec^2
M203 X200 Y200 Z12 E120 ; sets maximum feedrates, mm / sec
M204 S1250 T1250 ; sets acceleration (S) and retract acceleration (R), mm/sec^2
M205 X8.00 Y8.00 Z0.40 E4.50 ; sets the jerk limits, mm/sec
M205 S0 T0 ; sets the minimum extruding and travel feed rate, mm/sec

; printing object 11_table_body.stl id:0 copy 0
; stop printing object 11_table_body.stl id:0 copy 0

;TYPE:Custom
M862.3 P "MK3S" ; printer model check
M862.1 P0.4 ; nozzle diameter check
M115 U3.12.2 ; tell printer latest fw version
G90 ; use absolute coordinates
M83 ; extruder relative mode
M104 S215 ; set extruder temp
M140 S60 ; set bed temp
M190 S60 ; wait for bed temp
M109 S215 ; wait for extruder temp
G28 W ; home all without mesh bed level
G80 ; mesh bed leveling

G1 Z0.2 F720
G1 Y-3 F1000 ; go outside print area
G92 E0
G1 X60 E9 F1000 ; intro line
G1 X100 E12.5 F1000 ; intro line

G92 E0
M221 S95

; Don't change E values below. Excessive value can damage the printer.

M907 E538 ; set extruder motor current
G21 ; set units to millimeters
G90 ; use absolute coordinates
M83 ; use relative distances for extrusion
M900 K0.05 ; Filament gcode LA 1.5
M900 K30 ; Filament gcode LA 1.0
M107
;LAYER_CHANGE
;Z:0.2
;HEIGHT:0.2
G1 E-.8 F2100
G1 Z.6 F720
G1 X53.015 Y33.693 F10800
G1 Z.2 F720
G1 E.8 F2100
M204 S800
;TYPE:Skirt/Brim
;WIDTH:0.42
G1 F1200
G1 X54.06 Y32.817 E.04275
G1 X55 Y32.623 E.03009
G1 X195 Y32.623 E4.3896
G1 X196.307 Y33.015 E.04278
G1 X197.183 Y34.06 E.04275
G1 X197.377 Y35 E.03009
G1 X197.377 Y175 E4.3896
G1 X196.985 Y176.307 E.04278
G1 X195.94 Y177.183 E.04275
G1 X195 Y177.377 E.03009
G1 X55 Y177.377 E4.3896
G1 X53.693 Y176.985 E.04278
M73 P0 R218
G1 X52.817 Y175.94 E.04275
G1 X52.623 Y175 E.03009
G1 X52.623 Y35 E4.3896
G1 X52.997 Y33.75 E.04091
M204 S1000
;WIPE_START
G1 F8640
G1 X53.015 Y33.693 E-.0138
G1 X54.06 Y32.817 E-.31486
G1 X55 Y32.623 E-.22162
G1 X56.081 Y32.623 E-.24972
;WIPE_END
G1 Z.6 F720
; printing object 11_table_body.stl id:0 copy 0
G1 X194.213 Y174.213 F10800
G1 Z.2 F720
G1 E.8 F2100
M204 S800
;TYPE:Perimeter
;WIDTH:0.419999
G1 F1200
G1 X55.787 Y174.213 E4.34024
G1 X55.787 Y35.787 E4.34024
G1 X194.213 Y35.787 E4.34024
G1 X194.213 Y39.346 E.11159
G1 X194.213 Y174.153 E4.22677
M204 S1000
G1 X194.59 Y174.59 F10800
M73 Q0 S230
M204 S800
;TYPE:External perimeter
G1 F1200
G1 X55.41 Y174.59 E4.36388
G1 X55.41 Y35.41 E4.36388
G1 X194.59 Y35.41 E4.36388
G1 X194.59 Y39.346 E.12341
M73 P0 R217
G1 X194.59 Y174.53 E4.23859
M204 S1000
;WIPE_START
G1 F8640
G1 X194.59 Y174.59 E-.01385
G1 X191.185 Y174.59 E-.78615
;WIPE_END
G1 Z.6 F720
G1 X183.341 Y40.096 F10800
G1 Z.2 F720
G1 E.8 F2100
M204 S800
;TYPE:Perimeter
G1 F1200
G1 X184.029 Y39.733 E.02439
G1 X184.878 Y39.57 E.02711
G1 X185.468 Y39.602 E.01853
G1 X186.01 Y39.744 E.01757
G1 X186.556 Y40.012 E.01907
G1 X187.195 Y40.556 E.02631
G1 X187.618 Y41.201 E.02418
G1 X187.724 Y41.406 E.00724
G1 X187.882 Y41.944 E.01758
G1 X187.937 Y42.459 E.01624
G1 X187.841 Y43.226 E.02424
G1 X187.506 Y44.022 E.02708
G1 X186.953 Y44.687 E.02712
G1 X186.231 Y45.161 E.02708
G1 X185.674 Y45.357 E.01851
G1 X185.118 Y45.433 E.0176
G1 X184.558 Y45.402 E.01759
G1 X184.014 Y45.264 E.0176
G1 X183.276 Y44.872 E.0262
G1 X182.803 Y44.446 E.01996
G1 X182.344 Y43.742 E.02635
G1 X182.286 Y43.618 E.00429
G1 X182.133 Y43.137 E.01583
G1 X182.068 Y42.631 E.016
G1 X182.096 Y42.071 E.01758
G1 X182.248 Y41.482 E.01907
G1 X182.651 Y40.745 E.02634
G1 X183.265 Y40.136 E.02712
G1 X183.287 Y40.124 E.00079
M204 S1000
G1 X183.287 Y40.124 F10800
G1 X183.577 Y40.384
M204 S800
;TYPE:External perimeter
G1 F1200
G1 X184.196 Y40.072 E.02173
G1 X184.939 Y39.943 E.02364
G1 X185.472 Y39.985 E.01676
G1 X185.943 Y40.121 E.01537
G1 X186.423 Y40.374 E.01701
G1 X186.945 Y40.838 E.0219
G1 X187.296 Y41.397 E.0207
G1 X187.5 Y41.952 E.01854
G1 X187.56 Y42.459 E.01601
G1 X187.467 Y43.176 E.02267
G1 X187.163 Y43.866 E.02364
G1 X186.67 Y44.438 E.02368
G1 X186.033 Y44.84 E.02362
G1 X185.541 Y45.002 E.01624
G1 X185.038 Y45.059 E.01587
G1 X184.55 Y45.019 E.01535
G1 X184.07 Y44.883 E.01564
G1 X183.46 Y44.542 E.02191
G1 X183.064 Y44.173 E.01697
G1 X182.645 Y43.501 E.02483
G1 X182.497 Y43.035 E.01533
G1 X182.441 Y42.549 E.01534
G1 X182.479 Y42.06 E.01538
G1 X182.629 Y41.539 E.017
G1 X182.978 Y40.933 E.02193
G1 X183.523 Y40.412 E.02364
M204 S1000
;WIPE_START
G1 F8640
G1 X183.577 Y40.384 E-.01405
G1 X184.196 Y40.072 E-.16006
G1 X184.939 Y39.943 E-.17413
G1 X185.472 Y39.985 E-.12345
G1 X185.943 Y40.121 E-.1132
G1 X186.423 Y40.374 E-.12529
G1 X186.714 Y40.633 E-.08982
;WIPE_END
G1 Z.6 F720
G1 X185.268 Y102.092 F10800
G1 Z.2 F720
G1 E.8 F2100
M204 S800
;TYPE:Perimeter
G1 F1200
G1 X186.03 Y102.255 E.02443
G1 X186.56 Y102.514 E.0185
G1 X187.195 Y103.056 E.02618
G1 X187.667 Y103.781 E.02712
G1 X187.86 Y104.339 E.01851
G1 X187.933 Y104.895 E.01758
G1 X187.9 Y105.455 E.01759
G1 X187.651 Y106.253 E.02621
G1 X187.171 Y106.971 E.02708
G1 X186.501 Y107.519 E.02714
G1 X185.702 Y107.847 E.02708
G1 X185.118 Y107.933 E.01851
G1 X184.558 Y107.902 E.01759
G1 X184.014 Y107.764 E.0176
G1 X183.506 Y107.526 E.01759
G1 X183.092 Y107.221 E.01612
G1 X182.917 Y107.064 E.00737
G1 X182.488 Y106.512 E.02192
G1 X182.139 Y105.663 E.02878
G1 X182.072 Y104.854 E.02545
G1 X182.241 Y104.006 E.02711
G1 X182.651 Y103.245 E.0271
G1 X183.083 Y102.778 E.01995
G1 X183.793 Y102.328 E.02636
G1 X184.351 Y102.138 E.01848
G1 X185.184 Y102.074 E.0262
G1 X185.209 Y102.079 E.0008
M204 S1000
G1 X185.209 Y102.079 F10800
G1 X185.462 Y102.51
M204 S800
;TYPE:External perimeter
G1 F1200
G1 X185.94 Y102.621 E.01539
G1 X186.404 Y102.859 E.01635
G1 X186.945 Y103.338 E.02266
G1 X187.345 Y103.978 E.02366
G1 X187.507 Y104.487 E.01675
G1 X187.559 Y104.974 E.01536
G1 X187.515 Y105.47 E.01561
G1 X187.293 Y106.134 E.02195
G1 X186.863 Y106.753 E.02363
G1 X186.271 Y107.22 E.02364
G1 X185.568 Y107.494 E.02366
G1 X185.055 Y107.56 E.01622
G1 X184.55 Y107.519 E.01589
G1 X184.079 Y107.388 E.01533
G1 X183.64 Y107.168 E.0154
G1 X183.242 Y106.86 E.01578
G1 X182.785 Y106.281 E.02313
G1 X182.503 Y105.562 E.02422
G1 X182.448 Y104.828 E.02308
G1 X182.609 Y104.091 E.02365
G1 X182.978 Y103.433 E.02365
G1 X183.352 Y103.042 E.01696
G1 X183.988 Y102.651 E.02341
G1 X184.472 Y102.495 E.01594
G1 X185.206 Y102.45 E.02306
G1 X185.403 Y102.496 E.00634
M204 S1000
;WIPE_START
G1 F8640
G1 X185.462 Y102.51 E-.014
G1 X185.94 Y102.621 E-.11331
G1 X186.404 Y102.859 E-.12041
G1 X186.945 Y103.338 E-.16685
G1 X187.345 Y103.978 E-.17427
G1 X187.507 Y104.487 E-.12334
G1 X187.548 Y104.865 E-.08782
;WIPE_END
G1 Z.6 F720
G1 X134.19 Y88.716 F10800
G1 Z.2 F720
G1 E.8 F2100
M204 S800
;TYPE:Perimeter
G1 F1200
G1 X133.776 Y88.051 E.02456
G1 X133.5 Y87.502 E.01927
G1 X133.18 Y86.723 E.02641
G1 X132.979 Y86.041 E.02229
G1 X132.822 Y85.275 E.02452
G1 X132.749 Y84.768 E.01606
G1 X132.714 Y84.097 E.02107
G1 X132.749 Y83.237 E.02699
G1 X132.847 Y82.518 E.02275
G1 X133.044 Y81.683 E.0269
G1 X133.278 Y80.994 E.02281
G1 X133.489 Y80.522 E.01621
G1 X133.906 Y79.735 E.02793
G1 X134.403 Y78.994 E.02798
G1 X134.899 Y78.405 E.02414
G1 X135.455 Y77.855 E.02452
G1 X136.047 Y77.364 E.02412
G1 X136.836 Y76.838 E.02973
G1 X137.644 Y76.423 E.02848
G1 X138.452 Y76.115 E.02711
G1 X139.288 Y75.892 E.02713
G1 X140.004 Y75.773 E.02276
G1 X140.862 Y75.715 E.02696
G1 X141.727 Y75.746 E.02714
G1 X142.446 Y75.841 E.02274
G1 X143.15 Y75.997 E.02261
G1 X143.968 Y76.263 E.02697
G1 X144.758 Y76.615 E.02712
G1 X145.39 Y76.972 E.02276
G1 X146.095 Y77.465 E.02697
G1 X146.747 Y78.03 E.02705
G1 X147.249 Y78.557 E.02282
G1 X147.779 Y79.234 E.02696
G1 X148.239 Y79.967 E.02713
G1 X148.62 Y80.743 E.02711
G1 X148.876 Y81.423 E.02278
G1 X149.1 Y82.253 E.02696
G1 X149.238 Y83.107 E.02712
G1 X149.285 Y83.831 E.02275
G1 X149.258 Y84.691 E.02698
G1 X149.141 Y85.548 E.02712
G1 X148.974 Y86.254 E.02275
G1 X148.697 Y87.069 E.02699
G1 X148.336 Y87.854 E.02709
G1 X147.97 Y88.481 E.02276
G1 X147.554 Y89.07 E.02261
G1 X146.993 Y89.722 E.02697
G1 X146.364 Y90.316 E.02713
G1 X145.725 Y90.804 E.02521
G1 X145.143 Y91.172 E.02159
G1 X144.29 Y91.605 E.02999
G1 X143.611 Y91.864 E.02279
G1 X142.832 Y92.079 E.02534
G1 X142.067 Y92.218 E.02438
G1 X141.283 Y92.278 E.02465
G1 X140.535 Y92.266 E.02346
G1 X139.92 Y92.206 E.01937
G1 X139.068 Y92.051 E.02715
G1 X138.747 Y91.975 E.01034
G1 X137.965 Y91.711 E.02588
G1 X137.178 Y91.352 E.02712
G1 X136.432 Y90.914 E.02712
G1 X135.845 Y90.488 E.02274
G1 X135.339 Y90.042 E.02115
G1 X134.781 Y89.464 E.02519
G1 X134.225 Y88.765 E.028
M204 S1000
G1 X134.225 Y88.765 F10800
G1 X134.49 Y88.487
M204 S800
;TYPE:External perimeter
G1 F1200
G1 X134.098 Y87.854 E.02334
G1 X133.841 Y87.34 E.01802
G1 X133.535 Y86.594 E.02528
G1 X133.344 Y85.946 E.02118
G1 X133.195 Y85.219 E.02327
G1 X133.115 Y84.536 E.02156
G1 X133.105 Y83.713 E.02581
G1 X133.157 Y83.024 E.02166
G1 X133.307 Y82.207 E.02604
G1 X133.491 Y81.535 E.02185
G1 X133.833 Y80.678 E.02893
G1 X134.232 Y79.926 E.02669
G1 X134.708 Y79.215 E.02683
G1 X135.182 Y78.654 E.02303
G1 X135.711 Y78.132 E.0233
G1 X136.275 Y77.665 E.02296
G1 X137.036 Y77.157 E.02869
G1 X137.814 Y76.76 E.02739
G1 X138.586 Y76.468 E.02588
G1 X139.384 Y76.257 E.02588
G1 X140.065 Y76.146 E.02163
G1 X140.887 Y76.091 E.02583
G1 X141.712 Y76.122 E.02589
G1 X142.396 Y76.214 E.02164
G1 X143.067 Y76.365 E.02156
G1 X143.85 Y76.622 E.02584
G1 X144.604 Y76.959 E.02589
G1 X145.204 Y77.3 E.02164
G1 X145.878 Y77.773 E.02582
G1 X146.498 Y78.314 E.0258
G1 X146.975 Y78.816 E.02171
G1 X147.481 Y79.466 E.02583
G1 X147.919 Y80.166 E.02589
G1 X148.281 Y80.908 E.02589
G1 X148.522 Y81.555 E.02165
G1 X148.736 Y82.35 E.02581
G1 X148.866 Y83.166 E.02591
G1 X148.909 Y83.854 E.02161
G1 X148.881 Y84.678 E.02585
G1 X148.767 Y85.495 E.02586
G1 X148.607 Y86.167 E.02166
G1 X148.341 Y86.946 E.02581
G1 X147.994 Y87.695 E.02588
G1 X147.645 Y88.291 E.02166
G1 X147.247 Y88.852 E.02157
G1 X146.708 Y89.475 E.02583
G1 X146.106 Y90.041 E.02591
G1 X145.497 Y90.504 E.02399
G1 X144.945 Y90.851 E.02044
G1 X144.123 Y91.267 E.02889
G1 X143.478 Y91.512 E.02163
G1 X142.733 Y91.715 E.02421
G1 X142.004 Y91.846 E.02322
G1 X141.255 Y91.902 E.02355
G1 X140.547 Y91.889 E.0222
G1 X139.971 Y91.832 E.01815
G1 X138.855 Y91.614 E.03565
G1 X138.086 Y91.353 E.02546
G1 X137.335 Y91.01 E.02589
G1 X136.625 Y90.589 E.02588
G1 X136.067 Y90.183 E.02164
G1 X135.59 Y89.76 E.01999
G1 X135.06 Y89.21 E.02395
G1 X134.524 Y88.536 E.027
M204 S1000
;WIPE_START
G1 F8640
G1 X134.49 Y88.487 E-.01377
G1 X134.098 Y87.854 E-.17192
G1 X133.841 Y87.34 E-.13269
G1 X133.535 Y86.594 E-.18618
G1 X133.344 Y85.946 E-.15599
G1 X133.223 Y85.354 E-.13945
;WIPE_END
G1 Z.6 F720
G1 X133.711 Y129.937 F10800
G1 Z.2 F720
G1 E.8 F2100
M204 S800
;TYPE:Perimeter
G1 F1200
G1 X133.353 Y129.192 E.02592
G1 X133.102 Y128.509 E.02282
G1 X132.885 Y127.676 E.02699
G1 X132.764 Y126.887 E.02503
G1 X132.714 Y126.097 E.02482
G1 X132.749 Y125.237 E.02699
G1 X132.847 Y124.518 E.02275
G1 X132.969 Y123.977 E.01739
G1 X133.23 Y123.138 E.02755
G1 X133.65 Y122.172 E.03303
G1 X134.066 Y121.462 E.0258
G1 X134.49 Y120.873 E.02275
G1 X134.899 Y120.405 E.01949
G1 X135.558 Y119.76 E.02891
G1 X136.387 Y119.116 E.03291
G1 X137.003 Y118.741 E.02261
G1 X137.777 Y118.366 E.02697
G1 X138.59 Y118.072 E.02711
G1 X139.293 Y117.891 E.02276
G1 X140.143 Y117.758 E.02698
G1 X140.678 Y117.725 E.01681
G1 X141.653 Y117.743 E.03058
G1 X142.446 Y117.841 E.02505
G1 X143.234 Y118.023 E.02536
G1 X143.973 Y118.265 E.02438
G1 X144.758 Y118.615 E.02695
G1 X145.423 Y118.998 E.02406
G1 X146.05 Y119.433 E.02393
G1 X146.747 Y120.03 E.02877
G1 X147.249 Y120.557 E.02282
G1 X147.779 Y121.234 E.02696
G1 X148.239 Y121.967 E.02713
G1 X148.62 Y122.743 E.02711
G1 X148.876 Y123.423 E.02278
G1 X149.112 Y124.311 E.02881
G1 X149.238 Y125.107 E.02527
G1 X149.285 Y125.831 E.02275
G1 X149.258 Y126.689 E.02692
G1 X149.141 Y127.548 E.02718
G1 X148.974 Y128.254 E.02275
G1 X148.697 Y129.069 E.02699
G1 X148.336 Y129.854 E.02709
G1 X147.97 Y130.481 E.02276
G1 X147.554 Y131.07 E.02261
G1 X146.993 Y131.722 E.02697
G1 X146.364 Y132.316 E.02713
G1 X145.677 Y132.841 E.02711
G1 X145.06 Y133.224 E.02277
G1 X144.29 Y133.605 E.02694
G1 X143.611 Y133.864 E.02279
G1 X142.782 Y134.092 E.02696
G1 X141.929 Y134.234 E.02711
G1 X141.066 Y134.286 E.02711
G1 X140.202 Y134.248 E.02712
G1 X139.483 Y134.147 E.02277
G1 X138.78 Y133.984 E.02263
G1 X137.965 Y133.711 E.02695
G1 X137.178 Y133.352 E.02712
G1 X136.432 Y132.914 E.02712
G1 X135.925 Y132.54 E.01975
G1 X135.196 Y131.915 E.03011
G1 X134.615 Y131.281 E.02696
G1 X134.177 Y130.702 E.02276
G1 X133.739 Y129.99 E.02621
M204 S1000
G1 X133.739 Y129.99 F10800
G1 X134.096 Y129.851
M204 S800
;TYPE:External perimeter
G1 F1200
G1 X134.048 Y129.773 E.00287
G1 X133.694 Y129.03 E.02581
G1 X133.457 Y128.38 E.02169
G1 X133.25 Y127.582 E.02585
G1 X133.137 Y126.832 E.02378
G1 X133.091 Y126.077 E.02372
G1 X133.125 Y125.254 E.02583
G1 X133.22 Y124.571 E.02162
G1 X133.337 Y124.061 E.01641
G1 X133.587 Y123.257 E.0264
G1 X133.981 Y122.353 E.03092
G1 X134.392 Y121.653 E.02545
G1 X134.795 Y121.094 E.02161
G1 X135.182 Y120.654 E.01837
G1 X135.814 Y120.037 E.02769
G1 X136.608 Y119.422 E.03149
G1 X137.198 Y119.064 E.02164
G1 X137.94 Y118.706 E.02583
G1 X138.717 Y118.427 E.02589
G1 X139.386 Y118.257 E.02164
G1 X140.2 Y118.131 E.02583
G1 X140.699 Y118.102 E.01567
G1 X141.638 Y118.119 E.02945
G1 X142.396 Y118.214 E.02395
G1 X143.148 Y118.39 E.02422
G1 X143.852 Y118.622 E.02324
G1 X144.604 Y118.959 E.02584
G1 X145.233 Y119.324 E.0228
G1 X145.83 Y119.739 E.0228
G1 X146.498 Y120.314 E.02764
G1 X146.975 Y120.816 E.02171
G1 X147.481 Y121.466 E.02583
G1 X147.919 Y122.166 E.02589
G1 X148.281 Y122.908 E.02589
G1 X148.522 Y123.555 E.02165
G1 X148.736 Y124.35 E.02581
G1 X148.866 Y125.166 E.02591
G1 X148.909 Y125.854 E.02161
G1 X148.881 Y126.675 E.02576
G1 X148.767 Y127.495 E.02596
G1 X148.607 Y128.167 E.02166
G1 X148.341 Y128.946 E.02581
G1 X147.994 Y129.695 E.02588
G1 X147.645 Y130.291 E.02166
G1 X147.247 Y130.852 E.02157
G1 X146.708 Y131.475 E.02583
G1 X146.106 Y132.041 E.02591
G1 X145.449 Y132.54 E.02587
G1 X144.862 Y132.903 E.02164
G1 X144.123 Y133.267 E.02583
G1 X143.478 Y133.512 E.02163
G1 X142.683 Y133.729 E.02584
G1 X141.869 Y133.862 E.02586
G1 X141.044 Y133.91 E.02591
G1 X140.22 Y133.871 E.02586
G1 X139.537 Y133.773 E.02163
G1 X138.867 Y133.617 E.02157
G1 X138.086 Y133.353 E.02585
G1 X137.335 Y133.01 E.02589
G1 X136.625 Y132.589 E.02588
G1 X136.15 Y132.237 E.01854
G1 X135.449 Y131.635 E.02897
G1 X134.893 Y131.027 E.02583
G1 X134.478 Y130.476 E.02163
G1 X134.127 Y129.902 E.0211
M204 S1000
;WIPE_START
G1 F8640
G1 X134.096 Y129.851 E-.01378
G1 X134.048 Y129.773 E-.02115
G1 X133.694 Y129.03 E-.19004
G1 X133.457 Y128.38 E-.15975
G1 X133.25 Y127.582 E-.19036
G1 X133.137 Y126.832 E-.17513
G1 X133.124 Y126.617 E-.04979
;WIPE_END
G1 Z.6 F720
G1 X112.782 Y133.372 F10800
G1 Z.2 F720
G1 E.8 F2100
M204 S800
;TYPE:Perimeter
G1 F1200
G1 X112.152 Y133.664 E.02177
G1 X111.341 Y133.949 E.02695
G1 X110.636 Y134.123 E.02277
G1 X109.786 Y134.249 E.02694
G1 X109.061 Y134.286 E.02276
G1 X108.202 Y134.248 E.02696
G1 X107.483 Y134.147 E.02277
G1 X106.647 Y133.945 E.02697
G1 X105.833 Y133.657 E.02707
G1 X105.173 Y133.35 E.02282
G1 X104.432 Y132.914 E.02696
G1 X103.738 Y132.401 E.02706
G1 X103.196 Y131.915 E.02283
G1 X102.615 Y131.281 E.02696
G1 X102.177 Y130.702 E.02276
G1 X101.728 Y129.972 E.02687
G1 X101.352 Y129.19 E.02721
G1 X101.102 Y128.508 E.02278
G1 X100.876 Y127.638 E.02818
G1 X100.755 Y126.824 E.0258
G1 X100.714 Y126.097 E.02283
G1 X100.747 Y125.287 E.02542
G1 X100.847 Y124.518 E.02431
G1 X101.007 Y123.815 E.02261
G1 X101.276 Y122.999 E.02694
G1 X101.631 Y122.21 E.02713
G1 X102.065 Y121.464 E.02706
G1 X102.49 Y120.873 E.02282
