; generated by PrusaSlicer 2.6.0+win64 on 2024-02-02 at 10:40:45 UTC


;
;
; 

; external perimeters extrusion width = 0.45mm
; perimeters extrusion width = 0.45mm
; infill extrusion width = 0.45mm
; solid infill extrusion width = 0.45mm
; top infill extrusion width = 0.40mm
; support material extrusion width = 0.35mm
; first layer extrusion width = 0.42mm

M73 P0 R395
M73 Q0 S416
M201 X1000 Y1000 Z200 E5000 ; sets maximum accelerations, mm/sec^2
M203 X200 Y200 Z12 E120 ; sets maximum feedrates, mm / sec
M204 S1250 T1250 ; sets acceleration (S) and retract acceleration (R), mm/sec^2
M205 X8.00 Y8.00 Z0.40 E4.50 ; sets the jerk limits, mm/sec
M205 S0 T0 ; sets the minimum extruding and travel feed rate, mm/sec
;TYPE:Custom
M862.3 P "MK3S" ; printer model check
M862.1 P0.4 ; nozzle diameter check
M115 U3.12.2 ; tell printer latest fw version
G90 ; use absolute coordinates
M83 ; extruder relative mode
M104 S215 ; set extruder temp
M140 S60 ; set bed temp
M190 S60 ; wait for bed temp
M109 S215 ; wait for extruder temp
G28 W ; home all without mesh bed level
G80 ; mesh bed leveling

G1 Z0.2 F720
G1 Y-3 F1000 ; go outside print area
G92 E0
G1 X60 E9 F1000 ; intro line
G1 X100 E12.5 F1000 ; intro line

G92 E0
M221 S95

; Don't change E values below. Excessive value can damage the printer.

M907 E538 ; set extruder motor current
G21 ; set units to millimeters
G90 ; use absolute coordinates
M83 ; use relative distances for extrusion
M900 K0.05 ; Filament gcode LA 1.5
M900 K30 ; Filament gcode LA 1.0
M107
;LAYER_CHANGE
;Z:0.2
;HEIGHT:0.2
;BEFORE_LAYER_CHANGE
G92 E0.0
;0.2


G1 E-.8 F2100
G1 Z.4 F720
;AFTER_LAYER_CHANGE
;0.2
G1 X45.623 Y5 F10800
G1 Z.2 F720
G1 E.8 F2100
M204 S800
;TYPE:Skirt/Brim
;WIDTH:0.42
G1 F1200
G1 X46.015 Y3.693 E.04278
G1 X47.06 Y2.817 E.04275
G1 X48 Y2.623 E.03009
G1 X202 Y2.623 E4.82856
G1 X203.307 Y3.015 E.04278
G1 X204.183 Y4.06 E.04275
G1 X204.377 Y5 E.03009
G1 X204.377 Y205 E6.27086
G1 X203.985 Y206.307 E.04278
M73 P0 R394
M73 Q0 S415
G1 X202.94 Y207.183 E.04275
G1 X202 Y207.377 E.03009
G1 X48 Y207.377 E4.82856
G1 X46.693 Y206.985 E.04278
G1 X45.817 Y205.94 E.04275
G1 X45.623 Y205 E.03009
G1 X45.623 Y5.06 E6.26898
M204 S1000
; printing object 2b_bed.stl id:0 copy 0
;WIPE_START
G1 F8640
G1 X46.015 Y3.693 E-.32837
G1 X47.06 Y2.817 E-.31486
G1 X47.725 Y2.68 E-.15677
;WIPE_END
G1 Z.6 F720
G1 X171.52 Y60.52 F10800
G1 Z.2 F720
G1 E.8 F2100
M204 S800
;TYPE:Support material
G1 F1200
G1 X147.48 Y60.52 E.75376
G1 X147.48 Y21.48 E1.22407
G1 X171.52 Y21.48 E.75376
G1 X171.52 Y60.463 E1.22228
M204 S1000
G1 X171.087 Y60.35 F10800
M204 S800
G1 F1200
G1 X171.087 Y21.819 E1.20811
G1 X170.669 Y21.819 E.01311
G1 X170.668 Y60.181 E1.20281
G1 X170.25 Y60.181 E.01311
G1 X170.25 Y21.819 E1.20281
G1 X169.831 Y21.819 E.01314
G1 X169.831 Y60.181 E1.20281
G1 X169.412 Y60.181 E.01314
G1 X169.412 Y21.819 E1.20281
G1 X168.993 Y21.819 E.01314
G1 X168.993 Y60.181 E1.20281
G1 X168.574 Y60.181 E.01314
G1 X168.574 Y21.819 E1.20281
G1 X168.155 Y21.819 E.01314
G1 X168.155 Y60.181 E1.20281
G1 X167.736 Y60.181 E.01314
G1 X167.736 Y21.819 E1.20281
G1 X167.317 Y21.819 E.01314
G1 X167.317 Y60.181 E1.20281
G1 X166.898 Y60.181 E.01314
G1 X166.898 Y21.819 E1.20281
G1 X166.479 Y21.819 E.01314
G1 X166.479 Y60.181 E1.20281
G1 X166.06 Y60.181 E.01314
G1 X166.06 Y21.819 E1.20281
G1 X165.641 Y21.819 E.01314
G1 X165.641 Y60.181 E1.20281
G1 X165.222 Y60.181 E.01314
M73 P0 R393
G1 X165.222 Y21.819 E1.20281
G1 X164.803 Y21.819 E.01314
G1 X164.803 Y60.181 E1.20281
G1 X164.384 Y60.181 E.01314
G1 X164.384 Y21.819 E1.20281
G1 X163.965 Y21.819 E.01314
M73 Q0 S414
G1 X163.965 Y60.181 E1.20281
G1 X163.546 Y60.181 E.01314
G1 X163.546 Y21.819 E1.20281
G1 X163.127 Y21.819 E.01314
G1 X163.127 Y60.181 E1.20281
G1 X162.708 Y60.181 E.01314
G1 X162.708 Y21.819 E1.20281
G1 X162.289 Y21.819 E.01314
G1 X162.289 Y60.181 E1.20281
G1 X161.87 Y60.181 E.01314
G1 X161.87 Y21.819 E1.20281
G1 X161.451 Y21.819 E.01314
G1 X161.451 Y60.181 E1.20281
G1 X161.032 Y60.181 E.01314
G1 X161.032 Y21.819 E1.20281
G1 X160.613 Y21.819 E.01314
G1 X160.613 Y60.181 E1.20281
G1 X160.194 Y60.181 E.01314
G1 X160.194 Y21.819 E1.20281
G1 X159.775 Y21.819 E.01314
G1 X159.775 Y60.181 E1.20281
G1 X159.356 Y60.181 E.01314
G1 X159.356 Y21.819 E1.20281
G1 X158.937 Y21.819 E.01314
G1 X158.937 Y60.181 E1.20281
G1 X158.518 Y60.181 E.01314
G1 X158.518 Y21.819 E1.20281
G1 X158.099 Y21.819 E.01314
G1 X158.099 Y60.181 E1.20281
G1 X157.68 Y60.181 E.01314
G1 X157.68 Y21.819 E1.20281
G1 X157.261 Y21.819 E.01314
G1 X157.261 Y60.181 E1.20281
G1 X156.842 Y60.181 E.01314
G1 X156.842 Y21.819 E1.20281
G1 X156.423 Y21.819 E.01314
G1 X156.423 Y60.181 E1.20281
G1 X156.004 Y60.181 E.01314
G1 X156.004 Y21.819 E1.20281
G1 X155.585 Y21.819 E.01314
G1 X155.585 Y60.181 E1.20281
G1 X155.166 Y60.181 E.01314
G1 X155.166 Y21.819 E1.20281
G1 X154.747 Y21.819 E.01314
G1 X154.747 Y60.181 E1.20281
G1 X154.328 Y60.181 E.01314
G1 X154.328 Y21.819 E1.20281
G1 X153.909 Y21.819 E.01314
G1 X153.909 Y60.181 E1.20281
G1 X153.49 Y60.181 E.01314
G1 X153.49 Y21.819 E1.20281
G1 X153.071 Y21.819 E.01314
G1 X153.071 Y60.181 E1.20281
G1 X152.652 Y60.181 E.01314
M73 P0 R392
G1 X152.652 Y21.819 E1.20281
G1 X152.234 Y21.819 E.01311
G1 X152.234 Y60.181 E1.20281
G1 X151.815 Y60.181 E.01314
G1 X151.815 Y21.819 E1.20281
G1 X151.396 Y21.819 E.01314
G1 X151.396 Y60.181 E1.20281
M73 Q0 S413
G1 X150.977 Y60.181 E.01314
G1 X150.977 Y21.819 E1.20281
G1 X150.558 Y21.819 E.01314
G1 X150.558 Y60.181 E1.20281
G1 X150.139 Y60.181 E.01314
G1 X150.139 Y21.819 E1.20281
G1 X149.72 Y21.819 E.01314
G1 X149.72 Y60.181 E1.20281
G1 X149.301 Y60.181 E.01314
G1 X149.301 Y21.819 E1.20281
G1 X148.882 Y21.819 E.01314
G1 X148.882 Y60.181 E1.20281
G1 X148.463 Y60.181 E.01314
G1 X148.463 Y21.819 E1.20281
G1 X148.044 Y21.819 E.01314
G1 X148.044 Y60.35 E1.20811
M204 S1000
;WIPE_START
G1 F8640
G1 X148.044 Y56.885 E-.8
;WIPE_END
G1 Z.6 F720
G1 X171.52 Y188.52 F10800
G1 Z.2 F720
G1 E.8 F2100
M204 S800
G1 F1200
G1 X147.48 Y188.52 E.75376
G1 X147.48 Y149.48 E1.22407
G1 X171.52 Y149.48 E.75376
G1 X171.52 Y188.463 E1.22228
M204 S1000
G1 X171.087 Y188.35 F10800
M204 S800
G1 F1200
G1 X171.087 Y149.819 E1.20811
G1 X170.668 Y149.819 E.01314
G1 X170.668 Y188.181 E1.20281
G1 X170.25 Y188.181 E.01311
G1 X170.25 Y149.819 E1.20281
G1 X169.831 Y149.819 E.01314
G1 X169.831 Y188.181 E1.20281
G1 X169.412 Y188.181 E.01314
G1 X169.412 Y149.819 E1.20281
G1 X168.993 Y149.819 E.01314
G1 X168.993 Y188.181 E1.20281
G1 X168.574 Y188.181 E.01314
G1 X168.574 Y149.819 E1.20281
G1 X168.155 Y149.819 E.01314
G1 X168.155 Y188.181 E1.20281
G1 X167.736 Y188.181 E.01314
G1 X167.736 Y149.819 E1.20281
G1 X167.317 Y149.819 E.01314
G1 X167.317 Y188.181 E1.20281
G1 X166.898 Y188.181 E.01314
G1 X166.898 Y149.819 E1.20281
G1 X166.479 Y149.819 E.01314
G1 X166.479 Y188.181 E1.20281
G1 X166.06 Y188.181 E.01314
G1 X166.06 Y149.819 E1.20281
G1 X165.641 Y149.819 E.01314
G1 X165.641 Y188.181 E1.20281
G1 X165.222 Y188.181 E.01314
G1 X165.222 Y149.819 E1.20281
G1 X164.803 Y149.819 E.01314
M73 P0 R391
G1 X164.803 Y188.181 E1.20281
G1 X164.384 Y188.181 E.01314
G1 X164.384 Y149.819 E1.20281
G1 X163.965 Y149.819 E.01314
G1 X163.965 Y188.181 E1.20281
G1 X163.546 Y188.181 E.01314
M73 Q0 S412
G1 X163.546 Y149.819 E1.20281
G1 X163.127 Y149.819 E.01314
G1 X163.127 Y188.181 E1.20281
G1 X162.708 Y188.181 E.01314
G1 X162.708 Y149.819 E1.20281
G1 X162.289 Y149.819 E.01314
G1 X162.289 Y188.181 E1.20281
G1 X161.87 Y188.181 E.01314
G1 X161.87 Y149.819 E1.20281
G1 X161.451 Y149.819 E.01314
G1 X161.451 Y188.181 E1.20281
G1 X161.032 Y188.181 E.01314
G1 X161.032 Y149.819 E1.20281
G1 X160.613 Y149.819 E.01314
G1 X160.613 Y188.181 E1.20281
G1 X160.194 Y188.181 E.01314
G1 X160.194 Y149.819 E1.20281
G1 X159.775 Y149.819 E.01314
G1 X159.775 Y188.181 E1.20281
G1 X159.356 Y188.181 E.01314
G1 X159.356 Y149.819 E1.20281
G1 X158.937 Y149.819 E.01314
G1 X158.937 Y188.181 E1.20281
G1 X158.518 Y188.181 E.01314
G1 X158.518 Y149.819 E1.20281
G1 X158.099 Y149.819 E.01314
G1 X158.099 Y188.181 E1.20281
G1 X157.68 Y188.181 E.01314
G1 X157.68 Y149.819 E1.20281
G1 X157.261 Y149.819 E.01314
G1 X157.261 Y188.181 E1.20281
G1 X156.842 Y188.181 E.01314
G1 X156.842 Y149.819 E1.20281
G1 X156.423 Y149.819 E.01314
G1 X156.423 Y188.181 E1.20281
G1 X156.004 Y188.181 E.01314
M73 P1 R391
G1 X156.004 Y149.819 E1.20281
G1 X155.585 Y149.819 E.01314
G1 X155.585 Y188.181 E1.20281
G1 X155.166 Y188.181 E.01314
G1 X155.166 Y149.819 E1.20281
G1 X154.747 Y149.819 E.01314
G1 X154.747 Y188.181 E1.20281
G1 X154.328 Y188.181 E.01314
G1 X154.328 Y149.819 E1.20281
G1 X153.909 Y149.819 E.01314
G1 X153.909 Y188.181 E1.20281
G1 X153.49 Y188.181 E.01314
M73 Q1 S412
G1 X153.49 Y149.819 E1.20281
G1 X153.071 Y149.819 E.01314
G1 X153.071 Y188.181 E1.20281
G1 X152.652 Y188.181 E.01314
G1 X152.652 Y149.819 E1.20281
G1 X152.234 Y149.819 E.01311
G1 X152.233 Y188.181 E1.20281
G1 X151.815 Y188.181 E.01311
M73 P1 R390
G1 X151.815 Y149.819 E1.20281
G1 X151.396 Y149.819 E.01314
G1 X151.396 Y188.181 E1.20281
G1 X150.977 Y188.181 E.01314
G1 X150.977 Y149.819 E1.20281
G1 X150.558 Y149.819 E.01314
M73 Q1 S411
G1 X150.558 Y188.181 E1.20281
G1 X150.139 Y188.181 E.01314
G1 X150.139 Y149.819 E1.20281
G1 X149.72 Y149.819 E.01314
G1 X149.72 Y188.181 E1.20281
G1 X149.301 Y188.181 E.01314
G1 X149.301 Y149.819 E1.20281
G1 X148.882 Y149.819 E.01314
G1 X148.882 Y188.181 E1.20281
G1 X148.463 Y188.181 E.01314
G1 X148.463 Y149.819 E1.20281
G1 X148.044 Y149.819 E.01314
G1 X148.044 Y188.35 E1.20811
M204 S1000
;WIPE_START
G1 F8640
G1 X148.044 Y184.885 E-.8
;WIPE_END
G1 Z.6 F720
G1 X95.234 Y177.664 F10800
G1 Z.2 F720
G1 E.8 F2100
M204 S800
;TYPE:Perimeter
;WIDTH:0.419999
G1 F1200
G1 X95.213 Y177.749 E.00275
G1 X95.213 Y204.213 E.82976
G1 X48.787 Y204.213 E1.45565
G1 X48.787 Y5.787 E6.2215
G1 X95.213 Y5.787 E1.45565
G1 X95.213 Y32.251 E.82976
G1 X95.297 Y32.549 E.00971
G1 X95.501 Y32.744 E.00885
G1 X95.779 Y32.817 E.00901
G1 X118.271 Y32.815 E.70522
G1 X118.541 Y32.718 E.009
G1 X118.721 Y32.518 E.00844
G1 X118.787 Y32.251 E.00862
G1 X118.787 Y5.787 E.82976
G1 X201.213 Y5.787 E2.58441
G1 X201.213 Y93.213 E2.74118
G1 X130.193 Y93.214 E2.22678
G1 X129.928 Y93.299 E.00873
G1 X129.736 Y93.5 E.00872
G1 X129.663 Y93.779 E.00904
G1 X129.663 Y116.221 E.70365
G1 X129.746 Y116.517 E.00964
G1 X129.952 Y116.715 E.00896
G1 X130.229 Y116.787 E.00897
G1 X201.213 Y116.787 E2.22565
G1 X201.213 Y204.213 E2.74118
G1 X118.787 Y204.213 E2.58441
M73 P1 R389
G1 X118.787 Y177.749 E.82976
M73 Q1 S410
G1 X118.706 Y177.457 E.0095
G1 X118.5 Y177.256 E.00902
G1 X118.221 Y177.183 E.00904
G1 X95.73 Y177.185 E.70519
G1 X95.464 Y177.278 E.00884
G1 X95.28 Y177.482 E.00861
G1 X95.249 Y177.606 E.00401
M204 S1000
G1 X95.59 Y177.749 F10800
M204 S800
;TYPE:External perimeter
G1 F1200
G1 X95.59 Y204.59 E.84158
G1 X48.41 Y204.59 E1.47929
G1 X48.41 Y5.41 E6.24514
G1 X95.59 Y5.41 E1.47929
G1 X95.59 Y32.251 E.84158
G1 X95.631 Y32.369 E.00392
G1 X95.775 Y32.44 E.00503
G1 X118.221 Y32.44 E.70378
G1 X118.341 Y32.397 E.004
G1 X118.41 Y32.251 E.00506
G1 X118.41 Y5.41 E.84158
G1 X201.59 Y5.41 E2.60805
G1 X201.59 Y93.59 E2.76482
G1 X130.229 Y93.59 E2.23747
G1 X130.11 Y93.632 E.00396
G1 X130.04 Y93.779 E.0051
G1 X130.04 Y116.221 E.70365
G1 X130.084 Y116.342 E.00404
G1 X130.229 Y116.41 E.00502
G1 X201.59 Y116.41 E2.23747
G1 X201.59 Y204.59 E2.76482
G1 X118.41 Y204.59 E2.60805
G1 X118.41 Y177.749 E.84158
G1 X118.367 Y177.628 E.00403
G1 X118.221 Y177.56 E.00505
G1 X95.779 Y177.56 E.70365
G1 X95.658 Y177.604 E.00404
G1 X95.615 Y177.694 E.00313
M204 S1000
G1 X95.204 Y177.852 F10800
;WIPE_START
G1 F8640
G1 X95.612 Y181.159 E-.8
;WIPE_END
G1 Z.6 F720
G1 X172.33 Y189.766 F10800
G1 Z.2 F720
G1 E.8 F2100
M204 S800
;TYPE:Perimeter
G1 F1200
G1 X172.221 Y189.787 E.00348
G1 X146.779 Y189.787 E.79771
G1 X146.508 Y189.718 E.00877
G1 X146.296 Y189.517 E.00916
G1 X146.213 Y189.221 E.00964
G1 X146.213 Y148.779 E1.26803
G1 X146.284 Y148.503 E.00894
M73 P1 R388
G1 X146.476 Y148.301 E.00874
G1 X146.779 Y148.213 E.00989
G1 X172.221 Y148.213 E.79771
G1 X172.486 Y148.279 E.00856
G1 X172.696 Y148.471 E.00892
G1 X172.784 Y148.718 E.00822
G1 X172.787 Y148.779 E.00191
G1 X172.787 Y189.221 E1.26803
G1 X172.712 Y189.502 E.00912
G1 X172.547 Y189.684 E.0077
G1 X172.386 Y189.745 E.0054
M204 S1000
G1 X172.221 Y189.41 F10800
M204 S800
;TYPE:External perimeter
G1 F1200
G1 X146.779 Y189.41 E.79771
G1 X146.636 Y189.345 E.00493
M73 Q1 S409
G1 X146.59 Y189.221 E.00415
G1 X146.59 Y148.779 E1.26803
G1 X146.658 Y148.634 E.00502
G1 X146.779 Y148.59 E.00404
G1 X172.221 Y148.59 E.79771
G1 X172.363 Y148.654 E.00488
G1 X172.41 Y148.779 E.00419
G1 X172.41 Y189.221 E1.26803
G1 X172.344 Y189.365 E.00497
G1 X172.278 Y189.389 E.0022
M204 S1000
G1 X172.118 Y189.796 F10800
;WIPE_START
G1 F8640
G1 X168.813 Y189.392 E-.8
;WIPE_END
G1 Z.6 F720
G1 X172.325 Y61.767 F10800
G1 Z.2 F720
G1 E.8 F2100
M204 S800
;TYPE:Perimeter
G1 F1200
G1 X172.221 Y61.787 E.00332
G1 X146.779 Y61.787 E.79771
G1 X146.52 Y61.724 E.00836
G1 X146.311 Y61.54 E.00873
G1 X146.216 Y61.276 E.0088
G1 X146.213 Y20.779 E1.26975
G1 X146.275 Y20.52 E.00835
G1 X146.463 Y20.309 E.00886
G1 X146.557 Y20.258 E.00335
G1 X146.779 Y20.213 E.0071
G1 X172.221 Y20.213 E.79771
G1 X172.5 Y20.286 E.00904
G1 X172.688 Y20.459 E.00801
G1 X172.784 Y20.717 E.00863
G1 X172.787 Y20.779 E.00195
G1 X172.787 Y61.221 E1.26803
G1 X172.724 Y61.48 E.00836
G1 X172.531 Y61.695 E.00906
G1 X172.382 Y61.748 E.00496
M204 S1000
G1 X172.221 Y61.41 F10800
M204 S800
;TYPE:External perimeter
G1 F1200
G1 X146.779 Y61.41 E.79771
G1 X146.635 Y61.344 E.00497
G1 X146.59 Y61.221 E.00411
G1 X146.59 Y20.779 E1.26803
G1 X146.659 Y20.632 E.00509
G1 X146.779 Y20.59 E.00399
G1 X172.221 Y20.59 E.79771
G1 X172.368 Y20.659 E.00509
G1 X172.41 Y20.779 E.00399
G1 X172.41 Y61.221 E1.26803
G1 X172.345 Y61.364 E.00493
G1 X172.278 Y61.389 E.00224
M204 S1000
G1 X172.118 Y61.796 F10800
;WIPE_START
G1 F8640
G1 X168.813 Y61.392 E-.8
;WIPE_END
G1 Z.6 F720
G1 X201.043 Y6.72 F10800
G1 Z.2 F720
G1 E.8 F2100
M204 S800
;TYPE:Solid infill
;WIDTH:0.420455
G1 F1200
G1 X200.45 Y6.126 E.02635
G1 X199.916 Y6.126 E.01676
G1 X200.874 Y7.084 E.04253
G1 X200.874 Y7.618 E.01676
G1 X199.382 Y6.126 E.06624
G1 X198.848 Y6.126 E.01676
G1 X200.874 Y8.152 E.08994
G1 X200.874 Y8.686 E.01676
G1 X198.314 Y6.126 E.11365
G1 X197.78 Y6.126 E.01676
G1 X200.874 Y9.22 E.13736
G1 X200.874 Y9.754 E.01676
G1 X197.246 Y6.126 E.16107
G1 X196.712 Y6.126 E.01676
G1 X200.874 Y10.288 E.18477
G1 X200.874 Y10.822 E.01676
G1 X196.178 Y6.126 E.20848
G1 X195.644 Y6.126 E.01676
G1 X200.874 Y11.356 E.23219
G1 X200.874 Y11.889 E.01673
G1 X195.111 Y6.126 E.25585
G1 X194.577 Y6.126 E.01676
G1 X200.874 Y12.423 E.27956
G1 X200.874 Y12.957 E.01676
G1 X194.043 Y6.126 E.30326
G1 X193.509 Y6.126 E.01676
G1 X200.874 Y13.491 E.32697
G1 X200.874 Y14.025 E.01676
G1 X192.975 Y6.126 E.35068
G1 X192.441 Y6.126 E.01676
G1 X200.874 Y14.559 E.37438
G1 X200.874 Y15.093 E.01676
G1 X191.907 Y6.126 E.39809
G1 X191.373 Y6.126 E.01676
G1 X200.874 Y15.627 E.4218
G1 X200.874 Y16.161 E.01676
G1 X190.839 Y6.126 E.44551
G1 X190.305 Y6.126 E.01676
G1 X200.874 Y16.695 E.46921
G1 X200.874 Y17.229 E.01676
G1 X189.771 Y6.126 E.49292
G1 X189.237 Y6.126 E.01676
G1 X200.874 Y17.763 E.51663
G1 X200.874 Y18.296 E.01673
G1 X188.704 Y6.126 E.54029
G1 X188.17 Y6.126 E.01676
G1 X200.874 Y18.83 E.564
G1 X200.874 Y19.364 E.01676
G1 X187.636 Y6.126 E.5877
G1 X187.102 Y6.126 E.01676
G1 X200.874 Y19.898 E.61141
G1 X200.874 Y20.432 E.01676
G1 X186.568 Y6.126 E.63512
G1 X186.034 Y6.126 E.01676
G1 X200.874 Y20.966 E.65883
G1 X200.874 Y21.5 E.01676
G1 X185.5 Y6.126 E.68253
G1 X184.966 Y6.126 E.01676
G1 X200.874 Y22.034 E.70624
G1 X200.874 Y22.568 E.01676
G1 X184.432 Y6.126 E.72995
G1 X183.898 Y6.126 E.01676
G1 X200.874 Y23.102 E.75365
G1 X200.874 Y23.636 E.01676
G1 X183.364 Y6.126 E.77736
G1 X182.83 Y6.126 E.01676
G1 X200.874 Y24.17 E.80107
G1 X200.874 Y24.703 E.01673
G1 X182.297 Y6.126 E.82473
G1 X181.763 Y6.126 E.01676
G1 X200.874 Y25.237 E.84844
G1 X200.874 Y25.771 E.01676
G1 X181.229 Y6.126 E.87214
G1 X180.695 Y6.126 E.01676
