; generated by PrusaSlicer 2.7.3+win64 on 2024-04-19 at 09:33:46 UTC


;
;
; 

; external perimeters extrusion width = 0.45mm
; perimeters extrusion width = 0.45mm
; infill extrusion width = 0.45mm
; solid infill extrusion width = 0.45mm
; top infill extrusion width = 0.40mm
; support material extrusion width = 0.35mm
; first layer extrusion width = 0.42mm

M73 P0 R184
M73 Q0 S190
M201 X1000 Y1000 Z200 E5000 ; sets maximum accelerations, mm/sec^2
M203 X200 Y200 Z12 E120 ; sets maximum feedrates, mm / sec
M204 S1250 T1250 ; sets acceleration (S) and retract acceleration (R), mm/sec^2
M205 X8.00 Y8.00 Z0.40 E4.50 ; sets the jerk limits, mm/sec
M205 S0 T0 ; sets the minimum extruding and travel feed rate, mm/sec

; printing object 1_mounting_plate.stl id:0 copy 0
; stop printing object 1_mounting_plate.stl id:0 copy 0

;TYPE:Custom
M862.3 P "MK3S" ; printer model check
M862.1 P0.4 ; nozzle diameter check
M115 U3.12.2 ; tell printer latest fw version
G90 ; use absolute coordinates
M83 ; extruder relative mode
M104 S215 ; set extruder temp
M140 S60 ; set bed temp
M190 S60 ; wait for bed temp
M109 S215 ; wait for extruder temp
G28 W ; home all without mesh bed level
G80 ; mesh bed leveling

G1 Z0.2 F720
G1 Y-3 F1000 ; go outside print area
G92 E0
G1 X60 E9 F1000 ; intro line
G1 X100 E12.5 F1000 ; intro line

G92 E0
M221 S95

; Don't change E values below. Excessive value can damage the printer.

M907 E538 ; set extruder motor current
G21 ; set units to millimeters
G90 ; use absolute coordinates
M83 ; use relative distances for extrusion
M900 K0.05 ; Filament gcode LA 1.5
M900 K30 ; Filament gcode LA 1.0
M107
;LAYER_CHANGE
;Z:0.2
;HEIGHT:0.2
G1 E-.8 F2100
G1 Z.6 F720
G1 X73.833 Y69.718 F10800
G1 Z.2 F720
G1 E.8 F2100
M204 S800
;TYPE:Skirt/Brim
;WIDTH:0.42
G1 F1200
G1 X89.272 Y53.368 E.70508
G1 X91 Y52.623 E.059
G1 X181 Y52.623 E2.82189
G1 X182.307 Y53.015 E.04278
G1 X183.261 Y54.265 E.0493
G1 X194.802 Y89.787 E1.17108
G1 X194.919 Y90.521 E.0233
G1 X194.919 Y140.243 E1.559
G1 X194.414 Y141.707 E.04856
G1 X182.872 Y156.464 E.58741
G1 X181.759 Y157.253 E.04278
G1 X181 Y157.377 E.02411
G1 X91 Y157.377 E2.82189
G1 X90.043 Y157.176 E.03066
G1 X56.501 Y142.418 E1.14898
G1 X55.462 Y141.534 E.04277
M73 Q0 S189
G1 X55.081 Y140.243 E.0422
G1 X55.081 Y90.521 E1.559
G1 X55.73 Y88.889 E.05507
M73 P0 R183
G1 X73.791 Y69.762 E.82483
M204 S1000
;WIPE_START
G1 F8640
G1 X73.833 Y69.718 E-.01405
G1 X76.17 Y67.243 E-.78595
;WIPE_END
G1 Z.6 F720
; printing object 1_mounting_plate.stl id:0 copy 0
G1 X90.52 Y140.243 F10800
G1 Z.2 F720
G1 E.8 F2100
M204 S800
;TYPE:Support material
G1 F1200
G1 X57.458 Y140.243 E1.03664
G1 X57.458 Y122.82 E.54629
G1 X90.52 Y122.82 E1.03664
G1 X90.52 Y140.186 E.5445
M204 S1000
G1 X89.806 Y140.073 F10800
M204 S800
G1 F1200
G1 X89.806 Y123.16 E.5303
G1 X89.387 Y123.16 E.01314
G1 X89.387 Y139.903 E.52497
G1 X88.968 Y139.903 E.01314
G1 X88.968 Y123.16 E.52497
G1 X88.549 Y123.16 E.01314
G1 X88.549 Y139.903 E.52497
G1 X88.13 Y139.903 E.01314
G1 X88.13 Y123.16 E.52497
G1 X87.711 Y123.16 E.01314
G1 X87.711 Y139.903 E.52497
G1 X87.292 Y139.903 E.01314
G1 X87.292 Y123.16 E.52497
G1 X86.873 Y123.16 E.01314
G1 X86.873 Y139.903 E.52497
G1 X86.454 Y139.903 E.01314
G1 X86.454 Y123.16 E.52497
G1 X86.035 Y123.16 E.01314
G1 X86.035 Y139.903 E.52497
G1 X85.616 Y139.903 E.01314
G1 X85.616 Y123.16 E.52497
G1 X85.197 Y123.16 E.01314
G1 X85.197 Y139.903 E.52497
G1 X84.778 Y139.903 E.01314
G1 X84.778 Y123.16 E.52497
G1 X84.359 Y123.16 E.01314
G1 X84.359 Y139.903 E.52497
G1 X83.94 Y139.903 E.01314
G1 X83.94 Y123.16 E.52497
G1 X83.521 Y123.16 E.01314
G1 X83.521 Y139.903 E.52497
G1 X83.102 Y139.903 E.01314
G1 X83.102 Y123.16 E.52497
G1 X82.683 Y123.16 E.01314
G1 X82.683 Y139.903 E.52497
G1 X82.264 Y139.903 E.01314
G1 X82.264 Y123.16 E.52497
G1 X81.845 Y123.16 E.01314
G1 X81.845 Y139.903 E.52497
G1 X81.426 Y139.903 E.01314
G1 X81.426 Y123.16 E.52497
G1 X81.007 Y123.16 E.01314
G1 X81.007 Y139.903 E.52497
G1 X80.588 Y139.903 E.01314
G1 X80.588 Y123.16 E.52497
G1 X80.169 Y123.16 E.01314
G1 X80.169 Y139.903 E.52497
G1 X79.75 Y139.903 E.01314
G1 X79.75 Y123.16 E.52497
G1 X79.332 Y123.16 E.01311
G1 X79.332 Y139.903 E.52497
G1 X78.913 Y139.903 E.01314
G1 X78.913 Y123.16 E.52497
G1 X78.494 Y123.16 E.01314
G1 X78.494 Y139.903 E.52497
G1 X78.075 Y139.903 E.01314
G1 X78.075 Y123.16 E.52497
G1 X77.656 Y123.16 E.01314
G1 X77.656 Y139.903 E.52497
G1 X77.237 Y139.903 E.01314
G1 X77.237 Y123.16 E.52497
G1 X76.818 Y123.16 E.01314
G1 X76.818 Y139.903 E.52497
G1 X76.399 Y139.903 E.01314
G1 X76.399 Y123.16 E.52497
G1 X75.98 Y123.16 E.01314
G1 X75.98 Y139.903 E.52497
G1 X75.561 Y139.903 E.01314
G1 X75.561 Y123.16 E.52497
G1 X75.142 Y123.16 E.01314
G1 X75.142 Y139.903 E.52497
G1 X74.723 Y139.903 E.01314
G1 X74.723 Y123.16 E.52497
G1 X74.304 Y123.16 E.01314
G1 X74.304 Y139.903 E.52497
G1 X73.885 Y139.903 E.01314
G1 X73.885 Y123.16 E.52497
G1 X73.466 Y123.16 E.01314
G1 X73.466 Y139.903 E.52497
G1 X73.047 Y139.903 E.01314
G1 X73.047 Y123.16 E.52497
G1 X72.628 Y123.16 E.01314
G1 X72.628 Y139.903 E.52497
G1 X72.209 Y139.903 E.01314
G1 X72.209 Y123.16 E.52497
G1 X71.79 Y123.16 E.01314
G1 X71.79 Y139.903 E.52497
G1 X71.371 Y139.903 E.01314
G1 X71.371 Y123.16 E.52497
G1 X70.952 Y123.16 E.01314
G1 X70.952 Y139.903 E.52497
G1 X70.533 Y139.903 E.01314
G1 X70.533 Y123.16 E.52497
G1 X70.114 Y123.16 E.01314
G1 X70.114 Y139.903 E.52497
G1 X69.695 Y139.903 E.01314
G1 X69.695 Y123.16 E.52497
G1 X69.276 Y123.16 E.01314
G1 X69.276 Y139.903 E.52497
G1 X68.857 Y139.903 E.01314
G1 X68.857 Y123.16 E.52497
G1 X68.438 Y123.16 E.01314
G1 X68.438 Y139.903 E.52497
G1 X68.019 Y139.903 E.01314
G1 X68.019 Y123.16 E.52497
G1 X67.6 Y123.16 E.01314
G1 X67.6 Y139.903 E.52497
G1 X67.181 Y139.903 E.01314
G1 X67.181 Y123.16 E.52497
G1 X66.762 Y123.16 E.01314
M73 Q0 S188
G1 X66.762 Y139.903 E.52497
G1 X66.343 Y139.903 E.01314
G1 X66.343 Y123.16 E.52497
G1 X65.924 Y123.16 E.01314
G1 X65.924 Y139.903 E.52497
G1 X65.505 Y139.903 E.01314
M73 P0 R182
G1 X65.505 Y123.16 E.52497
G1 X65.086 Y123.16 E.01314
G1 X65.086 Y139.903 E.52497
G1 X64.667 Y139.903 E.01314
G1 X64.667 Y123.16 E.52497
G1 X64.248 Y123.16 E.01314
G1 X64.248 Y139.903 E.52497
G1 X63.829 Y139.903 E.01314
G1 X63.829 Y123.16 E.52497
G1 X63.41 Y123.16 E.01314
G1 X63.41 Y139.903 E.52497
G1 X62.991 Y139.903 E.01314
G1 X62.991 Y123.16 E.52497
G1 X62.572 Y123.16 E.01314
G1 X62.572 Y139.903 E.52497
G1 X62.153 Y139.903 E.01314
G1 X62.153 Y123.16 E.52497
G1 X61.734 Y123.16 E.01314
G1 X61.734 Y139.903 E.52497
G1 X61.315 Y139.903 E.01314
G1 X61.315 Y123.16 E.52497
G1 X60.897 Y123.16 E.01311
G1 X60.897 Y139.903 E.52497
G1 X60.478 Y139.903 E.01314
G1 X60.478 Y123.16 E.52497
G1 X60.059 Y123.16 E.01314
G1 X60.059 Y139.903 E.52497
G1 X59.64 Y139.903 E.01314
G1 X59.64 Y123.16 E.52497
G1 X59.221 Y123.16 E.01314
G1 X59.221 Y139.903 E.52497
G1 X58.802 Y139.903 E.01314
G1 X58.802 Y123.16 E.52497
G1 X58.383 Y123.16 E.01314
G1 X58.383 Y139.903 E.52497
G1 X57.964 Y139.903 E.01314
G1 X57.964 Y122.99 E.5303
M204 S1000
;WIPE_START
G1 F8640
G1 X57.964 Y126.455 E-.8
;WIPE_END
G1 Z.6 F720
G1 X90.52 Y107.943 F10800
G1 Z.2 F720
G1 E.8 F2100
M204 S800
G1 F1200
G1 X57.458 Y107.943 E1.03664
G1 X57.458 Y90.521 E.54625
G1 X90.52 Y90.521 E1.03664
G1 X90.52 Y107.887 E.5445
M204 S1000
G1 X90.52 Y107.887 F10800
G1 X89.806 Y107.774
M204 S800
G1 F1200
G1 X89.806 Y90.861 E.5303
G1 X89.387 Y90.861 E.01314
G1 X89.387 Y107.604 E.52497
G1 X88.968 Y107.604 E.01314
G1 X88.968 Y90.861 E.52497
G1 X88.549 Y90.861 E.01314
M73 P1 R182
G1 X88.549 Y107.604 E.52497
G1 X88.13 Y107.604 E.01314
G1 X88.13 Y90.861 E.52497
G1 X87.711 Y90.861 E.01314
G1 X87.711 Y107.604 E.52497
G1 X87.292 Y107.604 E.01314
G1 X87.292 Y90.861 E.52497
G1 X86.873 Y90.861 E.01314
M73 Q1 S188
G1 X86.873 Y107.604 E.52497
G1 X86.454 Y107.604 E.01314
G1 X86.454 Y90.861 E.52497
G1 X86.035 Y90.861 E.01314
G1 X86.035 Y107.604 E.52497
G1 X85.616 Y107.604 E.01314
G1 X85.616 Y90.861 E.52497
G1 X85.197 Y90.861 E.01314
G1 X85.197 Y107.604 E.52497
G1 X84.778 Y107.604 E.01314
G1 X84.778 Y90.861 E.52497
G1 X84.359 Y90.861 E.01314
G1 X84.359 Y107.604 E.52497
G1 X83.94 Y107.604 E.01314
G1 X83.94 Y90.861 E.52497
G1 X83.521 Y90.861 E.01314
G1 X83.521 Y107.604 E.52497
G1 X83.102 Y107.604 E.01314
G1 X83.102 Y90.861 E.52497
G1 X82.683 Y90.861 E.01314
G1 X82.683 Y107.604 E.52497
G1 X82.264 Y107.604 E.01314
G1 X82.264 Y90.861 E.52497
G1 X81.845 Y90.861 E.01314
G1 X81.845 Y107.604 E.52497
G1 X81.426 Y107.604 E.01314
G1 X81.426 Y90.861 E.52497
G1 X81.007 Y90.861 E.01314
G1 X81.007 Y107.604 E.52497
G1 X80.588 Y107.604 E.01314
G1 X80.588 Y90.861 E.52497
G1 X80.169 Y90.861 E.01314
G1 X80.169 Y107.604 E.52497
G1 X79.75 Y107.604 E.01314
G1 X79.75 Y90.861 E.52497
G1 X79.332 Y90.861 E.01311
G1 X79.332 Y107.604 E.52497
G1 X78.913 Y107.604 E.01314
G1 X78.913 Y90.861 E.52497
G1 X78.494 Y90.861 E.01314
G1 X78.494 Y107.604 E.52497
G1 X78.075 Y107.604 E.01314
G1 X78.075 Y90.861 E.52497
G1 X77.656 Y90.861 E.01314
G1 X77.656 Y107.604 E.52497
G1 X77.237 Y107.604 E.01314
G1 X77.237 Y90.861 E.52497
G1 X76.818 Y90.861 E.01314
G1 X76.818 Y107.604 E.52497
G1 X76.399 Y107.604 E.01314
G1 X76.399 Y90.861 E.52497
G1 X75.98 Y90.861 E.01314
G1 X75.98 Y107.604 E.52497
G1 X75.561 Y107.604 E.01314
G1 X75.561 Y90.861 E.52497
G1 X75.142 Y90.861 E.01314
G1 X75.142 Y107.604 E.52497
G1 X74.723 Y107.604 E.01314
G1 X74.723 Y90.861 E.52497
G1 X74.304 Y90.861 E.01314
G1 X74.304 Y107.604 E.52497
G1 X73.885 Y107.604 E.01314
G1 X73.885 Y90.861 E.52497
G1 X73.466 Y90.861 E.01314
G1 X73.466 Y107.604 E.52497
G1 X73.047 Y107.604 E.01314
M73 Q1 S187
G1 X73.047 Y90.861 E.52497
G1 X72.628 Y90.861 E.01314
G1 X72.628 Y107.604 E.52497
G1 X72.209 Y107.604 E.01314
G1 X72.209 Y90.861 E.52497
G1 X71.79 Y90.861 E.01314
M73 P1 R181
G1 X71.79 Y107.604 E.52497
G1 X71.371 Y107.604 E.01314
G1 X71.371 Y90.861 E.52497
G1 X70.952 Y90.861 E.01314
G1 X70.952 Y107.604 E.52497
G1 X70.533 Y107.604 E.01314
G1 X70.533 Y90.861 E.52497
G1 X70.114 Y90.861 E.01314
G1 X70.114 Y107.604 E.52497
G1 X69.695 Y107.604 E.01314
G1 X69.695 Y90.861 E.52497
G1 X69.276 Y90.861 E.01314
G1 X69.276 Y107.604 E.52497
G1 X68.857 Y107.604 E.01314
G1 X68.857 Y90.861 E.52497
G1 X68.438 Y90.861 E.01314
G1 X68.438 Y107.604 E.52497
G1 X68.019 Y107.604 E.01314
G1 X68.019 Y90.861 E.52497
G1 X67.6 Y90.861 E.01314
G1 X67.6 Y107.604 E.52497
G1 X67.181 Y107.604 E.01314
G1 X67.181 Y90.861 E.52497
G1 X66.762 Y90.861 E.01314
G1 X66.762 Y107.604 E.52497
G1 X66.343 Y107.604 E.01314
G1 X66.343 Y90.861 E.52497
G1 X65.924 Y90.861 E.01314
G1 X65.924 Y107.604 E.52497
G1 X65.505 Y107.604 E.01314
G1 X65.505 Y90.861 E.52497
G1 X65.086 Y90.861 E.01314
G1 X65.086 Y107.604 E.52497
G1 X64.667 Y107.604 E.01314
G1 X64.667 Y90.861 E.52497
G1 X64.248 Y90.861 E.01314
G1 X64.248 Y107.604 E.52497
G1 X63.829 Y107.604 E.01314
G1 X63.829 Y90.861 E.52497
G1 X63.41 Y90.861 E.01314
G1 X63.41 Y107.604 E.52497
G1 X62.991 Y107.604 E.01314
G1 X62.991 Y90.861 E.52497
G1 X62.572 Y90.861 E.01314
G1 X62.572 Y107.604 E.52497
G1 X62.153 Y107.604 E.01314
G1 X62.153 Y90.861 E.52497
G1 X61.734 Y90.861 E.01314
G1 X61.734 Y107.604 E.52497
G1 X61.315 Y107.604 E.01314
G1 X61.315 Y90.861 E.52497
G1 X60.897 Y90.861 E.01311
G1 X60.897 Y107.604 E.52497
G1 X60.478 Y107.604 E.01314
G1 X60.478 Y90.861 E.52497
G1 X60.059 Y90.861 E.01314
G1 X60.059 Y107.604 E.52497
G1 X59.64 Y107.604 E.01314
G1 X59.64 Y90.861 E.52497
G1 X59.221 Y90.861 E.01314
G1 X59.221 Y107.604 E.52497
G1 X58.802 Y107.604 E.01314
G1 X58.802 Y90.861 E.52497
G1 X58.383 Y90.861 E.01314
G1 X58.383 Y107.604 E.52497
G1 X57.964 Y107.604 E.01314
G1 X57.964 Y90.691 E.5303
M204 S1000
;WIPE_START
G1 F8640
G1 X57.964 Y94.156 E-.8
;WIPE_END
G1 Z.6 F720
G1 X96.024 Y124.08 F10800
G1 Z.2 F720
G1 E.8 F2100
M204 S800
G1 F1200
G1 X96.366 Y124.156 E.01098
G1 X96.666 Y124.365 E.01146
G1 X96.861 Y124.675 E.01148
G1 X96.92 Y125.02 E.01097
G1 X96.839 Y125.377 E.01148
G1 X96.638 Y125.663 E.01096
G1 X96.344 Y125.853 E.01098
G1 X96 Y125.92 E.01099
G1 X95.656 Y125.853 E.01099
G1 X95.362 Y125.663 E.01098
G1 X95.161 Y125.377 E.01096
G1 X95.08 Y125.02 E.01148
G1 X95.139 Y124.675 E.01097
G1 X95.334 Y124.365 E.01148
G1 X95.619 Y124.162 E.01097
G1 X95.967 Y124.081 E.0112
M204 S1000
G1 X95.967 Y124.081 F10800
G1 X96.51 Y125.551
M204 S800
G1 F1200
G1 X96.51 Y124.722 E.02599
G1 X96.336 Y124.527 E.00819
G1 X96.091 Y124.427 E.0083
G1 X96.091 Y125.573 E.03593
G1 X95.672 Y125.479 E.01346
G1 X95.672 Y124.325 E.03618
M204 S1000
;WIPE_START
G1 F8640
G1 X95.672 Y125.479 E-.26646
G1 X96.091 Y125.573 E-.09915
G1 X96.091 Y124.427 E-.26461
G1 X96.336 Y124.527 E-.0611
G1 X96.51 Y124.722 E-.06035
G1 X96.51 Y124.931 E-.04833
;WIPE_END
G1 Z.6 F720
G1 X115.092 Y127.481 F10800
G1 Z.2 F720
G1 E.8 F2100
M204 S800
G1 F1200
G1 X115.76 Y127.563 E.0211
G1 X116.456 Y127.795 E.023
G1 X117.039 Y128.131 E.0211
G1 X117.548 Y128.571 E.0211
G1 X117.963 Y129.1 E.02108
G1 X118.293 Y129.756 E.02302
G1 X118.469 Y130.406 E.02111
G1 X118.519 Y131.077 E.0211
G1 X118.44 Y131.745 E.02109
G1 X118.236 Y132.386 E.02109
G1 X117.878 Y133.027 E.02302
G1 X117.44 Y133.537 E.02108
G1 X116.912 Y133.955 E.02111
G1 X116.315 Y134.265 E.02109
G1 X115.67 Y134.456 E.02109
G1 X114.939 Y134.519 E.023
G1 X114.27 Y134.443 E.02111
G1 X113.628 Y134.242 E.02109
G1 X113.036 Y133.921 E.02111
G1 X112.473 Y133.451 E.023
G1 X112.053 Y132.925 E.0211
G1 X111.741 Y132.329 E.02109
G1 X111.547 Y131.685 E.02109
G1 X111.48 Y130.954 E.02302
G1 X111.566 Y130.225 E.02302
G1 X111.777 Y129.586 E.0211
G1 X112.104 Y128.998 E.0211
G1 X112.538 Y128.484 E.02109
G1 X113.062 Y128.062 E.0211
G1 X113.713 Y127.724 E.023
G1 X114.36 Y127.539 E.0211
G1 X115.035 Y127.48 E.02124
M204 S1000
G1 X115.035 Y127.48 F10800
G1 X117.877 Y132.716
M204 S800
G1 F1200
G1 X117.877 Y129.645 E.09629
G1 X117.458 Y128.982 E.02459
G1 X117.458 Y133.018 E.12655
G1 X117.039 Y133.441 E.01867
G1 X117.039 Y128.559 E.15307
G1 X116.62 Y128.263 E.01608
G1 X116.62 Y133.737 E.17163
G1 X116.201 Y133.945 E.01467
G1 X116.201 Y128.055 E.18468
G1 X115.783 Y127.917 E.0138
G1 X115.783 Y134.083 E.19333
G1 X115.364 Y134.16 E.01336
G1 X115.364 Y127.84 E.19816
G1 X114.945 Y127.82 E.01315
G1 X114.945 Y134.18 E.19941
G1 X114.526 Y134.145 E.01318
G1 X114.526 Y127.855 E.19722
G1 X114.107 Y127.948 E.01346
G1 X114.107 Y134.052 E.19139
G1 X113.688 Y133.897 E.01401
G1 X113.688 Y128.103 E.18167
G1 X113.269 Y128.332 E.01497
G1 X113.269 Y133.668 E.16731
G1 X112.85 Y133.343 E.01663
G1 X112.85 Y128.657 E.14693
G1 X112.431 Y129.125 E.0197
G1 X112.431 Y132.875 E.11758
G1 X112.012 Y132.089 E.02793
G1 X112.012 Y129.485 E.08165
M204 S1000
;WIPE_START
G1 F8640
G1 X112.012 Y132.089 E-.60127
G1 X112.417 Y132.848 E-.19873
;WIPE_END
G1 Z.6 F720
G1 X115.092 Y95.481 F10800
G1 Z.2 F720
G1 E.8 F2100
M204 S800
G1 F1200
G1 X115.76 Y95.563 E.0211
G1 X116.4 Y95.77 E.02109
G1 X116.989 Y96.096 E.02111
G1 X117.548 Y96.571 E.023
G1 X117.963 Y97.1 E.02108
G1 X118.271 Y97.699 E.02112
G1 X118.459 Y98.345 E.0211
G1 X118.519 Y99.077 E.02303
G1 X118.44 Y99.745 E.02109
G1 X118.211 Y100.442 E.023
G1 X117.878 Y101.027 E.02111
G1 X117.44 Y101.537 E.02108
G1 X116.861 Y101.988 E.02301
G1 X116.258 Y102.287 E.0211
G1 X115.61 Y102.467 E.02109
G1 X114.939 Y102.519 E.0211
G1 X114.21 Y102.43 E.02303
G1 X113.572 Y102.217 E.02109
G1 X112.986 Y101.887 E.02109
G1 X112.473 Y101.451 E.02111
G1 X112.053 Y100.925 E.0211
G1 X111.741 Y100.329 E.02109
G1 X111.536 Y99.625 E.02299
G1 X111.48 Y98.954 E.02111
G1 X111.566 Y98.225 E.02302
G1 X111.776 Y97.586 E.02109
G1 X112.104 Y96.998 E.02111
G1 X112.538 Y96.484 E.02109
G1 X113.113 Y96.028 E.02301
G1 X113.713 Y95.724 E.02109
G1 X114.36 Y95.539 E.0211
G1 X115.035 Y95.48 E.02124
M204 S1000
G1 X115.035 Y95.48 F10800
G1 X117.877 Y100.716
M204 S800
G1 F1200
G1 X117.877 Y97.645 E.09629
G1 X117.458 Y96.982 E.02459
G1 X117.458 Y101.018 E.12655
G1 X117.039 Y101.441 E.01867
G1 X117.039 Y96.559 E.15307
G1 X116.62 Y96.263 E.01608
G1 X116.62 Y101.737 E.17163
G1 X116.201 Y101.945 E.01467
G1 X116.201 Y96.055 E.18468
G1 X115.783 Y95.917 E.0138
G1 X115.783 Y102.083 E.19333
G1 X115.364 Y102.16 E.01336
G1 X115.364 Y95.84 E.19816
