; generated by PrusaSlicer 2.6.0+win64 on 2024-01-25 at 08:07:19 UTC


;
;
; 

; external perimeters extrusion width = 0.45mm
; perimeters extrusion width = 0.45mm
; infill extrusion width = 0.45mm
; solid infill extrusion width = 0.45mm
; top infill extrusion width = 0.40mm
; support material extrusion width = 0.35mm
; first layer extrusion width = 0.42mm

M73 P0 R138
M73 Q0 S141
M201 X1000 Y1000 Z200 E5000 ; sets maximum accelerations, mm/sec^2
M203 X200 Y200 Z12 E120 ; sets maximum feedrates, mm / sec
M204 S1250 T1250 ; sets acceleration (S) and retract acceleration (R), mm/sec^2
M205 X8.00 Y8.00 Z0.40 E4.50 ; sets the jerk limits, mm/sec
M205 S0 T0 ; sets the minimum extruding and travel feed rate, mm/sec
;TYPE:Custom
M862.3 P "MK3S" ; printer model check
M862.1 P0.4 ; nozzle diameter check
M115 U3.12.2 ; tell printer latest fw version
G90 ; use absolute coordinates
M83 ; extruder relative mode
M104 S215 ; set extruder temp
M140 S60 ; set bed temp
M190 S60 ; wait for bed temp
M109 S215 ; wait for extruder temp
G28 W ; home all without mesh bed level
G80 ; mesh bed leveling

G1 Z0.2 F720
G1 Y-3 F1000 ; go outside print area
G92 E0
G1 X60 E9 F1000 ; intro line
G1 X100 E12.5 F1000 ; intro line

G92 E0
M221 S95

; Don't change E values below. Excessive value can damage the printer.

M907 E538 ; set extruder motor current
G21 ; set units to millimeters
G90 ; use absolute coordinates
M83 ; use relative distances for extrusion
M900 K0.05 ; Filament gcode LA 1.5
M900 K30 ; Filament gcode LA 1.0
M107
;LAYER_CHANGE
;Z:0.2
;HEIGHT:0.2
;BEFORE_LAYER_CHANGE
G92 E0.0
;0.2


G1 E-.8 F2100
G1 Z.4 F720
;AFTER_LAYER_CHANGE
;0.2
G1 X99.02 Y62.141 F10800
G1 Z.2 F720
G1 E.8 F2100
M204 S800
;TYPE:Skirt/Brim
;WIDTH:0.42
G1 F1200
G1 X99.777 Y61.005 E.0428
G1 X101.293 Y60.459 E.05052
G1 X130.251 Y60.459 E.90796
G1 X131.558 Y60.851 E.04278
G1 X132.409 Y61.841 E.04093
G1 X159.743 Y121.104 E2.04627
G1 X161.181 Y124.606 E.1187
G1 X162.174 Y127.642 E.10015
G1 X163.079 Y131.295 E.118
G1 X163.618 Y134.443 E.10014
G1 X163.981 Y138.189 E.118
G1 X164.057 Y140.718 E.07933
G1 X163.999 Y143.247 E.07932
G1 X163.551 Y144.536 E.04279
G1 X162.469 Y145.367 E.04278
G1 X161.624 Y145.522 E.02694
G1 X156.522 Y145.522 E.15997
G1 X155.455 Y145.269 E.03438
G1 X91.579 Y113.176 E2.24136
G1 X90.739 Y112.471 E.03438
G1 X86.413 Y106.656 E.22725
G1 X85.947 Y105.374 E.04277
G1 X86.047 Y104.542 E.02627
G1 X99.002 Y62.198 E1.38841
M204 S1000
; printing object 3_bottom_segment.stl id:0 copy 0
;WIPE_START
G1 F8640
M73 Q0 S140
G1 X99.777 Y61.005 E-.32849
G1 X101.293 Y60.459 E-.37206
G1 X101.724 Y60.459 E-.09945
;WIPE_END
G1 Z.6 F720
G1 X130.251 Y97.368 F10800
G1 Z.2 F720
G1 E.8 F2100
M204 S800
;TYPE:Support material
G1 F1200
G1 X128.395 Y96.825 E.06063
G1 X127.222 Y96.526 E.03795
G1 X126.55 Y96.375 E.0216
G1 X106.497 Y96.375 E.62875
G1 X105.252 Y96.648 E.03996
G1 X104.084 Y96.942 E.03776
G1 X102.927 Y97.266 E.03767
G1 X101.293 Y97.781 E.05372
G1 X101.293 Y62.836 E1.09568
G1 X130.251 Y62.836 E.90796
G1 X130.251 Y97.312 E1.08097
M204 S1000
M73 P0 R137
G1 X129.609 Y96.994 F10800
M204 S800
G1 F1200
G1 X129.609 Y63.176 E1.06034
G1 X129.19 Y63.176 E.01314
G1 X129.19 Y96.695 E1.05096
G1 X128.771 Y96.577 E.01365
G1 X128.771 Y63.176 E1.04726
G1 X128.352 Y63.176 E.01314
G1 X128.352 Y96.463 E1.04369
G1 X127.933 Y96.353 E.01358
G1 X127.933 Y63.176 E1.04024
G1 X127.514 Y63.176 E.01314
G1 X127.514 Y96.249 E1.03698
G1 X127.095 Y96.148 E.01351
G1 X127.095 Y63.176 E1.03381
G1 X126.676 Y63.176 E.01314
G1 X126.676 Y96.05 E1.03074
G1 X126.257 Y96.036 E.01314
G1 X126.257 Y63.176 E1.0303
G1 X125.838 Y63.176 E.01314
G1 X125.838 Y96.036 E1.0303
G1 X125.419 Y96.036 E.01314
G1 X125.419 Y63.176 E1.0303
G1 X125 Y63.176 E.01314
G1 X125 Y96.036 E1.0303
G1 X124.581 Y96.036 E.01314
G1 X124.581 Y63.176 E1.0303
G1 X124.162 Y63.176 E.01314
G1 X124.162 Y96.036 E1.0303
G1 X123.743 Y96.036 E.01314
G1 X123.743 Y63.176 E1.0303
G1 X123.324 Y63.176 E.01314
G1 X123.324 Y96.036 E1.0303
G1 X122.905 Y96.036 E.01314
G1 X122.905 Y63.176 E1.0303
G1 X122.486 Y63.176 E.01314
G1 X122.486 Y96.036 E1.0303
G1 X122.067 Y96.036 E.01314
G1 X122.067 Y63.176 E1.0303
G1 X121.648 Y63.176 E.01314
G1 X121.648 Y96.036 E1.0303
G1 X121.229 Y96.036 E.01314
G1 X121.229 Y63.176 E1.0303
G1 X120.81 Y63.176 E.01314
G1 X120.81 Y96.036 E1.0303
G1 X120.391 Y96.036 E.01314
G1 X120.391 Y63.176 E1.0303
G1 X119.972 Y63.176 E.01314
G1 X119.972 Y96.036 E1.0303
G1 X119.553 Y96.036 E.01314
G1 X119.553 Y63.176 E1.0303
G1 X119.134 Y63.176 E.01314
G1 X119.134 Y96.036 E1.0303
G1 X118.715 Y96.036 E.01314
G1 X118.715 Y63.176 E1.0303
G1 X118.296 Y63.176 E.01314
G1 X118.296 Y96.036 E1.0303
G1 X117.877 Y96.036 E.01314
G1 X117.877 Y63.176 E1.0303
G1 X117.458 Y63.176 E.01314
G1 X117.458 Y96.036 E1.0303
G1 X117.039 Y96.036 E.01314
G1 X117.039 Y63.176 E1.0303
G1 X116.62 Y63.176 E.01314
G1 X116.62 Y96.036 E1.0303
G1 X116.201 Y96.036 E.01314
M73 Q0 S139
G1 X116.201 Y63.176 E1.0303
G1 X115.783 Y63.176 E.01311
G1 X115.783 Y96.036 E1.0303
G1 X115.364 Y96.036 E.01314
M73 P1 R137
G1 X115.364 Y63.176 E1.0303
G1 X114.945 Y63.176 E.01314
M73 P1 R136
M73 Q1 S139
G1 X114.945 Y96.036 E1.0303
G1 X114.526 Y96.036 E.01314
G1 X114.526 Y63.176 E1.0303
G1 X114.107 Y63.176 E.01314
G1 X114.107 Y96.036 E1.0303
G1 X113.688 Y96.036 E.01314
G1 X113.688 Y63.176 E1.0303
G1 X113.269 Y63.176 E.01314
G1 X113.269 Y96.036 E1.0303
G1 X112.85 Y96.036 E.01314
G1 X112.85 Y63.176 E1.0303
G1 X112.431 Y63.176 E.01314
G1 X112.431 Y96.036 E1.0303
G1 X112.012 Y96.036 E.01314
G1 X112.012 Y63.176 E1.0303
G1 X111.593 Y63.176 E.01314
G1 X111.593 Y96.036 E1.0303
G1 X111.174 Y96.036 E.01314
G1 X111.174 Y63.176 E1.0303
G1 X110.755 Y63.176 E.01314
G1 X110.755 Y96.036 E1.0303
G1 X110.336 Y96.036 E.01314
G1 X110.336 Y63.176 E1.0303
G1 X109.917 Y63.176 E.01314
G1 X109.917 Y96.036 E1.0303
G1 X109.498 Y96.036 E.01314
G1 X109.498 Y63.176 E1.0303
G1 X109.079 Y63.176 E.01314
G1 X109.079 Y96.036 E1.0303
G1 X108.66 Y96.036 E.01314
G1 X108.66 Y63.176 E1.0303
G1 X108.241 Y63.176 E.01314
G1 X108.241 Y96.036 E1.0303
G1 X107.822 Y96.036 E.01314
G1 X107.822 Y63.176 E1.0303
G1 X107.403 Y63.176 E.01314
G1 X107.403 Y96.036 E1.0303
G1 X106.984 Y96.036 E.01314
G1 X106.984 Y63.176 E1.0303
G1 X106.565 Y63.176 E.01314
G1 X106.565 Y96.036 E1.0303
G1 X106.391 Y96.045 E.00546
G1 X106.146 Y96.098 E.00786
G1 X106.146 Y63.176 E1.03225
G1 X105.727 Y63.176 E.01314
G1 X105.727 Y96.19 E1.03513
G1 X105.308 Y96.287 E.01348
G1 X105.308 Y63.176 E1.03817
G1 X104.889 Y63.176 E.01314
G1 X104.889 Y96.387 E1.04131
G1 X104.47 Y96.491 E.01354
G1 X104.47 Y63.176 E1.04457
G1 X104.051 Y63.176 E.01314
G1 X104.051 Y96.6 E1.04799
G1 X103.632 Y96.713 E.01361
G1 X103.632 Y63.176 E1.05153
G1 X103.213 Y63.176 E.01314
G1 X103.213 Y96.831 E1.05523
G1 X102.794 Y96.951 E.01367
G1 X102.794 Y63.176 E1.05899
G1 X102.375 Y63.176 E.01314
G1 X102.375 Y97.078 E1.06297
G1 X101.956 Y97.208 E.01376
G1 X101.956 Y63.006 E1.07238
M204 S1000
;WIPE_START
G1 F8640
M73 Q1 S138
G1 X101.956 Y66.471 E-.8
;WIPE_END
G1 Z.6 F720
G1 X157.299 Y142.358 F10800
G1 Z.2 F720
G1 E.8 F2100
M204 S800
;TYPE:Perimeter
;WIDTH:0.419999
G1 F1200
G1 X157.248 Y140.901 E.04571
G1 X157.118 Y139.198 E.05355
G1 X156.919 Y137.519 E.05301
G1 X156.652 Y135.854 E.05287
G1 X156.316 Y134.199 E.05295
G1 X155.912 Y132.559 E.05296
G1 X155.44 Y130.937 E.05297
G1 X154.887 Y129.295 E.05433
G1 X154.802 Y129.135 E.00568
G1 X154.685 Y129.019 E.00517
G1 X118.165 Y102.486 E1.41536
G1 X118.015 Y102.408 E.0053
G1 X117.839 Y102.378 E.0056
G1 X116.086 Y102.36 E.05497
G1 X114.377 Y102.414 E.05361
G1 X112.673 Y102.54 E.05357
G1 X110.975 Y102.737 E.0536
G1 X109.287 Y103.005 E.05359
G1 X107.611 Y103.343 E.05361
G1 X105.929 Y103.758 E.05432
M73 P1 R135
G1 X104.394 Y104.204 E.05012
G1 X102.668 Y104.783 E.05708
G1 X101.073 Y105.397 E.05359
G1 X99.508 Y106.076 E.05349
G1 X97.967 Y106.823 E.05369
G1 X96.462 Y107.632 E.05357
G1 X94.991 Y108.504 E.05362
G1 X93.579 Y109.423 E.05282
G1 X92.817 Y109.963 E.02928
G1 X89.422 Y105.4 E.17833
G1 X90.21 Y104.819 E.0307
G1 X91.171 Y104.157 E.03659
G1 X92.15 Y103.52 E.03662
G1 X93.145 Y102.91 E.03659
G1 X94.156 Y102.325 E.03662
G1 X95.183 Y101.768 E.03663
G1 X96.224 Y101.237 E.03664
G1 X97.278 Y100.735 E.0366
G1 X98.345 Y100.261 E.03661
G1 X99.424 Y99.814 E.03662
G1 X100.515 Y99.397 E.03662
G1 X101.617 Y99.009 E.03663
G1 X102.728 Y98.649 E.03662
G1 X103.848 Y98.32 E.0366
G1 X104.975 Y98.02 E.03657
G1 X106.611 Y97.642 E.05265
G1 X126.429 Y97.642 E.62138
G1 X127.496 Y97.9 E.03442
G1 X128.634 Y98.206 E.03695
G1 X130.331 Y98.725 E.05564
G1 X132.005 Y99.31 E.0556
G1 X133.104 Y99.736 E.03696
G1 X134.192 Y100.191 E.03698
G1 X135.804 Y100.93 E.0556
G1 X137.384 Y101.731 E.05554
G1 X138.932 Y102.596 E.0556
G1 X139.941 Y103.205 E.03695
G1 X140.934 Y103.841 E.03697
G1 X142.397 Y104.847 E.05567
G1 X143.346 Y105.547 E.03697
G1 X144.735 Y106.645 E.05551
G1 X145.635 Y107.407 E.03697
G1 X146.95 Y108.598 E.05563
G1 X148.216 Y109.839 E.05558
G1 X149.03 Y110.692 E.03697
G1 X149.82 Y111.566 E.03694
G1 X150.966 Y112.921 E.05564
G1 X152.055 Y114.318 E.05554
G1 X153.088 Y115.757 E.05554
G1 X154.062 Y117.237 E.05555
G1 X154.977 Y118.756 E.0556
G1 X155.552 Y119.785 E.03696
G1 X156.099 Y120.83 E.03698
G1 X156.869 Y122.429 E.05565
G1 X157.346 Y123.508 E.03699
G1 X157.792 Y124.596 E.03687
G1 X158.411 Y126.261 E.0557
G1 X158.962 Y127.944 E.05553
G1 X159.446 Y129.65 E.0556
G1 X159.729 Y130.795 E.03698
G1 X159.982 Y131.946 E.03695
G1 X160.305 Y133.69 E.05561
G1 X160.557 Y135.443 E.05553
G1 X160.74 Y137.205 E.05554
G1 X160.852 Y138.973 E.05555
G1 X160.893 Y140.772 E.05642
G1 X160.866 Y142.358 E.04974
G1 X157.359 Y142.358 E.10996
M204 S1000
G1 X156.928 Y142.735 F10800
M204 S800
;TYPE:External perimeter
G1 F1200
G1 X156.871 Y140.917 E.05703
G1 X156.744 Y139.25 E.05242
G1 X156.547 Y137.579 E.05276
G1 X156.283 Y135.929 E.05239
G1 X155.95 Y134.289 E.05247
G1 X155.55 Y132.664 E.05247
G1 X155.082 Y131.058 E.05245
G1 X154.529 Y129.416 E.05433
G1 X154.462 Y129.324 E.00357
G1 X117.944 Y102.791 E1.41531
G1 X117.835 Y102.755 E.0036
G1 X116.082 Y102.737 E.05497
G1 X114.389 Y102.791 E.05311
G1 X112.693 Y102.917 E.05332
G1 X111.018 Y103.111 E.05287
G1 X109.346 Y103.377 E.05308
G1 X107.681 Y103.714 E.05326
G1 X106.034 Y104.12 E.05319
G1 X104.411 Y104.593 E.053
G1 X102.804 Y105.135 E.05317
G1 X101.226 Y105.742 E.05301
G1 X99.671 Y106.416 E.05314
G1 X98.146 Y107.155 E.05313
G1 X96.656 Y107.956 E.05304
G1 X95.197 Y108.82 E.05317
G1 X93.784 Y109.739 E.05285
G1 X92.734 Y110.484 E.04037
G1 X88.893 Y105.321 E.20177
G1 X89.991 Y104.512 E.04276
G1 X90.961 Y103.844 E.03693
G1 X91.948 Y103.202 E.03692
G1 X92.952 Y102.586 E.03693
G1 X93.972 Y101.996 E.03695
G1 X95.007 Y101.434 E.03693
G1 X96.057 Y100.899 E.03695
G1 X97.12 Y100.393 E.03691
G1 X98.196 Y99.914 E.03693
G1 X99.285 Y99.464 E.03695
G1 X100.385 Y99.043 E.03693
G1 X101.496 Y98.651 E.03694
G1 X102.617 Y98.289 E.03694
G1 X103.747 Y97.956 E.03694
G1 X104.884 Y97.654 E.03689
G1 X106.568 Y97.265 E.05419
G1 X126.474 Y97.265 E.62414
G1 X127.589 Y97.534 E.03596
G1 X128.739 Y97.844 E.03734
G1 X130.448 Y98.366 E.05603
G1 X132.135 Y98.956 E.05604
G1 X133.245 Y99.386 E.03732
G1 X134.343 Y99.846 E.03733
G1 X135.968 Y100.59 E.05604
G1 X137.561 Y101.398 E.056
G1 X139.121 Y102.27 E.05604
G1 X140.14 Y102.885 E.03732
G1 X141.143 Y103.526 E.03732
G1 X142.616 Y104.54 E.05607
G1 X143.574 Y105.247 E.03733
G1 X144.975 Y106.355 E.056
G1 X145.884 Y107.124 E.03733
G1 X147.209 Y108.323 E.05603
G1 X148.485 Y109.574 E.05603
G1 X149.306 Y110.436 E.03732
G1 X150.104 Y111.318 E.03729
G1 X151.259 Y112.683 E.05606
G1 X152.357 Y114.092 E.05601
G1 X153.398 Y115.544 E.05602
G1 X154.381 Y117.036 E.05602
G1 X155.303 Y118.567 E.05604
G1 X155.883 Y119.606 E.03731
G1 X156.436 Y120.66 E.03732
G1 X157.212 Y122.271 E.05607
G1 X157.693 Y123.36 E.03733
G1 X158.144 Y124.459 E.03725
G1 X158.767 Y126.136 E.05609
G1 X159.323 Y127.834 E.05602
G1 X159.81 Y129.554 E.05605
G1 X160.096 Y130.709 E.03731
G1 X160.352 Y131.872 E.03734
G1 X160.677 Y133.629 E.05602
G1 X160.932 Y135.397 E.05601
G1 X161.116 Y137.174 E.05601
G1 X161.229 Y138.957 E.05602
G1 X161.27 Y140.776 E.05705
G1 X161.258 Y141.934 E.03631
G1 X161.23 Y142.735 E.02513
G1 X156.988 Y142.735 E.133
M204 S1000
G1 X157.099 Y142.373 F10800
;WIPE_START
G1 F8640
G1 X156.871 Y140.917 E-.42065
G1 X156.746 Y139.279 E-.37935
;WIPE_END
G1 Z.6 F720
G1 X144.924 Y107.028 F10800
G1 Z.2 F720
G1 E.8 F2100
M204 S800
;TYPE:Solid infill
;WIDTH:0.42097
G1 F1200
G1 X147.99 Y110.093 E.13628
G1 X148.781 Y110.923 E.03604
G1 X149.565 Y111.79 E.03674
G1 X150.703 Y113.135 E.05538
G1 X151.432 Y114.071 E.03729
G1 X143.323 Y105.962 E.36049
G1 X142.2 Y105.123 E.04407
G1 X141.399 Y104.572 E.03056
G1 X152.868 Y116.042 E.50989
G1 X153.872 Y117.58 E.05774
G1 X139.827 Y103.534 E.6244
G1 X138.503 Y102.745 E.04845
G1 X154.683 Y118.926 E.71932
G1 X155.345 Y120.122 E.04297
G1 X137.291 Y102.068 E.8026
G1 X136.199 Y101.511 E.03853
M73 P2 R135
G1 X155.912 Y121.223 E.87633
G1 X156.409 Y122.256 E.03604
G1 X135.163 Y101.01 E.94451
G1 X134.176 Y100.558 E.03413
M73 Q2 S138
G1 X156.855 Y123.236 E1.00819
G1 X157.248 Y124.164 E.03168
G1 X133.249 Y100.165 E1.06689
G1 X132.362 Y99.813 E.03
G1 X157.599 Y125.049 E1.12191
G1 X157.915 Y125.9 E.02854
G1 X131.512 Y99.497 E1.17377
G1 X130.69 Y99.21 E.02737
G1 X158.207 Y126.726 E1.22327
G1 X158.467 Y127.521 E.02629
G1 X129.891 Y98.945 E1.27037
G1 X129.121 Y98.71 E.02531
G1 X158.71 Y128.299 E1.3154
G1 X158.921 Y129.045 E.02437
G1 X128.361 Y98.484 E1.35859
G1 X127.629 Y98.287 E.02383
G1 X159.13 Y129.788 E1.4004
G1 X159.306 Y130.499 E.02302
G1 X126.916 Y98.109 E1.43992
G1 X126.389 Y97.982 E.01704
G1 X126.254 Y97.982 E.00424
G1 X159.47 Y131.198 E1.47664
G1 X159.621 Y131.883 E.02205
G1 X125.72 Y97.982 E1.5071
G1 X125.185 Y97.982 E.01682
G1 X159.748 Y132.544 E1.5365
G1 X159.869 Y133.201 E.021
G1 X124.65 Y97.982 E1.56569
G1 X124.116 Y97.982 E.01679
M73 Q2 S137
G1 X159.985 Y133.851 E1.59458
G1 X160.075 Y134.476 E.01985
G1 X155.422 Y129.823 E.20685
G1 X155.693 Y130.628 E.0267
G1 X160.165 Y135.101 E.19883
G1 X160.244 Y135.714 E.01943
G1 X155.927 Y131.397 E.19192
G1 X156.146 Y132.151 E.02468
G1 X160.306 Y136.311 E.18494
G1 X160.368 Y136.907 E.01884
G1 X156.34 Y132.879 E.17907
G1 X156.515 Y133.589 E.02299
M73 P2 R134
G1 X160.418 Y137.492 E.17351
G1 X160.454 Y138.063 E.01799
G1 X156.681 Y134.289 E.16775
G1 X156.817 Y134.96 E.02152
G1 X160.49 Y138.633 E.16329
G1 X160.518 Y139.195 E.01769
G1 X156.953 Y135.631 E.15846
G1 X157.064 Y136.276 E.02057
G1 X160.53 Y139.743 E.15411
G1 X160.543 Y140.29 E.0172
G1 X157.166 Y136.913 E.15013
G1 X157.264 Y137.546 E.02014
G1 X160.552 Y140.834 E.14617
G1 X160.545 Y141.361 E.01657
G1 X157.336 Y138.152 E.14266
G1 X157.407 Y138.758 E.01918
G1 X160.537 Y141.888 E.13915
G1 X160.535 Y142.018 E.00409
G1 X160.133 Y142.018 E.01264
G1 X157.471 Y139.356 E.11834
G1 X157.515 Y139.935 E.01825
G1 X159.598 Y142.018 E.0926
G1 X159.063 Y142.018 E.01682
G1 X157.559 Y140.514 E.06686
G1 X157.594 Y141.083 E.01792
G1 X158.529 Y142.018 E.04157
G1 X157.994 Y142.018 E.01682
G1 X157.439 Y141.463 E.02467
M204 S1000
;WIPE_START
G1 F8640
G1 X157.994 Y142.018 E-.18123
G1 X158.529 Y142.018 E-.12353
G1 X157.594 Y141.083 E-.30532
G1 X157.559 Y140.514 E-.13163
G1 X157.738 Y140.693 E-.05829
;WIPE_END
G1 Z.6 F720
G1 X153.676 Y128.077 F10800
G1 Z.2 F720
G1 E.8 F2100
M204 S800
G1 F1200
G1 X123.581 Y97.982 E1.3379
G1 X123.046 Y97.982 E.01682
G1 X150.954 Y125.889 E1.24065
G1 X148.999 Y124.469 E.07596
G1 X122.512 Y97.982 E1.1775
G1 X121.977 Y97.982 E.01682
G1 X147.044 Y123.048 E1.11435
G1 X145.089 Y121.628 E.07596
G1 X121.442 Y97.982 E1.05122
G1 X120.908 Y97.982 E.01679
G1 X143.134 Y120.207 E.98805
G1 X141.178 Y118.787 E.07598
G1 X120.373 Y97.982 E.9249
G1 X119.839 Y97.982 E.01679
G1 X139.223 Y117.366 E.86173
G1 X137.268 Y115.946 E.07596
G1 X119.304 Y97.982 E.7986
G1 X118.769 Y97.982 E.01682
G1 X135.313 Y114.525 E.73545
G1 X133.358 Y113.105 E.07596
G1 X118.235 Y97.982 E.6723
G1 X117.7 Y97.982 E.01682
G1 X131.403 Y111.685 E.60918
G1 X129.448 Y110.264 E.07597
G1 X117.165 Y97.982 E.54603
G1 X116.631 Y97.982 E.01679
