; generated by PrusaSlicer 2.7.3+win64 on 2024-04-24 at 17:03:35 UTC


;
;
; 

; external perimeters extrusion width = 0.45mm
; perimeters extrusion width = 0.45mm
; infill extrusion width = 0.45mm
; solid infill extrusion width = 0.45mm
; top infill extrusion width = 0.40mm
; support material extrusion width = 0.35mm
; first layer extrusion width = 0.42mm

; external perimeters extrusion width = 0.45mm
; perimeters extrusion width = 0.45mm
; infill extrusion width = 0.45mm
; solid infill extrusion width = 0.45mm
; top infill extrusion width = 0.40mm
; support material extrusion width = 0.35mm
; first layer extrusion width = 0.42mm

M73 P0 R31
M73 Q0 S31
M201 X1000 Y1000 Z200 E5000 ; sets maximum accelerations, mm/sec^2
M203 X200 Y200 Z12 E120 ; sets maximum feedrates, mm / sec
M204 S1250 T1250 ; sets acceleration (S) and retract acceleration (R), mm/sec^2
M205 X8.00 Y8.00 Z0.40 E4.50 ; sets the jerk limits, mm/sec
M205 S0 T0 ; sets the minimum extruding and travel feed rate, mm/sec

; printing object 3_sensor_helper.stl id:0 copy 0
; stop printing object 3_sensor_helper.stl id:0 copy 0
; printing object 3_sensor_helper.stl id:1 copy 0
; stop printing object 3_sensor_helper.stl id:1 copy 0

;TYPE:Custom
M862.3 P "MK3S" ; printer model check
M862.1 P0.4 ; nozzle diameter check
M115 U3.12.2 ; tell printer latest fw version
G90 ; use absolute coordinates
M83 ; extruder relative mode
M104 S215 ; set extruder temp
M140 S60 ; set bed temp
M190 S60 ; wait for bed temp
M109 S215 ; wait for extruder temp
G28 W ; home all without mesh bed level
G80 ; mesh bed leveling

G1 Z0.2 F720
G1 Y-3 F1000 ; go outside print area
G92 E0
G1 X60 E9 F1000 ; intro line
G1 X100 E12.5 F1000 ; intro line

G92 E0
M221 S95

; Don't change E values below. Excessive value can damage the printer.

M907 E538 ; set extruder motor current
G21 ; set units to millimeters
G90 ; use absolute coordinates
M83 ; use relative distances for extrusion
M900 K0.05 ; Filament gcode LA 1.5
M900 K30 ; Filament gcode LA 1.0
M107
;LAYER_CHANGE
;Z:0.2
;HEIGHT:0.2
G1 E-.8 F2100
G1 Z.6 F720
G1 X115.515 Y86.193 F10800
G1 Z.2 F720
G1 E.8 F2100
M204 S800
;TYPE:Skirt/Brim
;WIDTH:0.42
G1 F1200
G1 X116.56 Y85.317 E.04275
G1 X117.5 Y85.123 E.03009
G1 X132.741 Y85.135 E.47787
G1 X154.36 Y87.336 E.68135
G1 X155.621 Y87.858 E.04279
G1 X156.387 Y88.988 E.0428
G1 X156.496 Y89.701 E.02262
G1 X156.496 Y124.701 E1.0974
G1 X156.105 Y126.008 E.04277
G1 X155.059 Y126.885 E.0428
G1 X154.119 Y127.078 E.03009
G1 X138.879 Y127.066 E.47784
G1 X117.259 Y124.865 E.68138
G1 X115.999 Y124.343 E.04276
G1 X115.233 Y123.214 E.04278
G1 X115.123 Y122.5 E.02265
G1 X115.123 Y87.5 E1.0974
G1 X115.497 Y86.25 E.04091
M204 S1000
;WIPE_START
G1 F8640
G1 X115.515 Y86.193 E-.0138
G1 X116.56 Y85.317 E-.31486
G1 X117.5 Y85.123 E-.22162
G1 X118.581 Y85.124 E-.24972
;WIPE_END
G1 Z.6 F720
; printing object 3_sensor_helper.stl id:0 copy 0
G1 X131.713 Y121.713 F10800
G1 Z.2 F720
G1 E.8 F2100
M204 S800
;TYPE:Perimeter
;WIDTH:0.419999
G1 F1200
G1 X118.287 Y121.713 E.42096
G1 X118.287 Y88.287 E1.04805
G1 X131.713 Y88.287 E.42096
G1 X131.713 Y95 E.21048
M73 Q1 S31
G1 X131.713 Y121.653 E.83568
M73 P1 R31
M204 S1000
G1 X132.09 Y122.09 F10800
M204 S800
;TYPE:External perimeter
G1 F1200
G1 X117.91 Y122.09 E.4446
G1 X117.91 Y87.91 E1.07169
G1 X132.09 Y87.91 E.4446
M73 P1 R30
M73 Q1 S30
G1 X132.09 Y95 E.2223
G1 X132.09 Y122.03 E.84751
M204 S1000
;WIPE_START
G1 F8640
G1 X132.09 Y122.09 E-.01385
G1 X128.685 Y122.09 E-.78615
;WIPE_END
G1 Z.6 F720
G1 X131.543 Y89.226 F10800
G1 Z.2 F720
G1 E.8 F2100
M204 S800
;TYPE:Solid infill
;WIDTH:0.423181
G1 F1200
G1 X130.944 Y88.626 E.02681
G1 X130.406 Y88.626 E.01701
G1 X131.374 Y89.594 E.04328
G1 X131.374 Y90.132 E.01701
G1 X129.868 Y88.626 E.06734
G1 X129.331 Y88.626 E.01698
G1 X131.374 Y90.669 E.09135
G1 X131.374 Y91.207 E.01701
G1 X128.793 Y88.626 E.11541
G1 X128.255 Y88.626 E.01701
G1 X131.374 Y91.745 E.13947
G1 X131.374 Y92.283 E.01701
G1 X127.717 Y88.626 E.16353
G1 X127.18 Y88.626 E.01698
G1 X131.374 Y92.82 E.18754
G1 X131.374 Y93.358 E.01701
G1 X126.642 Y88.626 E.2116
G1 X126.104 Y88.626 E.01701
G1 X131.374 Y93.896 E.23565
G1 X131.374 Y94.434 E.01701
G1 X125.566 Y88.626 E.25971
G1 X125.028 Y88.626 E.01701
G1 X131.374 Y94.972 E.28377
G1 X131.374 Y95.509 E.01698
G1 X124.491 Y88.626 E.30778
G1 X123.953 Y88.626 E.01701
G1 X131.374 Y96.047 E.33184
G1 X131.374 Y96.585 E.01701
G1 X123.415 Y88.626 E.35589
G1 X122.877 Y88.626 E.01701
G1 X131.374 Y97.123 E.37995
G1 X131.374 Y97.66 E.01698
G1 X122.34 Y88.626 E.40396
G1 X121.802 Y88.626 E.01701
G1 X131.374 Y98.198 E.42802
G1 X131.374 Y98.736 E.01701
G1 X121.264 Y88.626 E.45208
G1 X120.726 Y88.626 E.01701
G1 X131.374 Y99.274 E.47613
G1 X131.374 Y99.812 E.01701
G1 X120.188 Y88.626 E.50019
G1 X119.651 Y88.626 E.01698
G1 X131.374 Y100.349 E.5242
G1 X131.374 Y100.887 E.01701
G1 X119.113 Y88.626 E.54826
G1 X118.626 Y88.626 E.0154
M73 Q2 S30
G1 X118.626 Y88.678 E.00164
G1 X131.374 Y101.425 E.57001
G1 X131.374 Y101.963 E.01701
M73 P2 R30
G1 X118.626 Y89.215 E.57004
G1 X118.626 Y89.753 E.01701
G1 X131.374 Y102.5 E.57001
G1 X131.374 Y103.038 E.01701
G1 X118.626 Y90.291 E.57001
G1 X118.626 Y90.829 E.01701
G1 X131.374 Y103.576 E.57001
G1 X131.374 Y104.114 E.01701
G1 X118.626 Y91.367 E.57001
G1 X118.626 Y91.904 E.01698
G1 X131.374 Y104.651 E.57001
G1 X131.374 Y105.189 E.01701
G1 X118.626 Y92.442 E.57001
G1 X118.626 Y92.98 E.01701
G1 X131.374 Y105.727 E.57001
G1 X131.374 Y106.265 E.01701
G1 X118.626 Y93.518 E.57001
G1 X118.626 Y94.055 E.01698
G1 X131.374 Y106.803 E.57004
G1 X131.374 Y107.34 E.01698
G1 X118.626 Y94.593 E.57001
G1 X118.626 Y95.131 E.01701
G1 X131.374 Y107.878 E.57001
G1 X131.374 Y108.416 E.01701
G1 X118.626 Y95.669 E.57001
G1 X118.626 Y96.206 E.01698
G1 X131.374 Y108.954 E.57004
G1 X131.374 Y109.491 E.01698
G1 X118.626 Y96.744 E.57001
G1 X118.626 Y97.282 E.01701
G1 X131.374 Y110.029 E.57001
G1 X131.374 Y110.567 E.01701
G1 X118.626 Y97.82 E.57001
G1 X118.626 Y98.358 E.01701
G1 X131.374 Y111.105 E.57001
G1 X131.374 Y111.642 E.01698
G1 X118.626 Y98.895 E.57001
G1 X118.626 Y99.433 E.01701
M73 Q3 S30
G1 X131.374 Y112.18 E.57001
G1 X131.374 Y112.718 E.01701
M73 P3 R30
G1 X118.626 Y99.971 E.57001
G1 X118.626 Y100.509 E.01701
G1 X131.374 Y113.256 E.57001
G1 X131.374 Y113.794 E.01701
G1 X118.626 Y101.046 E.57004
G1 X118.626 Y101.584 E.01701
G1 X131.374 Y114.331 E.57001
G1 X131.374 Y114.869 E.01701
G1 X118.626 Y102.122 E.57001
G1 X118.626 Y102.66 E.01701
G1 X131.374 Y115.407 E.57001
G1 X131.374 Y115.945 E.01701
G1 X118.626 Y103.198 E.57001
G1 X118.626 Y103.735 E.01698
G1 X131.374 Y116.482 E.57001
G1 X131.374 Y117.02 E.01701
G1 X118.626 Y104.273 E.57001
G1 X118.626 Y104.811 E.01701
G1 X131.374 Y117.558 E.57001
G1 X131.374 Y118.096 E.01701
G1 X118.626 Y105.349 E.57001
G1 X118.626 Y105.886 E.01698
G1 X131.374 Y118.633 E.57001
G1 X131.374 Y119.171 E.01701
G1 X118.626 Y106.424 E.57001
G1 X118.626 Y106.962 E.01701
G1 X131.374 Y119.709 E.57001
G1 X131.374 Y120.247 E.01701
G1 X118.626 Y107.5 E.57001
G1 X118.626 Y108.037 E.01698
G1 X131.374 Y120.785 E.57004
G1 X131.374 Y121.322 E.01698
G1 X118.626 Y108.575 E.57001
G1 X118.626 Y109.113 E.01701
G1 X130.887 Y121.374 E.54826
G1 X130.349 Y121.374 E.01701
G1 X118.626 Y109.651 E.5242
G1 X118.626 Y110.189 E.01701
M73 Q4 S30
G1 X129.811 Y121.374 E.50015
G1 X129.274 Y121.374 E.01698
M73 P4 R30
G1 X118.626 Y110.726 E.47613
G1 X118.626 Y111.264 E.01701
G1 X128.736 Y121.374 E.45208
G1 X128.198 Y121.374 E.01701
G1 X118.626 Y111.802 E.42802
G1 X118.626 Y112.34 E.01701
G1 X127.66 Y121.374 E.40396
G1 X127.123 Y121.374 E.01698
G1 X118.626 Y112.877 E.37995
G1 X118.626 Y113.415 E.01701
G1 X126.585 Y121.374 E.35589
G1 X126.047 Y121.374 E.01701
G1 X118.626 Y113.953 E.33184
G1 X118.626 Y114.491 E.01701
G1 X125.509 Y121.374 E.30778
G1 X124.972 Y121.374 E.01698
G1 X118.626 Y115.028 E.28377
G1 X118.626 Y115.566 E.01701
M73 P4 R29
G1 X124.434 Y121.374 E.25971
G1 X123.896 Y121.374 E.01701
G1 X118.626 Y116.104 E.23565
G1 X118.626 Y116.642 E.01701
M73 Q4 S29
G1 X123.358 Y121.374 E.2116
G1 X122.82 Y121.374 E.01701
G1 X118.626 Y117.18 E.18754
G1 X118.626 Y117.717 E.01698
G1 X122.283 Y121.374 E.16353
G1 X121.745 Y121.374 E.01701
G1 X118.626 Y118.255 E.13947
G1 X118.626 Y118.793 E.01701
G1 X121.207 Y121.374 E.11541
G1 X120.669 Y121.374 E.01701
G1 X118.626 Y119.331 E.09135
G1 X118.626 Y119.868 E.01698
G1 X120.132 Y121.374 E.06734
G1 X119.594 Y121.374 E.01701
G1 X118.626 Y120.406 E.04328
G1 X118.626 Y120.944 E.01701
G1 X119.226 Y121.543 E.02681
M204 S1000
;WIPE_START
G1 F8640
G1 X118.626 Y120.944 E-.19576
G1 X118.626 Y120.406 E-.12423
G1 X119.594 Y121.374 E-.3161
G1 X120.132 Y121.374 E-.12423
G1 X120.011 Y121.253 E-.03968
;WIPE_END
G1 Z.6 F720
; stop printing object 3_sensor_helper.stl id:0 copy 0
; printing object 3_sensor_helper.stl id:1 copy 0
G1 X153.332 Y123.914 F10800
G1 Z.2 F720
G1 E.8 F2100
M204 S800
;TYPE:Perimeter
;WIDTH:0.419999
G1 F1200
G1 X139.906 Y123.914 E.42096
G1 X139.906 Y90.488 E1.04805
G1 X153.332 Y90.488 E.42096
G1 X153.332 Y97.201 E.21048
G1 X153.332 Y123.854 E.83568
M204 S1000
G1 X153.332 Y123.854 F10800
G1 X153.709 Y124.291
M204 S800
;TYPE:External perimeter
G1 F1200
G1 X139.529 Y124.291 E.4446
G1 X139.529 Y90.111 E1.07169
G1 X153.709 Y90.111 E.4446
G1 X153.709 Y97.201 E.2223
G1 X153.709 Y124.231 E.84751
M204 S1000
;WIPE_START
G1 F8640
M73 P5 R29
M73 Q5 S29
G1 X153.709 Y124.291 E-.01385
G1 X150.304 Y124.291 E-.78615
;WIPE_END
G1 Z.6 F720
G1 X153.163 Y91.427 F10800
G1 Z.2 F720
G1 E.8 F2100
M204 S800
;TYPE:Solid infill
;WIDTH:0.423181
G1 F1200
G1 X152.563 Y90.828 E.02681
G1 X152.025 Y90.828 E.01701
G1 X152.993 Y91.795 E.04326
G1 X152.993 Y92.333 E.01701
G1 X151.488 Y90.828 E.0673
G1 X150.95 Y90.828 E.01701
G1 X152.993 Y92.871 E.09135
G1 X152.993 Y93.408 E.01698
G1 X150.412 Y90.828 E.11539
G1 X149.874 Y90.828 E.01701
G1 X152.993 Y93.946 E.13945
G1 X152.993 Y94.484 E.01701
G1 X149.337 Y90.828 E.16348
G1 X148.799 Y90.828 E.01701
G1 X152.993 Y95.022 E.18754
G1 X152.993 Y95.56 E.01701
G1 X148.261 Y90.828 E.2116
G1 X147.723 Y90.828 E.01701
G1 X152.993 Y96.097 E.23563
G1 X152.993 Y96.635 E.01701
G1 X147.186 Y90.828 E.25966
G1 X146.648 Y90.828 E.01701
G1 X152.993 Y97.173 E.28372
G1 X152.993 Y97.711 E.01701
G1 X146.11 Y90.828 E.30778
G1 X145.572 Y90.828 E.01701
G1 X152.993 Y98.248 E.33181
G1 X152.993 Y98.786 E.01701
G1 X145.034 Y90.828 E.35587
G1 X144.497 Y90.828 E.01698
G1 X152.993 Y99.324 E.37991
G1 X152.993 Y99.862 E.01701
G1 X143.959 Y90.828 E.40396
G1 X143.421 Y90.828 E.01701
G1 X152.993 Y100.399 E.428
G1 X152.993 Y100.937 E.01701
G1 X142.883 Y90.828 E.45205
G1 X142.346 Y90.828 E.01698
G1 X152.993 Y101.475 E.47609
G1 X152.993 Y102.013 E.01701
G1 X141.808 Y90.828 E.50015
G1 X141.27 Y90.828 E.01701
G1 X152.993 Y102.551 E.5242
G1 X152.993 Y103.088 E.01698
G1 X140.732 Y90.828 E.54824
G1 X140.246 Y90.828 E.01537
G1 X140.246 Y90.879 E.00161
G1 X152.993 Y103.626 E.56999
G1 X152.993 Y104.164 E.01701
G1 X140.246 Y91.417 E.56999
G1 X140.246 Y91.955 E.01701
G1 X152.993 Y104.702 E.56999
G1 X152.993 Y105.239 E.01698
G1 X140.246 Y92.492 E.56999
G1 X140.246 Y93.03 E.01701
G1 X152.993 Y105.777 E.56999
G1 X152.993 Y106.315 E.01701
G1 X140.246 Y93.568 E.56999
G1 X140.246 Y94.106 E.01701
G1 X152.993 Y106.853 E.56999
G1 X152.993 Y107.391 E.01701
M73 P6 R29
M73 Q6 S29
G1 X140.246 Y94.643 E.57001
G1 X140.246 Y95.181 E.01701
G1 X152.993 Y107.928 E.56999
G1 X152.993 Y108.466 E.01701
G1 X140.246 Y95.719 E.56999
G1 X140.246 Y96.257 E.01701
G1 X152.993 Y109.004 E.56999
G1 X152.993 Y109.542 E.01701
G1 X140.246 Y96.794 E.57001
G1 X140.246 Y97.332 E.01701
G1 X152.993 Y110.079 E.56999
G1 X152.993 Y110.617 E.01701
G1 X140.246 Y97.87 E.56999
G1 X140.246 Y98.408 E.01701
G1 X152.993 Y111.155 E.56999
G1 X152.993 Y111.693 E.01701
G1 X140.246 Y98.946 E.56999
G1 X140.246 Y99.483 E.01698
G1 X152.993 Y112.23 E.56999
G1 X152.993 Y112.768 E.01701
G1 X140.246 Y100.021 E.56999
G1 X140.246 Y100.559 E.01701
G1 X152.993 Y113.306 E.56999
G1 X152.993 Y113.844 E.01701
G1 X140.246 Y101.097 E.56999
G1 X140.246 Y101.634 E.01698
G1 X152.993 Y114.382 E.57001
G1 X152.993 Y114.919 E.01698
G1 X140.246 Y102.172 E.56999
G1 X140.246 Y102.71 E.01701
G1 X152.993 Y115.457 E.56999
G1 X152.993 Y115.995 E.01701
G1 X140.246 Y103.248 E.56999
G1 X140.246 Y103.786 E.01701
G1 X152.993 Y116.533 E.56999
G1 X152.993 Y117.07 E.01698
G1 X140.246 Y104.323 E.56999
G1 X140.246 Y104.861 E.01701
G1 X152.993 Y117.608 E.56999
G1 X152.993 Y118.146 E.01701
M73 P7 R29
M73 Q7 S29
G1 X140.246 Y105.399 E.56999
G1 X140.246 Y105.937 E.01701
G1 X152.993 Y118.684 E.56999
G1 X152.993 Y119.221 E.01698
G1 X140.246 Y106.474 E.56999
G1 X140.246 Y107.012 E.01701
G1 X152.993 Y119.759 E.56999
G1 X152.993 Y120.297 E.01701
G1 X140.246 Y107.55 E.56999
G1 X140.246 Y108.088 E.01701
G1 X152.993 Y120.835 E.56999
G1 X152.993 Y121.373 E.01701
G1 X140.246 Y108.625 E.57001
G1 X140.246 Y109.163 E.01701
G1 X152.993 Y121.91 E.56999
G1 X152.993 Y122.448 E.01701
G1 X140.246 Y109.701 E.56999
G1 X140.246 Y110.239 E.01701
G1 X152.993 Y122.986 E.56999
G1 X152.993 Y123.524 E.01701
M73 P7 R28
G1 X140.246 Y110.777 E.56999
G1 X140.246 Y111.314 E.01698
M73 Q7 S28
G1 X152.506 Y123.575 E.54824
G1 X151.969 Y123.575 E.01698
G1 X140.246 Y111.852 E.5242
G1 X140.246 Y112.39 E.01701
G1 X151.431 Y123.575 E.50015
G1 X150.893 Y123.575 E.01701
G1 X140.246 Y112.928 E.47609
G1 X140.246 Y113.465 E.01698
G1 X150.355 Y123.575 E.45205
G1 X149.818 Y123.575 E.01698
G1 X140.246 Y114.003 E.42802
G1 X140.246 Y114.541 E.01701
G1 X149.28 Y123.575 E.40396
G1 X148.742 Y123.575 E.01701
G1 X140.246 Y115.079 E.37991
G1 X140.246 Y115.616 E.01698
G1 X148.204 Y123.575 E.35587
G1 X147.666 Y123.575 E.01701
G1 X140.246 Y116.154 E.33181
G1 X140.246 Y116.692 E.01701
G1 X147.129 Y123.575 E.30778
G1 X146.591 Y123.575 E.01701
M73 Q8 S28
G1 X140.246 Y117.23 E.28372
G1 X140.246 Y117.768 E.01701
M73 P8 R28
G1 X146.053 Y123.575 E.25966
G1 X145.515 Y123.575 E.01701
G1 X140.246 Y118.305 E.23563
G1 X140.246 Y118.843 E.01701
G1 X144.978 Y123.575 E.2116
G1 X144.44 Y123.575 E.01701
G1 X140.246 Y119.381 E.18754
G1 X140.246 Y119.919 E.01701
G1 X143.902 Y123.575 E.16348
G1 X143.364 Y123.575 E.01701
G1 X140.246 Y120.456 E.13945
G1 X140.246 Y120.994 E.01701
G1 X142.826 Y123.575 E.11539
G1 X142.289 Y123.575 E.01698
G1 X140.246 Y121.532 E.09135
G1 X140.246 Y122.07 E.01701
G1 X141.751 Y123.575 E.0673
G1 X141.213 Y123.575 E.01701
G1 X140.246 Y122.607 E.04326
G1 X140.246 Y123.145 E.01701
G1 X140.845 Y123.745 E.02681
M204 S1000
M106 S84.15
;LAYER_CHANGE
;Z:0.4
;HEIGHT:0.2
;BEFORE_LAYER_CHANGE
G92 E0.0
;0.4


;WIPE_START
G1 F8640
G1 X140.246 Y123.145 E-.19576
G1 X140.246 Y122.607 E-.12423
G1 X141.213 Y123.575 E-.31593
G1 X141.751 Y123.575 E-.12423
G1 X141.629 Y123.453 E-.03985
;WIPE_END
G1 Z.4 F720
;AFTER_LAYER_CHANGE
;0.4
M104 S210 ; set temperature
; stop printing object 3_sensor_helper.stl id:1 copy 0
G1 Z.8
G1 X141.626 Y127.068 F10800
G1 Z.4 F720
G1 E.8 F2100
;TYPE:Skirt/Brim
;WIDTH:0.42
G1 F3000
G1 X138.879 Y127.066 E.08613
G1 X117.259 Y124.865 E.68138
G1 X115.999 Y124.343 E.04276
G1 X115.233 Y123.214 E.04278
G1 X115.123 Y122.5 E.02265
G1 X115.123 Y87.5 E1.0974
G1 X115.515 Y86.193 E.04278
G1 X116.56 Y85.317 E.04275
G1 X117.5 Y85.123 E.03009
G1 X132.741 Y85.135 E.47787
G1 X154.36 Y87.336 E.68135
G1 X155.621 Y87.858 E.04279
G1 X156.387 Y88.988 E.0428
G1 X156.496 Y89.701 E.02262
G1 X156.496 Y124.701 E1.0974
G1 X156.105 Y126.008 E.04277
G1 X155.059 Y126.885 E.0428
G1 X154.119 Y127.078 E.03009
G1 X141.686 Y127.068 E.38983
;WIPE_START
G1 F8640
G1 X141.626 Y127.068 E-.01385
G1 X138.879 Y127.066 E-.63429
G1 X138.225 Y126.999 E-.15186
;WIPE_END
G1 Z.8 F720
; printing object 3_sensor_helper.stl id:0 copy 0
G1 X131.868 Y121.868 F10800
G1 Z.4 F720
G1 E.8 F2100
M204 S800
;TYPE:Perimeter
;WIDTH:0.449999
G1 F2994.627
G1 X118.132 Y121.868 E.46495
G1 F3262.576
G1 X118.132 Y88.132 E1.14192
G1 F2994.627
G1 X131.868 Y88.132 E.46495
G1 F3034.501
G1 X131.868 Y95 E.23247
G1 F3477.897
G1 X131.868 Y121.808 E.90742
M204 S1000
G1 X132.275 Y122.275 F10800
M204 S800
;TYPE:External perimeter
G1 F1890.92
