; generated by PrusaSlicer 2.7.3+win64 on 2024-04-11 at 14:53:24 UTC


;
;
; 

; external perimeters extrusion width = 0.45mm
; perimeters extrusion width = 0.45mm
; infill extrusion width = 0.45mm
; solid infill extrusion width = 0.45mm
; top infill extrusion width = 0.40mm
; support material extrusion width = 0.35mm
; first layer extrusion width = 0.42mm

M73 P0 R438
M73 Q0 S461
M201 X1000 Y1000 Z200 E5000 ; sets maximum accelerations, mm/sec^2
M203 X200 Y200 Z12 E120 ; sets maximum feedrates, mm / sec
M204 S1250 T1250 ; sets acceleration (S) and retract acceleration (R), mm/sec^2
M205 X8.00 Y8.00 Z0.40 E4.50 ; sets the jerk limits, mm/sec
M205 S0 T0 ; sets the minimum extruding and travel feed rate, mm/sec

; printing object 2_plate_left.stl id:0 copy 0
; stop printing object 2_plate_left.stl id:0 copy 0

;TYPE:Custom
M862.3 P "MK3S" ; printer model check
M862.1 P0.4 ; nozzle diameter check
M115 U3.12.2 ; tell printer latest fw version
G90 ; use absolute coordinates
M83 ; extruder relative mode
M104 S215 ; set extruder temp
M140 S60 ; set bed temp
M190 S60 ; wait for bed temp
M109 S215 ; wait for extruder temp
G28 W ; home all without mesh bed level
G80 ; mesh bed leveling

G1 Z0.2 F720
G1 Y-3 F1000 ; go outside print area
G92 E0
G1 X60 E9 F1000 ; intro line
G1 X100 E12.5 F1000 ; intro line

G92 E0
M221 S95

; Don't change E values below. Excessive value can damage the printer.

M907 E538 ; set extruder motor current
G21 ; set units to millimeters
G90 ; use absolute coordinates
M83 ; use relative distances for extrusion
M900 K0.05 ; Filament gcode LA 1.5
M900 K30 ; Filament gcode LA 1.0
M107
;LAYER_CHANGE
;Z:0.2
;HEIGHT:0.2
G1 E-.8 F2100
G1 Z.6 F720
G1 X26.887 Y9.713 F10800
G1 Z.2 F720
G1 E.8 F2100
M204 S800
;TYPE:Skirt/Brim
;WIDTH:0.42
G1 F1200
G1 X27.384 Y8.442 E.04279
G1 X28.498 Y7.654 E.04278
G1 X29.256 Y7.53 E.02408
G1 X229.256 Y7.53 E6.27086
G1 X230.563 Y7.922 E.04278
G1 X231.44 Y8.968 E.0428
G1 X231.625 Y9.713 E.02407
G1 X243.633 Y155.907 E4.59925
G1 X243.633 Y175.907 E.62709
G1 X243.463 Y176.79 E.02819
M73 Q0 S460
G1 X231.463 Y206.79 E1.01309
G1 X230.614 Y207.858 E.04278
G1 X229.256 Y208.285 E.04463
G1 X29.256 Y208.285 E6.27086
G1 X27.949 Y207.893 E.04278
G1 X27.049 Y206.79 E.04464
G1 X15.049 Y176.79 E1.01309
G1 X14.879 Y175.907 E.02819
G1 X14.887 Y155.713 E.63317
G1 X26.882 Y9.773 E4.59128
M204 S1000
;WIPE_START
G1 F8640
G1 X26.887 Y9.713 E-.0139
G1 X27.384 Y8.442 E-.31512
G1 X28.498 Y7.654 E-.31507
G1 X29.164 Y7.545 E-.15591
;WIPE_END
G1 Z.6 F720
; printing object 2_plate_left.stl id:0 copy 0
G1 X212.776 Y175.427 F10800
G1 Z.2 F720
G1 E.8 F2100
M204 S800
;TYPE:Support material
G1 F1200
G1 X173.736 Y175.427 E1.22407
G1 X173.736 Y151.387 E.75376
G1 X212.776 Y151.387 E1.22407
G1 X212.776 Y175.371 E.752
M73 P0 R437
M204 S1000
G1 X212.776 Y175.371 F10800
G1 X212.214 Y175.258
M204 S800
G1 F1200
G1 X212.214 Y151.727 E.7378
G1 X211.795 Y151.727 E.01314
G1 X211.795 Y175.088 E.73247
G1 X211.376 Y175.088 E.01314
G1 X211.376 Y151.727 E.73247
G1 X210.957 Y151.727 E.01314
G1 X210.957 Y175.088 E.73247
G1 X210.538 Y175.088 E.01314
G1 X210.538 Y151.727 E.73247
G1 X210.119 Y151.727 E.01314
G1 X210.119 Y175.088 E.73247
G1 X209.7 Y175.088 E.01314
G1 X209.7 Y151.727 E.73247
G1 X209.281 Y151.727 E.01314
G1 X209.281 Y175.088 E.73247
G1 X208.862 Y175.088 E.01314
G1 X208.862 Y151.727 E.73247
G1 X208.443 Y151.727 E.01314
G1 X208.443 Y175.088 E.73247
G1 X208.024 Y175.088 E.01314
G1 X208.024 Y151.727 E.73247
G1 X207.605 Y151.727 E.01314
G1 X207.605 Y175.088 E.73247
G1 X207.186 Y175.088 E.01314
G1 X207.186 Y151.727 E.73247
G1 X206.767 Y151.727 E.01314
G1 X206.767 Y175.088 E.73247
G1 X206.348 Y175.088 E.01314
G1 X206.348 Y151.727 E.73247
G1 X205.929 Y151.727 E.01314
G1 X205.929 Y175.088 E.73247
G1 X205.51 Y175.088 E.01314
G1 X205.51 Y151.727 E.73247
G1 X205.091 Y151.727 E.01314
G1 X205.091 Y175.088 E.73247
G1 X204.672 Y175.088 E.01314
G1 X204.672 Y151.727 E.73247
G1 X204.253 Y151.727 E.01314
G1 X204.253 Y175.088 E.73247
G1 X203.834 Y175.088 E.01314
G1 X203.834 Y151.727 E.73247
G1 X203.415 Y151.727 E.01314
G1 X203.415 Y175.088 E.73247
G1 X202.996 Y175.088 E.01314
G1 X202.996 Y151.727 E.73247
G1 X202.577 Y151.727 E.01314
G1 X202.577 Y175.088 E.73247
G1 X202.158 Y175.088 E.01314
G1 X202.158 Y151.727 E.73247
G1 X201.739 Y151.727 E.01314
M73 Q0 S459
G1 X201.739 Y175.088 E.73247
G1 X201.32 Y175.088 E.01314
G1 X201.32 Y151.727 E.73247
G1 X200.901 Y151.727 E.01314
G1 X200.901 Y175.088 E.73247
G1 X200.482 Y175.088 E.01314
G1 X200.482 Y151.727 E.73247
G1 X200.063 Y151.727 E.01314
G1 X200.063 Y175.088 E.73247
G1 X199.644 Y175.088 E.01314
G1 X199.644 Y151.727 E.73247
G1 X199.225 Y151.727 E.01314
G1 X199.225 Y175.088 E.73247
G1 X198.806 Y175.088 E.01314
G1 X198.806 Y151.727 E.73247
G1 X198.387 Y151.727 E.01314
G1 X198.387 Y175.088 E.73247
G1 X197.968 Y175.088 E.01314
G1 X197.968 Y151.727 E.73247
G1 X197.549 Y151.727 E.01314
G1 X197.549 Y175.088 E.73247
G1 X197.13 Y175.088 E.01314
G1 X197.13 Y151.727 E.73247
G1 X196.711 Y151.727 E.01314
G1 X196.711 Y175.088 E.73247
G1 X196.292 Y175.088 E.01314
G1 X196.292 Y151.727 E.73247
G1 X195.873 Y151.727 E.01314
G1 X195.873 Y175.088 E.73247
G1 X195.455 Y175.088 E.01311
G1 X195.455 Y151.727 E.73247
G1 X195.036 Y151.727 E.01314
G1 X195.036 Y175.088 E.73247
G1 X194.617 Y175.088 E.01314
G1 X194.617 Y151.727 E.73247
G1 X194.198 Y151.727 E.01314
G1 X194.198 Y175.088 E.73247
G1 X193.779 Y175.088 E.01314
G1 X193.779 Y151.727 E.73247
G1 X193.36 Y151.727 E.01314
G1 X193.36 Y175.088 E.73247
G1 X192.941 Y175.088 E.01314
G1 X192.941 Y151.727 E.73247
G1 X192.522 Y151.727 E.01314
G1 X192.522 Y175.088 E.73247
G1 X192.103 Y175.088 E.01314
M73 P0 R436
G1 X192.103 Y151.727 E.73247
G1 X191.684 Y151.727 E.01314
G1 X191.684 Y175.088 E.73247
G1 X191.265 Y175.088 E.01314
G1 X191.265 Y151.727 E.73247
G1 X190.846 Y151.727 E.01314
G1 X190.846 Y175.088 E.73247
G1 X190.427 Y175.088 E.01314
G1 X190.427 Y151.727 E.73247
G1 X190.008 Y151.727 E.01314
G1 X190.008 Y175.088 E.73247
G1 X189.589 Y175.088 E.01314
G1 X189.589 Y151.727 E.73247
G1 X189.17 Y151.727 E.01314
G1 X189.17 Y175.088 E.73247
G1 X188.751 Y175.088 E.01314
G1 X188.751 Y151.727 E.73247
G1 X188.332 Y151.727 E.01314
G1 X188.332 Y175.088 E.73247
G1 X187.913 Y175.088 E.01314
G1 X187.913 Y151.727 E.73247
G1 X187.494 Y151.727 E.01314
G1 X187.494 Y175.088 E.73247
G1 X187.075 Y175.088 E.01314
G1 X187.075 Y151.727 E.73247
G1 X186.656 Y151.727 E.01314
G1 X186.656 Y175.088 E.73247
G1 X186.237 Y175.088 E.01314
G1 X186.237 Y151.727 E.73247
G1 X185.818 Y151.727 E.01314
G1 X185.818 Y175.088 E.73247
G1 X185.399 Y175.088 E.01314
G1 X185.399 Y151.727 E.73247
G1 X184.98 Y151.727 E.01314
G1 X184.98 Y175.088 E.73247
G1 X184.561 Y175.088 E.01314
G1 X184.561 Y151.727 E.73247
G1 X184.142 Y151.727 E.01314
G1 X184.142 Y175.088 E.73247
G1 X183.723 Y175.088 E.01314
G1 X183.723 Y151.727 E.73247
G1 X183.304 Y151.727 E.01314
G1 X183.304 Y175.088 E.73247
G1 X182.885 Y175.088 E.01314
G1 X182.885 Y151.727 E.73247
G1 X182.466 Y151.727 E.01314
G1 X182.466 Y175.088 E.73247
G1 X182.047 Y175.088 E.01314
G1 X182.047 Y151.727 E.73247
G1 X181.628 Y151.727 E.01314
G1 X181.628 Y175.088 E.73247
G1 X181.209 Y175.088 E.01314
M73 Q0 S458
G1 X181.209 Y151.727 E.73247
G1 X180.79 Y151.727 E.01314
G1 X180.79 Y175.088 E.73247
G1 X180.371 Y175.088 E.01314
G1 X180.371 Y151.727 E.73247
G1 X179.952 Y151.727 E.01314
G1 X179.952 Y175.088 E.73247
G1 X179.533 Y175.088 E.01314
G1 X179.533 Y151.727 E.73247
G1 X179.114 Y151.727 E.01314
G1 X179.114 Y175.088 E.73247
G1 X178.695 Y175.088 E.01314
G1 X178.695 Y151.727 E.73247
G1 X178.276 Y151.727 E.01314
G1 X178.276 Y175.088 E.73247
G1 X177.857 Y175.088 E.01314
G1 X177.857 Y151.727 E.73247
G1 X177.438 Y151.727 E.01314
G1 X177.438 Y175.088 E.73247
G1 X177.02 Y175.088 E.01311
G1 X177.02 Y151.727 E.73247
G1 X176.601 Y151.727 E.01314
G1 X176.601 Y175.088 E.73247
G1 X176.182 Y175.088 E.01314
G1 X176.182 Y151.727 E.73247
G1 X175.763 Y151.727 E.01314
G1 X175.763 Y175.088 E.73247
G1 X175.344 Y175.088 E.01314
G1 X175.344 Y151.727 E.73247
G1 X174.925 Y151.727 E.01314
G1 X174.925 Y175.088 E.73247
G1 X174.506 Y175.088 E.01314
G1 X174.506 Y151.727 E.73247
G1 X174.087 Y151.727 E.01314
G1 X174.087 Y175.258 E.7378
M204 S1000
;WIPE_START
G1 F8640
G1 X174.087 Y171.793 E-.8
;WIPE_END
G1 Z.6 F720
G1 X84.776 Y175.427 F10800
G1 Z.2 F720
G1 E.8 F2100
M204 S800
G1 F1200
G1 X45.736 Y175.427 E1.22407
G1 X45.736 Y151.387 E.75376
G1 X84.776 Y151.387 E1.22407
G1 X84.776 Y175.371 E.752
M204 S1000
G1 X84.776 Y175.371 F10800
M73 P0 R435
G1 X84.426 Y175.258
M204 S800
G1 F1200
G1 X84.426 Y151.727 E.7378
G1 X84.007 Y151.727 E.01314
G1 X84.007 Y175.088 E.73247
G1 X83.588 Y175.088 E.01314
G1 X83.588 Y151.727 E.73247
G1 X83.169 Y151.727 E.01314
G1 X83.169 Y175.088 E.73247
G1 X82.75 Y175.088 E.01314
G1 X82.75 Y151.727 E.73247
G1 X82.331 Y151.727 E.01314
G1 X82.331 Y175.088 E.73247
G1 X81.912 Y175.088 E.01314
G1 X81.912 Y151.727 E.73247
G1 X81.493 Y151.727 E.01314
G1 X81.493 Y175.088 E.73247
G1 X81.074 Y175.088 E.01314
G1 X81.074 Y151.727 E.73247
G1 X80.655 Y151.727 E.01314
G1 X80.655 Y175.088 E.73247
G1 X80.236 Y175.088 E.01314
G1 X80.236 Y151.727 E.73247
G1 X79.817 Y151.727 E.01314
G1 X79.817 Y175.088 E.73247
G1 X79.398 Y175.088 E.01314
G1 X79.398 Y151.727 E.73247
G1 X78.979 Y151.727 E.01314
G1 X78.979 Y175.088 E.73247
G1 X78.56 Y175.088 E.01314
G1 X78.56 Y151.727 E.73247
G1 X78.141 Y151.727 E.01314
G1 X78.141 Y175.088 E.73247
G1 X77.722 Y175.088 E.01314
G1 X77.722 Y151.727 E.73247
G1 X77.303 Y151.727 E.01314
G1 X77.303 Y175.088 E.73247
G1 X76.884 Y175.088 E.01314
G1 X76.884 Y151.727 E.73247
G1 X76.465 Y151.727 E.01314
G1 X76.465 Y175.088 E.73247
G1 X76.046 Y175.088 E.01314
G1 X76.046 Y151.727 E.73247
G1 X75.627 Y151.727 E.01314
G1 X75.627 Y175.088 E.73247
G1 X75.208 Y175.088 E.01314
G1 X75.208 Y151.727 E.73247
G1 X74.789 Y151.727 E.01314
G1 X74.789 Y175.088 E.73247
G1 X74.37 Y175.088 E.01314
G1 X74.37 Y151.727 E.73247
G1 X73.951 Y151.727 E.01314
G1 X73.951 Y175.088 E.73247
G1 X73.532 Y175.088 E.01314
M73 Q0 S457
G1 X73.532 Y151.727 E.73247
G1 X73.113 Y151.727 E.01314
G1 X73.113 Y175.088 E.73247
G1 X72.694 Y175.088 E.01314
G1 X72.694 Y151.727 E.73247
G1 X72.275 Y151.727 E.01314
G1 X72.275 Y175.088 E.73247
G1 X71.856 Y175.088 E.01314
G1 X71.856 Y151.727 E.73247
G1 X71.437 Y151.727 E.01314
G1 X71.437 Y175.088 E.73247
G1 X71.018 Y175.088 E.01314
G1 X71.018 Y151.727 E.73247
G1 X70.599 Y151.727 E.01314
G1 X70.599 Y175.088 E.73247
G1 X70.18 Y175.088 E.01314
G1 X70.18 Y151.727 E.73247
G1 X69.761 Y151.727 E.01314
G1 X69.761 Y175.088 E.73247
G1 X69.342 Y175.088 E.01314
G1 X69.342 Y151.727 E.73247
G1 X68.923 Y151.727 E.01314
G1 X68.923 Y175.088 E.73247
G1 X68.504 Y175.088 E.01314
G1 X68.504 Y151.727 E.73247
G1 X68.086 Y151.727 E.01311
G1 X68.086 Y175.088 E.73247
G1 X67.667 Y175.088 E.01314
G1 X67.667 Y151.727 E.73247
G1 X67.248 Y151.727 E.01314
G1 X67.248 Y175.088 E.73247
G1 X66.829 Y175.088 E.01314
G1 X66.829 Y151.727 E.73247
G1 X66.41 Y151.727 E.01314
G1 X66.41 Y175.088 E.73247
G1 X65.991 Y175.088 E.01314
G1 X65.991 Y151.727 E.73247
G1 X65.572 Y151.727 E.01314
G1 X65.572 Y175.088 E.73247
G1 X65.153 Y175.088 E.01314
G1 X65.153 Y151.727 E.73247
G1 X64.734 Y151.727 E.01314
G1 X64.734 Y175.088 E.73247
G1 X64.315 Y175.088 E.01314
G1 X64.315 Y151.727 E.73247
G1 X63.896 Y151.727 E.01314
G1 X63.896 Y175.088 E.73247
G1 X63.477 Y175.088 E.01314
M73 P0 R434
G1 X63.477 Y151.727 E.73247
G1 X63.058 Y151.727 E.01314
G1 X63.058 Y175.088 E.73247
G1 X62.639 Y175.088 E.01314
G1 X62.639 Y151.727 E.73247
G1 X62.22 Y151.727 E.01314
G1 X62.22 Y175.088 E.73247
G1 X61.801 Y175.088 E.01314
G1 X61.801 Y151.727 E.73247
G1 X61.382 Y151.727 E.01314
G1 X61.382 Y175.088 E.73247
G1 X60.963 Y175.088 E.01314
G1 X60.963 Y151.727 E.73247
G1 X60.544 Y151.727 E.01314
G1 X60.544 Y175.088 E.73247
G1 X60.125 Y175.088 E.01314
G1 X60.125 Y151.727 E.73247
G1 X59.706 Y151.727 E.01314
G1 X59.706 Y175.088 E.73247
G1 X59.287 Y175.088 E.01314
G1 X59.287 Y151.727 E.73247
G1 X58.868 Y151.727 E.01314
G1 X58.868 Y175.088 E.73247
G1 X58.449 Y175.088 E.01314
G1 X58.449 Y151.727 E.73247
G1 X58.03 Y151.727 E.01314
G1 X58.03 Y175.088 E.73247
G1 X57.611 Y175.088 E.01314
G1 X57.611 Y151.727 E.73247
G1 X57.192 Y151.727 E.01314
G1 X57.192 Y175.088 E.73247
G1 X56.773 Y175.088 E.01314
G1 X56.773 Y151.727 E.73247
G1 X56.354 Y151.727 E.01314
G1 X56.354 Y175.088 E.73247
G1 X55.935 Y175.088 E.01314
G1 X55.935 Y151.727 E.73247
G1 X55.516 Y151.727 E.01314
G1 X55.516 Y175.088 E.73247
G1 X55.097 Y175.088 E.01314
G1 X55.097 Y151.727 E.73247
G1 X54.678 Y151.727 E.01314
G1 X54.678 Y175.088 E.73247
G1 X54.259 Y175.088 E.01314
G1 X54.259 Y151.727 E.73247
G1 X53.84 Y151.727 E.01314
G1 X53.84 Y175.088 E.73247
G1 X53.421 Y175.088 E.01314
M73 P1 R434
G1 X53.421 Y151.727 E.73247
G1 X53.002 Y151.727 E.01314
G1 X53.002 Y175.088 E.73247
G1 X52.583 Y175.088 E.01314
M73 Q0 S456
G1 X52.583 Y151.727 E.73247
G1 X52.164 Y151.727 E.01314
G1 X52.164 Y175.088 E.73247
G1 X51.745 Y175.088 E.01314
G1 X51.745 Y151.727 E.73247
G1 X51.326 Y151.727 E.01314
G1 X51.326 Y175.088 E.73247
G1 X50.907 Y175.088 E.01314
G1 X50.907 Y151.727 E.73247
G1 X50.488 Y151.727 E.01314
G1 X50.488 Y175.088 E.73247
G1 X50.069 Y175.088 E.01314
G1 X50.069 Y151.727 E.73247
G1 X49.651 Y151.727 E.01311
G1 X49.651 Y175.088 E.73247
G1 X49.232 Y175.088 E.01314
G1 X49.232 Y151.727 E.73247
G1 X48.813 Y151.727 E.01314
M73 Q1 S456
G1 X48.813 Y175.088 E.73247
G1 X48.394 Y175.088 E.01314
G1 X48.394 Y151.727 E.73247
G1 X47.975 Y151.727 E.01314
G1 X47.975 Y175.088 E.73247
G1 X47.556 Y175.088 E.01314
G1 X47.556 Y151.727 E.73247
G1 X47.137 Y151.727 E.01314
G1 X47.137 Y175.088 E.73247
G1 X46.718 Y175.088 E.01314
G1 X46.718 Y151.727 E.73247
G1 X46.299 Y151.727 E.01314
G1 X46.299 Y175.258 E.7378
M204 S1000
;WIPE_START
G1 F8640
G1 X46.299 Y171.793 E-.8
;WIPE_END
G1 Z.6 F720
G1 X56.59 Y19.141 F10800
G1 Z.2 F720
G1 E.8 F2100
M204 S800
;TYPE:Perimeter
;WIDTH:0.419999
G1 F1200
G1 X56.508 Y19.12 E.00265
G1 X30.043 Y19.12 E.82979
G1 X30.043 Y10.695 E.26416
G1 X228.469 Y10.695 E6.2215
G1 X228.469 Y19.12 E.26416
M73 P1 R433
G1 X202.005 Y19.12 E.82976
G1 X201.911 Y19.128 E.00296
G1 X201.665 Y19.234 E.0084
G1 X201.512 Y19.408 E.00726
G1 X201.439 Y19.686 E.00901
G1 X201.439 Y42.129 E.70368
G1 X201.524 Y42.427 E.00972
G1 X201.731 Y42.624 E.00896
G1 X202.005 Y42.695 E.00887
G1 X228.469 Y42.695 E.82976
G1 X228.469 Y99.12 E1.76916
G1 X202.005 Y99.12 E.82976
G1 X201.711 Y99.203 E.00958
G1 X201.512 Y99.409 E.00898
G1 X201.439 Y99.686 E.00898
G1 X201.441 Y122.178 E.70522
G1 X201.538 Y122.448 E.009
G1 X201.739 Y122.628 E.00846
G1 X202.005 Y122.695 E.0086
G1 X228.469 Y122.695 E.82976
G1 X228.478 Y151.153 E.89228
G1 X228.598 Y151.415 E.00904
G1 X228.817 Y151.577 E.00854
G1 X240.469 Y156.432 E.39578
G1 X240.469 Y158.947 E.07886
G1 X240.469 Y175.383 E.51534
G1 X229.624 Y179.902 E.36838
G1 X228.704 Y180.301 E.03144
G1 X228.534 Y180.496 E.00811
G1 X228.469 Y180.76 E.00852
G1 X228.469 Y205.12 E.76379
G1 X141.043 Y205.12 E2.74118
G1 X141.042 Y134.1 E2.22678
G1 X140.957 Y133.836 E.0087
G1 X140.749 Y133.64 E.00896
G1 X140.478 Y133.57 E.00878
G1 X118.012 Y133.571 E.7044
G1 X117.739 Y133.654 E.00895
G1 X117.541 Y133.859 E.00894
G1 X117.469 Y134.136 E.00897
G1 X117.469 Y205.12 E2.22565
G1 X30.043 Y205.12 E2.74118
M73 Q1 S455
G1 X30.033 Y180.653 E.76714
G1 X29.919 Y180.406 E.00853
G1 X29.695 Y180.238 E.00878
G1 X18.043 Y175.383 E.39578
G1 X18.043 Y156.432 E.59419
G1 X28.976 Y151.877 E.37136
G1 X29.807 Y151.515 E.02842
G1 X29.973 Y151.328 E.00784
G1 X30.043 Y151.055 E.00884
G1 X30.043 Y122.695 E.88921
G1 X56.508 Y122.695 E.82979
G1 X56.799 Y122.614 E.00947
G1 X57 Y122.407 E.00905
G1 X57.073 Y122.129 E.00901
G1 X57.073 Y99.658 E.70456
G1 X56.989 Y99.388 E.00887
G1 X56.781 Y99.191 E.00898
G1 X56.508 Y99.12 E.00884
G1 X30.043 Y99.12 E.82979
G1 X30.043 Y42.695 E1.76916
G1 X56.508 Y42.695 E.82979
G1 X56.801 Y42.612 E.00955
G1 X57.001 Y42.406 E.009
G1 X57.073 Y42.129 E.00897
G1 X57.064 Y19.584 E.70688
G1 X56.96 Y19.347 E.00811
G1 X56.774 Y19.187 E.00769
G1 X56.648 Y19.155 E.00408
M204 S1000
