; generated by PrusaSlicer 2.7.3+win64 on 2024-04-09 at 19:19:47 UTC


;
;
; 

; external perimeters extrusion width = 0.45mm
; perimeters extrusion width = 0.45mm
; infill extrusion width = 0.45mm
; solid infill extrusion width = 0.45mm
; top infill extrusion width = 0.40mm
; support material extrusion width = 0.35mm
; first layer extrusion width = 0.42mm

M73 P0 R441
M73 Q0 S463
M201 X1000 Y1000 Z200 E5000 ; sets maximum accelerations, mm/sec^2
M203 X200 Y200 Z12 E120 ; sets maximum feedrates, mm / sec
M204 S1250 T1250 ; sets acceleration (S) and retract acceleration (R), mm/sec^2
M205 X8.00 Y8.00 Z0.40 E4.50 ; sets the jerk limits, mm/sec
M205 S0 T0 ; sets the minimum extruding and travel feed rate, mm/sec

; printing object 2_plate_left.stl id:0 copy 0
; stop printing object 2_plate_left.stl id:0 copy 0

;TYPE:Custom
M862.3 P "MK3S" ; printer model check
M862.1 P0.4 ; nozzle diameter check
M115 U3.12.2 ; tell printer latest fw version
G90 ; use absolute coordinates
M83 ; extruder relative mode
M104 S215 ; set extruder temp
M140 S60 ; set bed temp
M190 S60 ; wait for bed temp
M109 S215 ; wait for extruder temp
G28 W ; home all without mesh bed level
G80 ; mesh bed leveling

G1 Z0.2 F720
G1 Y-3 F1000 ; go outside print area
G92 E0
G1 X60 E9 F1000 ; intro line
G1 X100 E12.5 F1000 ; intro line

G92 E0
M221 S95

; Don't change E values below. Excessive value can damage the printer.

M907 E538 ; set extruder motor current
G21 ; set units to millimeters
G90 ; use absolute coordinates
M83 ; use relative distances for extrusion
M900 K0.05 ; Filament gcode LA 1.5
M900 K30 ; Filament gcode LA 1.0
M107
;LAYER_CHANGE
;Z:0.2
;HEIGHT:0.2
G1 E-.8 F2100
G1 Z.6 F720
G1 X19.702 Y4.065 F10800
G1 Z.2 F720
G1 E.8 F2100
M204 S800
;TYPE:Skirt/Brim
;WIDTH:0.42
G1 F1200
G1 X20.199 Y2.795 E.04276
G1 X21.313 Y2.007 E.04278
G1 X22.071 Y1.883 E.02408
G1 X222.071 Y1.883 E6.27086
G1 X223.378 Y2.274 E.04277
G1 X224.254 Y3.32 E.04278
G1 X224.44 Y4.065 E.02408
G1 X236.448 Y150.26 E4.59928
G1 X236.448 Y170.26 E.62709
M73 P0 R440
G1 X236.278 Y171.143 E.02819
G1 X224.278 Y201.143 E1.01309
G1 X223.429 Y202.211 E.04278
G1 X222.071 Y202.637 E.04462
G1 X22.071 Y202.637 E6.27086
G1 X20.764 Y202.245 E.04278
G1 X19.864 Y201.143 E.04461
G1 X7.864 Y171.143 E1.01309
G1 X7.694 Y170.26 E.02819
G1 X7.702 Y150.065 E.6332
G1 X19.697 Y4.125 E4.59128
M204 S1000
;WIPE_START
G1 F8640
M73 Q0 S462
G1 X19.702 Y4.065 E-.0139
G1 X20.199 Y2.795 E-.3149
G1 X21.313 Y2.007 E-.31507
G1 X21.98 Y1.898 E-.15613
;WIPE_END
G1 Z.6 F720
; printing object 2_plate_left.stl id:0 copy 0
G1 X205.591 Y169.78 F10800
G1 Z.2 F720
G1 E.8 F2100
M204 S800
;TYPE:Support material
G1 F1200
G1 X166.551 Y169.78 E1.22407
G1 X166.551 Y145.74 E.75376
G1 X205.591 Y145.74 E1.22407
G1 X205.591 Y169.723 E.75197
M204 S1000
G1 X205.591 Y169.723 F10800
G1 X205.028 Y169.61
M204 S800
G1 F1200
G1 X205.028 Y146.079 E.7378
G1 X204.609 Y146.079 E.01314
G1 X204.609 Y169.441 E.7325
G1 X204.19 Y169.441 E.01314
G1 X204.19 Y146.079 E.7325
G1 X203.771 Y146.079 E.01314
G1 X203.771 Y169.441 E.7325
G1 X203.352 Y169.441 E.01314
G1 X203.352 Y146.079 E.7325
G1 X202.933 Y146.079 E.01314
G1 X202.933 Y169.441 E.7325
G1 X202.514 Y169.441 E.01314
G1 X202.514 Y146.079 E.7325
G1 X202.095 Y146.079 E.01314
G1 X202.095 Y169.441 E.7325
G1 X201.676 Y169.441 E.01314
G1 X201.676 Y146.079 E.7325
G1 X201.257 Y146.079 E.01314
G1 X201.257 Y169.441 E.7325
G1 X200.838 Y169.441 E.01314
G1 X200.838 Y146.079 E.7325
G1 X200.419 Y146.079 E.01314
G1 X200.419 Y169.441 E.7325
G1 X200 Y169.441 E.01314
G1 X200 Y146.079 E.7325
G1 X199.581 Y146.079 E.01314
G1 X199.581 Y169.441 E.7325
G1 X199.162 Y169.441 E.01314
G1 X199.162 Y146.079 E.7325
G1 X198.743 Y146.079 E.01314
G1 X198.743 Y169.441 E.7325
G1 X198.324 Y169.441 E.01314
G1 X198.324 Y146.079 E.7325
G1 X197.905 Y146.079 E.01314
G1 X197.905 Y169.441 E.7325
G1 X197.486 Y169.441 E.01314
G1 X197.486 Y146.079 E.7325
G1 X197.068 Y146.079 E.01311
G1 X197.068 Y169.441 E.7325
G1 X196.649 Y169.441 E.01314
G1 X196.649 Y146.079 E.7325
G1 X196.23 Y146.079 E.01314
G1 X196.23 Y169.441 E.7325
G1 X195.811 Y169.441 E.01314
M73 P0 R439
G1 X195.811 Y146.079 E.7325
G1 X195.392 Y146.079 E.01314
G1 X195.392 Y169.441 E.7325
G1 X194.973 Y169.441 E.01314
G1 X194.973 Y146.079 E.7325
G1 X194.554 Y146.079 E.01314
G1 X194.554 Y169.441 E.7325
G1 X194.135 Y169.441 E.01314
G1 X194.135 Y146.079 E.7325
G1 X193.716 Y146.079 E.01314
G1 X193.716 Y169.441 E.7325
G1 X193.297 Y169.441 E.01314
G1 X193.297 Y146.079 E.7325
G1 X192.878 Y146.079 E.01314
G1 X192.878 Y169.441 E.7325
G1 X192.459 Y169.441 E.01314
G1 X192.459 Y146.079 E.7325
G1 X192.04 Y146.079 E.01314
G1 X192.04 Y169.441 E.7325
G1 X191.621 Y169.441 E.01314
G1 X191.621 Y146.079 E.7325
G1 X191.202 Y146.079 E.01314
G1 X191.202 Y169.441 E.7325
G1 X190.783 Y169.441 E.01314
G1 X190.783 Y146.079 E.7325
G1 X190.364 Y146.079 E.01314
G1 X190.364 Y169.441 E.7325
G1 X189.945 Y169.441 E.01314
G1 X189.945 Y146.079 E.7325
G1 X189.526 Y146.079 E.01314
G1 X189.526 Y169.441 E.7325
G1 X189.107 Y169.441 E.01314
M73 Q0 S461
G1 X189.107 Y146.079 E.7325
G1 X188.688 Y146.079 E.01314
G1 X188.688 Y169.441 E.7325
G1 X188.269 Y169.441 E.01314
G1 X188.269 Y146.079 E.7325
G1 X187.85 Y146.079 E.01314
G1 X187.85 Y169.441 E.7325
G1 X187.431 Y169.441 E.01314
G1 X187.431 Y146.079 E.7325
G1 X187.012 Y146.079 E.01314
G1 X187.012 Y169.441 E.7325
G1 X186.593 Y169.441 E.01314
G1 X186.593 Y146.079 E.7325
G1 X186.174 Y146.079 E.01314
G1 X186.174 Y169.441 E.7325
G1 X185.755 Y169.441 E.01314
G1 X185.755 Y146.079 E.7325
G1 X185.336 Y146.079 E.01314
G1 X185.336 Y169.441 E.7325
G1 X184.917 Y169.441 E.01314
G1 X184.917 Y146.079 E.7325
G1 X184.498 Y146.079 E.01314
G1 X184.498 Y169.441 E.7325
G1 X184.079 Y169.441 E.01314
G1 X184.079 Y146.079 E.7325
G1 X183.66 Y146.079 E.01314
G1 X183.66 Y169.441 E.7325
G1 X183.241 Y169.441 E.01314
G1 X183.241 Y146.079 E.7325
G1 X182.822 Y146.079 E.01314
G1 X182.822 Y169.441 E.7325
G1 X182.403 Y169.441 E.01314
G1 X182.403 Y146.079 E.7325
G1 X181.984 Y146.079 E.01314
G1 X181.984 Y169.441 E.7325
G1 X181.565 Y169.441 E.01314
G1 X181.565 Y146.079 E.7325
G1 X181.146 Y146.079 E.01314
G1 X181.146 Y169.441 E.7325
G1 X180.727 Y169.441 E.01314
G1 X180.727 Y146.079 E.7325
G1 X180.308 Y146.079 E.01314
G1 X180.308 Y169.441 E.7325
G1 X179.889 Y169.441 E.01314
G1 X179.889 Y146.079 E.7325
G1 X179.47 Y146.079 E.01314
G1 X179.47 Y169.441 E.7325
G1 X179.052 Y169.441 E.01311
G1 X179.052 Y146.079 E.7325
G1 X178.633 Y146.079 E.01314
G1 X178.633 Y169.441 E.7325
G1 X178.214 Y169.441 E.01314
G1 X178.214 Y146.079 E.7325
G1 X177.795 Y146.079 E.01314
G1 X177.795 Y169.441 E.7325
G1 X177.376 Y169.441 E.01314
G1 X177.376 Y146.079 E.7325
G1 X176.957 Y146.079 E.01314
G1 X176.957 Y169.441 E.7325
G1 X176.538 Y169.441 E.01314
G1 X176.538 Y146.079 E.7325
G1 X176.119 Y146.079 E.01314
G1 X176.119 Y169.441 E.7325
G1 X175.7 Y169.441 E.01314
G1 X175.7 Y146.079 E.7325
G1 X175.281 Y146.079 E.01314
G1 X175.281 Y169.441 E.7325
G1 X174.862 Y169.441 E.01314
M73 P0 R438
G1 X174.862 Y146.079 E.7325
G1 X174.443 Y146.079 E.01314
G1 X174.443 Y169.441 E.7325
G1 X174.024 Y169.441 E.01314
G1 X174.024 Y146.079 E.7325
G1 X173.605 Y146.079 E.01314
G1 X173.605 Y169.441 E.7325
G1 X173.186 Y169.441 E.01314
G1 X173.186 Y146.079 E.7325
G1 X172.767 Y146.079 E.01314
G1 X172.767 Y169.441 E.7325
G1 X172.348 Y169.441 E.01314
G1 X172.348 Y146.079 E.7325
G1 X171.929 Y146.079 E.01314
G1 X171.929 Y169.441 E.7325
G1 X171.51 Y169.441 E.01314
G1 X171.51 Y146.079 E.7325
G1 X171.091 Y146.079 E.01314
G1 X171.091 Y169.441 E.7325
G1 X170.672 Y169.441 E.01314
G1 X170.672 Y146.079 E.7325
G1 X170.253 Y146.079 E.01314
G1 X170.253 Y169.441 E.7325
G1 X169.834 Y169.441 E.01314
G1 X169.834 Y146.079 E.7325
G1 X169.415 Y146.079 E.01314
G1 X169.415 Y169.441 E.7325
G1 X168.996 Y169.441 E.01314
G1 X168.996 Y146.079 E.7325
G1 X168.577 Y146.079 E.01314
M73 Q0 S460
G1 X168.577 Y169.441 E.7325
G1 X168.158 Y169.441 E.01314
G1 X168.158 Y146.079 E.7325
G1 X167.739 Y146.079 E.01314
G1 X167.739 Y169.441 E.7325
G1 X167.32 Y169.441 E.01314
G1 X167.32 Y146.079 E.7325
G1 X166.901 Y146.079 E.01314
G1 X166.901 Y169.61 E.7378
M204 S1000
;WIPE_START
G1 F8640
G1 X166.901 Y166.145 E-.8
;WIPE_END
G1 Z.6 F720
G1 X77.591 Y169.78 F10800
G1 Z.2 F720
G1 E.8 F2100
M204 S800
G1 F1200
G1 X38.551 Y169.78 E1.22407
G1 X38.551 Y145.74 E.75376
G1 X77.591 Y145.74 E1.22407
G1 X77.591 Y169.723 E.75197
M204 S1000
G1 X77.591 Y169.723 F10800
G1 X77.24 Y169.61
M204 S800
G1 F1200
G1 X77.24 Y146.079 E.7378
G1 X76.821 Y146.079 E.01314
G1 X76.821 Y169.441 E.7325
G1 X76.402 Y169.441 E.01314
G1 X76.402 Y146.079 E.7325
G1 X75.983 Y146.079 E.01314
G1 X75.983 Y169.441 E.7325
G1 X75.564 Y169.441 E.01314
G1 X75.564 Y146.079 E.7325
G1 X75.145 Y146.079 E.01314
G1 X75.145 Y169.441 E.7325
G1 X74.726 Y169.441 E.01314
G1 X74.726 Y146.079 E.7325
G1 X74.307 Y146.079 E.01314
G1 X74.307 Y169.441 E.7325
G1 X73.888 Y169.441 E.01314
G1 X73.888 Y146.079 E.7325
G1 X73.469 Y146.079 E.01314
G1 X73.469 Y169.441 E.7325
G1 X73.05 Y169.441 E.01314
G1 X73.05 Y146.079 E.7325
G1 X72.631 Y146.079 E.01314
G1 X72.631 Y169.441 E.7325
G1 X72.212 Y169.441 E.01314
G1 X72.212 Y146.079 E.7325
G1 X71.793 Y146.079 E.01314
G1 X71.793 Y169.441 E.7325
G1 X71.374 Y169.441 E.01314
G1 X71.374 Y146.079 E.7325
G1 X70.955 Y146.079 E.01314
G1 X70.955 Y169.441 E.7325
G1 X70.536 Y169.441 E.01314
G1 X70.536 Y146.079 E.7325
G1 X70.117 Y146.079 E.01314
G1 X70.117 Y169.441 E.7325
G1 X69.699 Y169.441 E.01311
G1 X69.699 Y146.079 E.7325
G1 X69.28 Y146.079 E.01314
G1 X69.28 Y169.441 E.7325
G1 X68.861 Y169.441 E.01314
G1 X68.861 Y146.079 E.7325
G1 X68.442 Y146.079 E.01314
G1 X68.442 Y169.441 E.7325
G1 X68.023 Y169.441 E.01314
G1 X68.023 Y146.079 E.7325
G1 X67.604 Y146.079 E.01314
G1 X67.604 Y169.441 E.7325
G1 X67.185 Y169.441 E.01314
M73 P0 R437
G1 X67.185 Y146.079 E.7325
G1 X66.766 Y146.079 E.01314
G1 X66.766 Y169.441 E.7325
G1 X66.347 Y169.441 E.01314
G1 X66.347 Y146.079 E.7325
G1 X65.928 Y146.079 E.01314
G1 X65.928 Y169.441 E.7325
G1 X65.509 Y169.441 E.01314
G1 X65.509 Y146.079 E.7325
G1 X65.09 Y146.079 E.01314
G1 X65.09 Y169.441 E.7325
G1 X64.671 Y169.441 E.01314
G1 X64.671 Y146.079 E.7325
G1 X64.252 Y146.079 E.01314
G1 X64.252 Y169.441 E.7325
G1 X63.833 Y169.441 E.01314
G1 X63.833 Y146.079 E.7325
G1 X63.414 Y146.079 E.01314
G1 X63.414 Y169.441 E.7325
G1 X62.995 Y169.441 E.01314
G1 X62.995 Y146.079 E.7325
G1 X62.576 Y146.079 E.01314
G1 X62.576 Y169.441 E.7325
G1 X62.157 Y169.441 E.01314
G1 X62.157 Y146.079 E.7325
G1 X61.738 Y146.079 E.01314
G1 X61.738 Y169.441 E.7325
G1 X61.319 Y169.441 E.01314
G1 X61.319 Y146.079 E.7325
G1 X60.9 Y146.079 E.01314
M73 Q0 S459
G1 X60.9 Y169.441 E.7325
G1 X60.481 Y169.441 E.01314
G1 X60.481 Y146.079 E.7325
G1 X60.062 Y146.079 E.01314
G1 X60.062 Y169.441 E.7325
G1 X59.643 Y169.441 E.01314
G1 X59.643 Y146.079 E.7325
G1 X59.224 Y146.079 E.01314
G1 X59.224 Y169.441 E.7325
G1 X58.805 Y169.441 E.01314
G1 X58.805 Y146.079 E.7325
G1 X58.386 Y146.079 E.01314
G1 X58.386 Y169.441 E.7325
G1 X57.967 Y169.441 E.01314
G1 X57.967 Y146.079 E.7325
G1 X57.548 Y146.079 E.01314
G1 X57.548 Y169.441 E.7325
G1 X57.129 Y169.441 E.01314
G1 X57.129 Y146.079 E.7325
G1 X56.71 Y146.079 E.01314
G1 X56.71 Y169.441 E.7325
G1 X56.291 Y169.441 E.01314
G1 X56.291 Y146.079 E.7325
G1 X55.872 Y146.079 E.01314
G1 X55.872 Y169.441 E.7325
G1 X55.453 Y169.441 E.01314
G1 X55.453 Y146.079 E.7325
G1 X55.034 Y146.079 E.01314
G1 X55.034 Y169.441 E.7325
G1 X54.615 Y169.441 E.01314
G1 X54.615 Y146.079 E.7325
G1 X54.196 Y146.079 E.01314
G1 X54.196 Y169.441 E.7325
G1 X53.777 Y169.441 E.01314
G1 X53.777 Y146.079 E.7325
G1 X53.358 Y146.079 E.01314
G1 X53.358 Y169.441 E.7325
G1 X52.939 Y169.441 E.01314
G1 X52.939 Y146.079 E.7325
G1 X52.52 Y146.079 E.01314
G1 X52.52 Y169.441 E.7325
G1 X52.101 Y169.441 E.01314
G1 X52.101 Y146.079 E.7325
G1 X51.682 Y146.079 E.01314
G1 X51.682 Y169.441 E.7325
G1 X51.264 Y169.441 E.01311
G1 X51.264 Y146.079 E.7325
G1 X50.845 Y146.079 E.01314
G1 X50.845 Y169.441 E.7325
G1 X50.426 Y169.441 E.01314
G1 X50.426 Y146.079 E.7325
G1 X50.007 Y146.079 E.01314
G1 X50.007 Y169.441 E.7325
G1 X49.588 Y169.441 E.01314
G1 X49.588 Y146.079 E.7325
G1 X49.169 Y146.079 E.01314
G1 X49.169 Y169.441 E.7325
G1 X48.75 Y169.441 E.01314
G1 X48.75 Y146.079 E.7325
G1 X48.331 Y146.079 E.01314
G1 X48.331 Y169.441 E.7325
G1 X47.912 Y169.441 E.01314
G1 X47.912 Y146.079 E.7325
G1 X47.493 Y146.079 E.01314
G1 X47.493 Y169.441 E.7325
G1 X47.074 Y169.441 E.01314
G1 X47.074 Y146.079 E.7325
G1 X46.655 Y146.079 E.01314
M73 P0 R436
G1 X46.655 Y169.441 E.7325
G1 X46.236 Y169.441 E.01314
G1 X46.236 Y146.079 E.7325
G1 X45.817 Y146.079 E.01314
M73 P1 R436
G1 X45.817 Y169.441 E.7325
G1 X45.398 Y169.441 E.01314
G1 X45.398 Y146.079 E.7325
G1 X44.979 Y146.079 E.01314
G1 X44.979 Y169.441 E.7325
G1 X44.56 Y169.441 E.01314
G1 X44.56 Y146.079 E.7325
G1 X44.141 Y146.079 E.01314
G1 X44.141 Y169.441 E.7325
G1 X43.722 Y169.441 E.01314
G1 X43.722 Y146.079 E.7325
G1 X43.303 Y146.079 E.01314
G1 X43.303 Y169.441 E.7325
G1 X42.884 Y169.441 E.01314
G1 X42.884 Y146.079 E.7325
G1 X42.465 Y146.079 E.01314
G1 X42.465 Y169.441 E.7325
G1 X42.046 Y169.441 E.01314
G1 X42.046 Y146.079 E.7325
G1 X41.627 Y146.079 E.01314
G1 X41.627 Y169.441 E.7325
G1 X41.208 Y169.441 E.01314
M73 Q1 S459
G1 X41.208 Y146.079 E.7325
G1 X40.789 Y146.079 E.01314
G1 X40.789 Y169.441 E.7325
G1 X40.37 Y169.441 E.01314
M73 Q1 S458
G1 X40.37 Y146.079 E.7325
G1 X39.951 Y146.079 E.01314
G1 X39.951 Y169.441 E.7325
G1 X39.532 Y169.441 E.01314
G1 X39.532 Y146.079 E.7325
G1 X39.113 Y146.079 E.01314
G1 X39.113 Y169.61 E.7378
M204 S1000
;WIPE_START
G1 F8640
G1 X39.113 Y166.145 E-.8
;WIPE_END
G1 Z.6 F720
G1 X194.733 Y37.025 F10800
G1 Z.2 F720
G1 E.8 F2100
M204 S800
;TYPE:Perimeter
;WIDTH:0.419999
G1 F1200
G1 X194.819 Y37.047 E.00278
G1 X221.284 Y37.047 E.82979
G1 X221.284 Y93.473 E1.76919
G1 X194.819 Y93.473 E.82979
G1 X194.526 Y93.555 E.00954
G1 X194.326 Y93.761 E.009
G1 X194.254 Y94.038 E.00897
G1 X194.256 Y116.53 E.70522
G1 X194.352 Y116.801 E.00901
G1 X194.553 Y116.98 E.00844
G1 X194.819 Y117.047 E.0086
G1 X221.284 Y117.047 E.82979
G1 X221.292 Y145.505 E.89228
G1 X221.413 Y145.768 E.00908
G1 X221.632 Y145.93 E.00854
G1 X233.284 Y150.785 E.39578
G1 X233.284 Y153.299 E.07882
G1 X233.284 Y169.735 E.51534
G1 X222.438 Y174.254 E.36841
G1 X221.518 Y174.654 E.03145
G1 X221.349 Y174.848 E.00807
G1 X221.284 Y175.112 E.00852
G1 X221.284 Y199.473 E.76382
G1 X133.858 Y199.473 E2.74118
G1 X133.857 Y128.453 E2.22678
G1 X133.771 Y128.188 E.00874
G1 X133.564 Y127.992 E.00894
G1 X133.292 Y127.923 E.0088
G1 X110.827 Y127.923 E.70437
G1 X110.554 Y128.006 E.00895
G1 X110.356 Y128.212 E.00896
G1 X110.284 Y128.488 E.00894
G1 X110.284 Y199.473 E2.22568
G1 X22.858 Y199.473 E2.74118
G1 X22.847 Y175.005 E.76718
G1 X22.734 Y174.759 E.00849
G1 X22.51 Y174.59 E.0088
G1 X10.858 Y169.735 E.39578
G1 X10.858 Y150.785 E.59416
G1 X21.79 Y146.229 E.37134
G1 X22.622 Y145.867 E.02845
G1 X22.788 Y145.68 E.00784
G1 X22.858 Y145.408 E.00881
G1 X22.858 Y117.047 E.88924
G1 X49.322 Y117.047 E.82976
G1 X49.614 Y116.966 E.0095
M73 P1 R435
G1 X49.814 Y116.76 E.009
G1 X49.888 Y116.481 E.00905
G1 X49.887 Y94.011 E.70453
G1 X49.803 Y93.741 E.00887
G1 X49.596 Y93.543 E.00898
G1 X49.322 Y93.473 E.00887
G1 X22.858 Y93.473 E.82976
G1 X22.858 Y37.047 E1.76919
G1 X49.322 Y37.047 E.82976
G1 X49.616 Y36.965 E.00957
G1 X49.815 Y36.759 E.00898
G1 X49.888 Y36.481 E.00901
G1 X49.878 Y13.936 E.70688
G1 X49.775 Y13.699 E.0081
G1 X49.588 Y13.539 E.00772
G1 X49.322 Y13.473 E.00859
G1 X22.858 Y13.473 E.82976
G1 X22.858 Y5.047 E.26419
G1 X221.284 Y5.047 E6.2215
G1 X221.284 Y13.473 E.26419
M73 Q1 S457
G1 X194.819 Y13.473 E.82979
G1 X194.726 Y13.481 E.00293
G1 X194.48 Y13.586 E.00839
G1 X194.327 Y13.76 E.00726
G1 X194.254 Y14.038 E.00901
G1 X194.254 Y36.481 E.70368
G1 X194.338 Y36.779 E.00971
G1 X194.545 Y36.976 E.00896
G1 X194.675 Y37.01 E.00421
M204 S1000
G1 X194.675 Y37.01 F10800
G1 X194.819 Y36.67
M204 S800
;TYPE:External perimeter
G1 F1200
G1 X221.661 Y36.67 E.84161
G1 X221.661 Y93.85 E1.79284
G1 X194.819 Y93.85 E.84161
