; generated by PrusaSlicer 2.6.0+win64 on 2024-02-02 at 10:41:07 UTC


;
;
; 

; external perimeters extrusion width = 0.45mm
; perimeters extrusion width = 0.45mm
; infill extrusion width = 0.45mm
; solid infill extrusion width = 0.45mm
; top infill extrusion width = 0.40mm
; support material extrusion width = 0.35mm
; first layer extrusion width = 0.42mm

M73 P0 R494
M73 Q0 S523
M201 X1000 Y1000 Z200 E5000 ; sets maximum accelerations, mm/sec^2
M203 X200 Y200 Z12 E120 ; sets maximum feedrates, mm / sec
M204 S1250 T1250 ; sets acceleration (S) and retract acceleration (R), mm/sec^2
M205 X8.00 Y8.00 Z0.40 E4.50 ; sets the jerk limits, mm/sec
M205 S0 T0 ; sets the minimum extruding and travel feed rate, mm/sec
;TYPE:Custom
M862.3 P "MK3S" ; printer model check
M862.1 P0.4 ; nozzle diameter check
M115 U3.12.2 ; tell printer latest fw version
G90 ; use absolute coordinates
M83 ; extruder relative mode
M104 S215 ; set extruder temp
M140 S60 ; set bed temp
M190 S60 ; wait for bed temp
M109 S215 ; wait for extruder temp
G28 W ; home all without mesh bed level
G80 ; mesh bed leveling

G1 Z0.2 F720
G1 Y-3 F1000 ; go outside print area
G92 E0
G1 X60 E9 F1000 ; intro line
G1 X100 E12.5 F1000 ; intro line

G92 E0
M221 S95

; Don't change E values below. Excessive value can damage the printer.

M907 E538 ; set extruder motor current
G21 ; set units to millimeters
G90 ; use absolute coordinates
M83 ; use relative distances for extrusion
M900 K0.05 ; Filament gcode LA 1.5
M900 K30 ; Filament gcode LA 1.0
M107
;LAYER_CHANGE
;Z:0.2
;HEIGHT:0.2
;BEFORE_LAYER_CHANGE
G92 E0.0
;0.2


G1 E-.8 F2100
G1 Z.4 F720
;AFTER_LAYER_CHANGE
;0.2
G1 X24.623 Y5 F10800
G1 Z.2 F720
G1 E.8 F2100
M204 S800
;TYPE:Skirt/Brim
;WIDTH:0.42
G1 F1200
G1 X25.015 Y3.693 E.04278
G1 X26.06 Y2.817 E.04275
G1 X27 Y2.623 E.03009
G1 X223 Y2.623 E6.14544
G1 X224.307 Y3.015 E.04278
G1 X225.183 Y4.06 E.04275
G1 X225.377 Y5 E.03009
G1 X225.377 Y205 E6.27086
G1 X224.985 Y206.307 E.04278
G1 X223.94 Y207.183 E.04275
G1 X223 Y207.377 E.03009
G1 X27 Y207.377 E6.14544
G1 X25.693 Y206.985 E.04278
M73 Q0 S522
G1 X24.817 Y205.94 E.04275
G1 X24.623 Y205 E.03009
G1 X24.623 Y5.06 E6.26898
M204 S1000
; printing object 2a_bed.stl id:0 copy 0
;WIPE_START
G1 F8640
G1 X25.015 Y3.693 E-.32837
G1 X26.06 Y2.817 E-.31486
G1 X26.725 Y2.68 E-.15677
;WIPE_END
G1 Z.6 F720
G1 X81.52 Y60.52 F10800
G1 Z.2 F720
G1 E.8 F2100
M204 S800
;TYPE:Support material
G1 F1200
G1 X57.48 Y60.52 E.75376
G1 X57.48 Y21.48 E1.22407
G1 X81.52 Y21.48 E.75376
G1 X81.52 Y60.463 E1.22228
M204 S1000
G1 X81.007 Y60.35 F10800
M204 S800
G1 F1200
G1 X81.007 Y21.819 E1.20811
G1 X80.588 Y21.819 E.01314
G1 X80.588 Y60.181 E1.20281
G1 X80.169 Y60.181 E.01314
M73 P0 R493
G1 X80.169 Y21.819 E1.20281
G1 X79.75 Y21.819 E.01314
G1 X79.75 Y60.181 E1.20281
G1 X79.332 Y60.181 E.01311
G1 X79.332 Y21.819 E1.20281
G1 X78.913 Y21.819 E.01314
G1 X78.913 Y60.181 E1.20281
G1 X78.494 Y60.181 E.01314
G1 X78.494 Y21.819 E1.20281
G1 X78.075 Y21.819 E.01314
G1 X78.075 Y60.181 E1.20281
G1 X77.656 Y60.181 E.01314
G1 X77.656 Y21.819 E1.20281
G1 X77.237 Y21.819 E.01314
G1 X77.237 Y60.181 E1.20281
G1 X76.818 Y60.181 E.01314
G1 X76.818 Y21.819 E1.20281
G1 X76.399 Y21.819 E.01314
G1 X76.399 Y60.181 E1.20281
G1 X75.98 Y60.181 E.01314
G1 X75.98 Y21.819 E1.20281
G1 X75.561 Y21.819 E.01314
G1 X75.561 Y60.181 E1.20281
G1 X75.142 Y60.181 E.01314
G1 X75.142 Y21.819 E1.20281
G1 X74.723 Y21.819 E.01314
G1 X74.723 Y60.181 E1.20281
G1 X74.304 Y60.181 E.01314
G1 X74.304 Y21.819 E1.20281
G1 X73.885 Y21.819 E.01314
G1 X73.885 Y60.181 E1.20281
G1 X73.466 Y60.181 E.01314
G1 X73.466 Y21.819 E1.20281
G1 X73.047 Y21.819 E.01314
M73 Q0 S521
G1 X73.047 Y60.181 E1.20281
G1 X72.628 Y60.181 E.01314
G1 X72.628 Y21.819 E1.20281
G1 X72.209 Y21.819 E.01314
G1 X72.209 Y60.181 E1.20281
G1 X71.79 Y60.181 E.01314
G1 X71.79 Y21.819 E1.20281
G1 X71.371 Y21.819 E.01314
G1 X71.371 Y60.181 E1.20281
G1 X70.952 Y60.181 E.01314
G1 X70.952 Y21.819 E1.20281
G1 X70.533 Y21.819 E.01314
G1 X70.533 Y60.181 E1.20281
G1 X70.114 Y60.181 E.01314
G1 X70.114 Y21.819 E1.20281
G1 X69.695 Y21.819 E.01314
G1 X69.695 Y60.181 E1.20281
G1 X69.276 Y60.181 E.01314
G1 X69.276 Y21.819 E1.20281
G1 X68.857 Y21.819 E.01314
G1 X68.857 Y60.181 E1.20281
G1 X68.438 Y60.181 E.01314
G1 X68.438 Y21.819 E1.20281
G1 X68.019 Y21.819 E.01314
G1 X68.019 Y60.181 E1.20281
G1 X67.6 Y60.181 E.01314
G1 X67.6 Y21.819 E1.20281
G1 X67.181 Y21.819 E.01314
M73 P0 R492
G1 X67.181 Y60.181 E1.20281
G1 X66.762 Y60.181 E.01314
G1 X66.762 Y21.819 E1.20281
G1 X66.343 Y21.819 E.01314
G1 X66.343 Y60.181 E1.20281
G1 X65.924 Y60.181 E.01314
G1 X65.924 Y21.819 E1.20281
G1 X65.505 Y21.819 E.01314
G1 X65.505 Y60.181 E1.20281
G1 X65.086 Y60.181 E.01314
G1 X65.086 Y21.819 E1.20281
G1 X64.667 Y21.819 E.01314
G1 X64.667 Y60.181 E1.20281
G1 X64.248 Y60.181 E.01314
G1 X64.248 Y21.819 E1.20281
G1 X63.829 Y21.819 E.01314
G1 X63.829 Y60.181 E1.20281
G1 X63.41 Y60.181 E.01314
G1 X63.41 Y21.819 E1.20281
G1 X62.991 Y21.819 E.01314
G1 X62.991 Y60.181 E1.20281
G1 X62.572 Y60.181 E.01314
G1 X62.572 Y21.819 E1.20281
G1 X62.153 Y21.819 E.01314
G1 X62.153 Y60.181 E1.20281
G1 X61.734 Y60.181 E.01314
G1 X61.734 Y21.819 E1.20281
G1 X61.316 Y21.819 E.01311
G1 X61.316 Y60.181 E1.20281
G1 X60.897 Y60.181 E.01314
G1 X60.897 Y21.819 E1.20281
G1 X60.478 Y21.819 E.01314
M73 Q0 S520
G1 X60.478 Y60.181 E1.20281
G1 X60.059 Y60.181 E.01314
G1 X60.059 Y21.819 E1.20281
G1 X59.64 Y21.819 E.01314
G1 X59.64 Y60.181 E1.20281
G1 X59.221 Y60.181 E.01314
G1 X59.221 Y21.819 E1.20281
G1 X58.802 Y21.819 E.01314
G1 X58.802 Y60.181 E1.20281
G1 X58.383 Y60.181 E.01314
G1 X58.383 Y21.819 E1.20281
G1 X57.964 Y21.819 E.01314
G1 X57.964 Y60.35 E1.20811
M204 S1000
;WIPE_START
G1 F8640
G1 X57.964 Y56.885 E-.8
;WIPE_END
G1 Z.6 F720
G1 X81.52 Y188.52 F10800
G1 Z.2 F720
G1 E.8 F2100
M204 S800
G1 F1200
G1 X57.48 Y188.52 E.75376
G1 X57.48 Y149.48 E1.22407
G1 X81.52 Y149.48 E.75376
G1 X81.52 Y188.463 E1.22228
M204 S1000
G1 X81.007 Y188.35 F10800
M204 S800
G1 F1200
G1 X81.007 Y149.819 E1.20811
G1 X80.588 Y149.819 E.01314
G1 X80.588 Y188.181 E1.20281
G1 X80.169 Y188.181 E.01314
G1 X80.169 Y149.819 E1.20281
G1 X79.75 Y149.819 E.01314
G1 X79.75 Y188.181 E1.20281
G1 X79.332 Y188.181 E.01311
M73 P0 R491
G1 X79.332 Y149.819 E1.20281
G1 X78.913 Y149.819 E.01314
G1 X78.913 Y188.181 E1.20281
G1 X78.494 Y188.181 E.01314
G1 X78.494 Y149.819 E1.20281
G1 X78.075 Y149.819 E.01314
G1 X78.075 Y188.181 E1.20281
G1 X77.656 Y188.181 E.01314
G1 X77.656 Y149.819 E1.20281
G1 X77.237 Y149.819 E.01314
G1 X77.237 Y188.181 E1.20281
G1 X76.818 Y188.181 E.01314
G1 X76.818 Y149.819 E1.20281
G1 X76.399 Y149.819 E.01314
G1 X76.399 Y188.181 E1.20281
G1 X75.98 Y188.181 E.01314
G1 X75.98 Y149.819 E1.20281
G1 X75.561 Y149.819 E.01314
G1 X75.561 Y188.181 E1.20281
G1 X75.142 Y188.181 E.01314
G1 X75.142 Y149.819 E1.20281
G1 X74.723 Y149.819 E.01314
G1 X74.723 Y188.181 E1.20281
G1 X74.304 Y188.181 E.01314
G1 X74.304 Y149.819 E1.20281
G1 X73.885 Y149.819 E.01314
G1 X73.885 Y188.181 E1.20281
G1 X73.466 Y188.181 E.01314
G1 X73.466 Y149.819 E1.20281
G1 X73.047 Y149.819 E.01314
G1 X73.047 Y188.181 E1.20281
G1 X72.628 Y188.181 E.01314
M73 Q0 S519
G1 X72.628 Y149.819 E1.20281
G1 X72.209 Y149.819 E.01314
G1 X72.209 Y188.181 E1.20281
G1 X71.79 Y188.181 E.01314
G1 X71.79 Y149.819 E1.20281
G1 X71.371 Y149.819 E.01314
G1 X71.371 Y188.181 E1.20281
G1 X70.952 Y188.181 E.01314
G1 X70.952 Y149.819 E1.20281
G1 X70.533 Y149.819 E.01314
G1 X70.533 Y188.181 E1.20281
G1 X70.114 Y188.181 E.01314
G1 X70.114 Y149.819 E1.20281
G1 X69.695 Y149.819 E.01314
G1 X69.695 Y188.181 E1.20281
G1 X69.276 Y188.181 E.01314
G1 X69.276 Y149.819 E1.20281
G1 X68.857 Y149.819 E.01314
G1 X68.857 Y188.181 E1.20281
G1 X68.438 Y188.181 E.01314
G1 X68.438 Y149.819 E1.20281
G1 X68.019 Y149.819 E.01314
G1 X68.019 Y188.181 E1.20281
G1 X67.6 Y188.181 E.01314
G1 X67.6 Y149.819 E1.20281
G1 X67.181 Y149.819 E.01314
G1 X67.181 Y188.181 E1.20281
G1 X66.762 Y188.181 E.01314
G1 X66.762 Y149.819 E1.20281
G1 X66.343 Y149.819 E.01314
M73 P0 R490
G1 X66.343 Y188.181 E1.20281
G1 X65.924 Y188.181 E.01314
G1 X65.924 Y149.819 E1.20281
G1 X65.505 Y149.819 E.01314
G1 X65.505 Y188.181 E1.20281
G1 X65.086 Y188.181 E.01314
G1 X65.086 Y149.819 E1.20281
G1 X64.667 Y149.819 E.01314
G1 X64.667 Y188.181 E1.20281
G1 X64.248 Y188.181 E.01314
G1 X64.248 Y149.819 E1.20281
G1 X63.829 Y149.819 E.01314
G1 X63.829 Y188.181 E1.20281
G1 X63.41 Y188.181 E.01314
G1 X63.41 Y149.819 E1.20281
G1 X62.991 Y149.819 E.01314
G1 X62.991 Y188.181 E1.20281
G1 X62.572 Y188.181 E.01314
G1 X62.572 Y149.819 E1.20281
G1 X62.153 Y149.819 E.01314
G1 X62.153 Y188.181 E1.20281
G1 X61.734 Y188.181 E.01314
G1 X61.734 Y149.819 E1.20281
G1 X61.315 Y149.819 E.01314
G1 X61.315 Y188.181 E1.20281
G1 X60.897 Y188.181 E.01311
G1 X60.897 Y149.819 E1.20281
G1 X60.478 Y149.819 E.01314
G1 X60.478 Y188.181 E1.20281
G1 X60.059 Y188.181 E.01314
G1 X60.059 Y149.819 E1.20281
G1 X59.64 Y149.819 E.01314
M73 Q0 S518
G1 X59.64 Y188.181 E1.20281
G1 X59.221 Y188.181 E.01314
G1 X59.221 Y149.819 E1.20281
G1 X58.802 Y149.819 E.01314
G1 X58.802 Y188.181 E1.20281
G1 X58.383 Y188.181 E.01314
G1 X58.383 Y149.819 E1.20281
G1 X57.964 Y149.819 E.01314
G1 X57.964 Y188.35 E1.20811
M204 S1000
;WIPE_START
G1 F8640
G1 X57.964 Y184.885 E-.8
;WIPE_END
G1 Z.6 F720
G1 X213.767 Y32.334 F10800
G1 Z.2 F720
G1 E.8 F2100
M204 S800
;TYPE:Perimeter
;WIDTH:0.419999
G1 F1200
G1 X213.787 Y32.251 E.00268
G1 X213.787 Y5.787 E.82976
G1 X222.213 Y5.787 E.26419
G1 X222.213 Y204.213 E6.2215
G1 X213.787 Y204.213 E.26419
G1 X213.787 Y177.749 E.82976
G1 X213.779 Y177.655 E.00296
G1 X213.674 Y177.409 E.00839
G1 X213.5 Y177.256 E.00726
G1 X213.221 Y177.183 E.00904
G1 X190.779 Y177.183 E.70365
G1 X190.481 Y177.268 E.00972
M73 P1 R490
G1 X190.284 Y177.475 E.00896
G1 X190.213 Y177.749 E.00887
G1 X190.213 Y204.213 E.82976
G1 X133.787 Y204.213 E1.76919
M73 P1 R489
G1 X133.787 Y177.731 E.83032
G1 X133.705 Y177.455 E.00903
G1 X133.499 Y177.256 E.00898
G1 X133.221 Y177.183 E.00901
G1 X110.729 Y177.185 E.70522
G1 X110.459 Y177.282 E.009
G1 X110.279 Y177.482 E.00844
G1 X110.213 Y177.749 E.00862
G1 X110.213 Y204.213 E.82976
G1 X27.787 Y204.213 E2.58441
G1 X27.787 Y116.787 E2.74118
G1 X98.807 Y116.786 E2.22678
M73 Q1 S518
G1 X99.072 Y116.701 E.00873
G1 X99.268 Y116.493 E.00896
G1 X99.337 Y116.221 E.0088
G1 X99.337 Y93.779 E.70365
G1 X99.254 Y93.483 E.00964
G1 X99.048 Y93.285 E.00896
G1 X98.771 Y93.213 E.00897
G1 X27.787 Y93.213 E2.22565
G1 X27.787 Y5.787 E2.74118
G1 X110.213 Y5.787 E2.58441
G1 X110.213 Y32.251 E.82976
M73 Q1 S517
G1 X110.294 Y32.543 E.0095
G1 X110.5 Y32.744 E.00902
G1 X110.779 Y32.817 E.00904
G1 X133.249 Y32.816 E.70453
G1 X133.519 Y32.732 E.00887
G1 X133.716 Y32.525 E.00896
G1 X133.787 Y32.251 E.00887
G1 X133.787 Y5.787 E.82976
G1 X190.213 Y5.787 E1.76919
G1 X190.213 Y32.251 E.82976
G1 X190.295 Y32.545 E.00957
G1 X190.501 Y32.744 E.00898
G1 X190.779 Y32.817 E.00901
G1 X213.221 Y32.817 E.70365
G1 X213.323 Y32.808 E.00321
G1 X213.561 Y32.704 E.00814
G1 X213.721 Y32.518 E.00769
G1 X213.752 Y32.392 E.00407
M204 S1000
G1 X213.41 Y32.251 F10800
M204 S800
;TYPE:External perimeter
G1 F1200
G1 X213.41 Y5.41 E.84158
G1 X222.59 Y5.41 E.28783
G1 X222.59 Y204.59 E6.24514
G1 X213.41 Y204.59 E.28783
G1 X213.41 Y177.749 E.84158
G1 X213.354 Y177.615 E.00455
G1 X213.221 Y177.56 E.00451
G1 X190.779 Y177.56 E.70365
G1 X190.66 Y177.602 E.00396
G1 X190.59 Y177.749 E.0051
G1 X190.59 Y204.59 E.84158
G1 X133.41 Y204.59 E1.79284
G1 X133.41 Y177.749 E.84158
M73 P1 R488
G1 X133.369 Y177.631 E.00392
G1 X133.225 Y177.56 E.00503
G1 X110.779 Y177.56 E.70378
G1 X110.659 Y177.603 E.004
G1 X110.59 Y177.749 E.00506
G1 X110.59 Y204.59 E.84158
G1 X27.41 Y204.59 E2.60805
G1 X27.41 Y116.41 E2.76482
G1 X98.771 Y116.41 E2.23747
G1 X98.89 Y116.368 E.00396
G1 X98.96 Y116.224 E.00502
G1 X98.96 Y93.779 E.70375
G1 X98.916 Y93.658 E.00404
G1 X98.771 Y93.59 E.00502
G1 X27.41 Y93.59 E2.23747
G1 X27.41 Y5.41 E2.76482
G1 X110.59 Y5.41 E2.60805
G1 X110.59 Y32.251 E.84158
G1 X110.634 Y32.372 E.00404
M73 Q1 S516
G1 X110.779 Y32.44 E.00502
G1 X133.221 Y32.44 E.70365
G1 X133.34 Y32.398 E.00396
G1 X133.41 Y32.251 E.0051
G1 X133.41 Y5.41 E.84158
G1 X190.59 Y5.41 E1.79284
G1 X190.59 Y32.251 E.84158
G1 X190.633 Y32.371 E.004
G1 X190.779 Y32.44 E.00506
G1 X213.221 Y32.44 E.70365
G1 X213.354 Y32.385 E.00451
G1 X213.387 Y32.307 E.00266
M204 S1000
G1 X213.796 Y32.148 F10800
;WIPE_START
G1 F8640
G1 X213.39 Y28.842 E-.8
;WIPE_END
G1 Z.6 F720
G1 X82.765 Y61.308 F10800
G1 Z.2 F720
G1 E.8 F2100
M204 S800
;TYPE:Perimeter
G1 F1200
G1 X82.716 Y61.497 E.00612
G1 X82.524 Y61.699 E.00874
G1 X82.221 Y61.787 E.00989
G1 X56.779 Y61.787 E.79771
G1 X56.514 Y61.721 E.00856
G1 X56.304 Y61.529 E.00892
G1 X56.216 Y61.282 E.00822
G1 X56.213 Y61.221 E.00191
G1 X56.213 Y20.779 E1.26803
G1 X56.288 Y20.498 E.00912
G1 X56.453 Y20.316 E.0077
G1 X56.719 Y20.216 E.00891
G1 X56.779 Y20.213 E.00188
G1 X82.221 Y20.213 E.79771
G1 X82.492 Y20.282 E.00877
G1 X82.704 Y20.483 E.00916
G1 X82.787 Y20.779 E.00964
G1 X82.78 Y61.25 E1.26894
M204 S1000
G1 X82.41 Y61.221 F10800
M204 S800
;TYPE:External perimeter
G1 F1200
G1 X82.342 Y61.366 E.00502
G1 X82.221 Y61.41 E.00404
G1 X56.779 Y61.41 E.79771
G1 X56.637 Y61.346 E.00488
G1 X56.59 Y61.221 E.00419
G1 X56.59 Y20.779 E1.26803
G1 X56.656 Y20.635 E.00497
G1 X56.779 Y20.59 E.00411
G1 X82.221 Y20.59 E.79771
G1 X82.364 Y20.655 E.00493
G1 X82.41 Y20.779 E.00415
G1 X82.41 Y61.161 E1.26615
M204 S1000
G1 X82.52 Y61.338 F10800
;WIPE_START
G1 F8640
G1 X82.342 Y61.366 E-.04987
G1 X82.221 Y61.41 E-.02973
G1 X79.101 Y61.41 E-.7204
;WIPE_END
G1 Z.6 F720
G1 X82.301 Y189.767 F10800
G1 Z.2 F720
G1 E.8 F2100
M204 S800
;TYPE:Perimeter
G1 F1200
G1 X82.221 Y189.787 E.00259
G1 X56.779 Y189.787 E.79771
G1 X56.5 Y189.714 E.00904
G1 X56.312 Y189.541 E.00801
G1 X56.216 Y189.283 E.00863
G1 X56.213 Y189.221 E.00195
G1 X56.213 Y148.779 E1.26803
G1 X56.276 Y148.52 E.00836
G1 X56.469 Y148.305 E.00906
G1 X56.723 Y148.216 E.00844
G1 X56.779 Y148.213 E.00176
G1 X82.221 Y148.213 E.79771
G1 X82.48 Y148.276 E.00836
G1 X82.689 Y148.46 E.00873
G1 X82.784 Y148.724 E.0088
G1 X82.787 Y189.221 E1.26975
G1 X82.781 Y189.303 E.00258
M73 P1 R487
G1 X82.679 Y189.554 E.00849
G1 X82.492 Y189.718 E.0078
G1 X82.359 Y189.752 E.0043
M204 S1000
G1 X82.221 Y189.41 F10800
M204 S800
;TYPE:External perimeter
G1 F1200
G1 X56.779 Y189.41 E.79771
G1 X56.632 Y189.341 E.00509
G1 X56.59 Y189.221 E.00399
G1 X56.59 Y148.779 E1.26803
G1 X56.655 Y148.636 E.00493
G1 X56.779 Y148.59 E.00415
G1 X82.221 Y148.59 E.79771
G1 X82.365 Y148.656 E.00497
G1 X82.41 Y148.779 E.00411
G1 X82.41 Y189.221 E1.26803
G1 X82.327 Y189.378 E.00557
G1 X82.279 Y189.392 E.00157
M204 S1000
G1 X82.118 Y189.796 F10800
;WIPE_START
G1 F8640
G1 X78.814 Y189.394 E-.8
;WIPE_END
G1 Z.6 F720
G1 X109.21 Y5.957 F10800
G1 Z.2 F720
G1 E.8 F2100
M204 S800
;TYPE:Solid infill
;WIDTH:0.420282
G1 F1200
G1 X109.874 Y6.621 E.02946
G1 X109.874 Y7.154 E.01672
G1 X108.846 Y6.126 E.04562
G1 X108.312 Y6.126 E.01676
G1 X109.874 Y7.688 E.06931
G1 X109.874 Y8.222 E.01676
G1 X107.778 Y6.126 E.09301
G1 X107.245 Y6.126 E.01672
G1 X109.874 Y8.755 E.11666
G1 X109.874 Y9.289 E.01676
G1 X106.711 Y6.126 E.14036
G1 X106.177 Y6.126 E.01676
G1 X109.874 Y9.823 E.16405
G1 X109.874 Y10.356 E.01672
G1 X105.644 Y6.126 E.18771
G1 X105.11 Y6.126 E.01676
G1 X109.874 Y10.89 E.2114
G1 X109.874 Y11.424 E.01676
G1 X104.576 Y6.126 E.2351
G1 X104.043 Y6.126 E.01672
G1 X109.874 Y11.957 E.25875
G1 X109.874 Y12.491 E.01676
G1 X103.509 Y6.126 E.28245
G1 X102.975 Y6.126 E.01676
G1 X109.874 Y13.025 E.30614
G1 X109.874 Y13.558 E.01672
G1 X102.442 Y6.126 E.32979
G1 X101.908 Y6.126 E.01676
G1 X109.874 Y14.092 E.35349
G1 X109.874 Y14.626 E.01676
G1 X101.374 Y6.126 E.37719
G1 X100.841 Y6.126 E.01672
G1 X109.874 Y15.159 E.40084
G1 X109.874 Y15.693 E.01676
G1 X100.307 Y6.126 E.42453
G1 X99.773 Y6.126 E.01676
G1 X109.874 Y16.227 E.44823
G1 X109.874 Y16.76 E.01672
G1 X99.24 Y6.126 E.47188
G1 X98.706 Y6.126 E.01676
G1 X109.874 Y17.294 E.49558
G1 X109.874 Y17.828 E.01676
G1 X98.172 Y6.126 E.51927
