; generated by PrusaSlicer 2.7.3+win64 on 2024-04-09 at 19:20:30 UTC


;
;
; 

; external perimeters extrusion width = 0.45mm
; perimeters extrusion width = 0.45mm
; infill extrusion width = 0.45mm
; solid infill extrusion width = 0.45mm
; top infill extrusion width = 0.40mm
; support material extrusion width = 0.35mm
; first layer extrusion width = 0.42mm

M73 P0 R366
M73 Q0 S383
M201 X1000 Y1000 Z200 E5000 ; sets maximum accelerations, mm/sec^2
M203 X200 Y200 Z12 E120 ; sets maximum feedrates, mm / sec
M204 S1250 T1250 ; sets acceleration (S) and retract acceleration (R), mm/sec^2
M205 X8.00 Y8.00 Z0.40 E4.50 ; sets the jerk limits, mm/sec
M205 S0 T0 ; sets the minimum extruding and travel feed rate, mm/sec

; printing object 5_plate_right.stl id:0 copy 0
; stop printing object 5_plate_right.stl id:0 copy 0

;TYPE:Custom
M862.3 P "MK3S" ; printer model check
M862.1 P0.4 ; nozzle diameter check
M115 U3.12.2 ; tell printer latest fw version
G90 ; use absolute coordinates
M83 ; extruder relative mode
M104 S215 ; set extruder temp
M140 S60 ; set bed temp
M190 S60 ; wait for bed temp
M109 S215 ; wait for extruder temp
G28 W ; home all without mesh bed level
G80 ; mesh bed leveling

G1 Z0.2 F720
G1 Y-3 F1000 ; go outside print area
G92 E0
G1 X60 E9 F1000 ; intro line
G1 X100 E12.5 F1000 ; intro line

G92 E0
M221 S95

; Don't change E values below. Excessive value can damage the printer.

M907 E538 ; set extruder motor current
G21 ; set units to millimeters
G90 ; use absolute coordinates
M83 ; use relative distances for extrusion
M900 K0.05 ; Filament gcode LA 1.5
M900 K30 ; Filament gcode LA 1.0
M107
;LAYER_CHANGE
;Z:0.2
;HEIGHT:0.2
G1 E-.8 F2100
G1 Z.6 F720
G1 X23.177 Y26.474 F10800
G1 Z.2 F720
G1 E.8 F2100
M204 S800
;TYPE:Skirt/Brim
;WIDTH:0.42
G1 F1200
G1 X24.317 Y25.723 E.0428
G1 X25 Y25.623 E.02164
G1 X225 Y25.623 E6.27086
G1 X226.307 Y26.015 E.04278
M73 Q0 S382
G1 X227.183 Y27.06 E.04275
G1 X227.361 Y27.728 E.02168
G1 X239.377 Y132 E3.29101
G1 X239.377 Y152 E.62709
G1 X239.207 Y152.883 E.02819
G1 X227.207 Y182.883 E1.01309
G1 X226.358 Y183.951 E.04278
G1 X225 Y184.377 E.04462
G1 X25 Y184.377 E6.27086
G1 X23.693 Y183.985 E.04278
M73 P0 R365
G1 X22.793 Y182.883 E.04461
G1 X10.793 Y152.883 E1.01309
G1 X10.623 Y152 E.02819
G1 X10.623 Y132 E.62709
G1 X22.639 Y27.728 E3.29101
G1 X23.154 Y26.529 E.04091
M204 S1000
;WIPE_START
G1 F8640
G1 X23.177 Y26.474 E-.01377
G1 X24.317 Y25.723 E-.31521
G1 X25 Y25.623 E-.15939
G1 X26.35 Y25.623 E-.31163
;WIPE_END
G1 Z.6 F720
; printing object 5_plate_right.stl id:0 copy 0
G1 X208.52 Y151.52 F10800
G1 Z.2 F720
G1 E.8 F2100
M204 S800
;TYPE:Support material
G1 F1200
G1 X169.48 Y151.52 E1.22407
G1 X169.48 Y127.48 E.75376
G1 X208.52 Y127.48 E1.22407
G1 X208.52 Y151.463 E.75197
M204 S1000
G1 X208.52 Y151.463 F10800
G1 X207.957 Y151.35
M204 S800
G1 F1200
G1 X207.957 Y127.819 E.7378
G1 X207.538 Y127.819 E.01314
G1 X207.538 Y151.181 E.7325
G1 X207.119 Y151.181 E.01314
G1 X207.119 Y127.819 E.7325
G1 X206.701 Y127.819 E.01311
G1 X206.701 Y151.181 E.7325
G1 X206.282 Y151.181 E.01314
G1 X206.282 Y127.819 E.7325
G1 X205.863 Y127.819 E.01314
G1 X205.863 Y151.181 E.7325
G1 X205.444 Y151.181 E.01314
G1 X205.444 Y127.819 E.7325
G1 X205.025 Y127.819 E.01314
G1 X205.025 Y151.181 E.7325
G1 X204.606 Y151.181 E.01314
G1 X204.606 Y127.819 E.7325
G1 X204.187 Y127.819 E.01314
G1 X204.187 Y151.181 E.7325
G1 X203.768 Y151.181 E.01314
G1 X203.768 Y127.819 E.7325
G1 X203.349 Y127.819 E.01314
G1 X203.349 Y151.181 E.7325
G1 X202.93 Y151.181 E.01314
G1 X202.93 Y127.819 E.7325
G1 X202.511 Y127.819 E.01314
G1 X202.511 Y151.181 E.7325
G1 X202.092 Y151.181 E.01314
G1 X202.092 Y127.819 E.7325
G1 X201.673 Y127.819 E.01314
G1 X201.673 Y151.181 E.7325
G1 X201.254 Y151.181 E.01314
G1 X201.254 Y127.819 E.7325
G1 X200.835 Y127.819 E.01314
G1 X200.835 Y151.181 E.7325
G1 X200.416 Y151.181 E.01314
G1 X200.416 Y127.819 E.7325
G1 X199.997 Y127.819 E.01314
G1 X199.997 Y151.181 E.7325
G1 X199.578 Y151.181 E.01314
G1 X199.578 Y127.819 E.7325
G1 X199.159 Y127.819 E.01314
M73 Q0 S381
G1 X199.159 Y151.181 E.7325
G1 X198.74 Y151.181 E.01314
G1 X198.74 Y127.819 E.7325
G1 X198.321 Y127.819 E.01314
G1 X198.321 Y151.181 E.7325
G1 X197.902 Y151.181 E.01314
G1 X197.902 Y127.819 E.7325
G1 X197.483 Y127.819 E.01314
G1 X197.483 Y151.181 E.7325
G1 X197.064 Y151.181 E.01314
G1 X197.064 Y127.819 E.7325
G1 X196.645 Y127.819 E.01314
G1 X196.645 Y151.181 E.7325
G1 X196.226 Y151.181 E.01314
G1 X196.226 Y127.819 E.7325
G1 X195.807 Y127.819 E.01314
G1 X195.807 Y151.181 E.7325
G1 X195.388 Y151.181 E.01314
G1 X195.388 Y127.819 E.7325
G1 X194.969 Y127.819 E.01314
G1 X194.969 Y151.181 E.7325
G1 X194.55 Y151.181 E.01314
G1 X194.55 Y127.819 E.7325
G1 X194.131 Y127.819 E.01314
G1 X194.131 Y151.181 E.7325
G1 X193.712 Y151.181 E.01314
G1 X193.712 Y127.819 E.7325
G1 X193.293 Y127.819 E.01314
M73 P0 R364
G1 X193.293 Y151.181 E.7325
G1 X192.874 Y151.181 E.01314
G1 X192.874 Y127.819 E.7325
G1 X192.455 Y127.819 E.01314
G1 X192.455 Y151.181 E.7325
G1 X192.036 Y151.181 E.01314
G1 X192.036 Y127.819 E.7325
G1 X191.617 Y127.819 E.01314
G1 X191.617 Y151.181 E.7325
G1 X191.198 Y151.181 E.01314
G1 X191.198 Y127.819 E.7325
G1 X190.779 Y127.819 E.01314
G1 X190.779 Y151.181 E.7325
G1 X190.36 Y151.181 E.01314
G1 X190.36 Y127.819 E.7325
G1 X189.941 Y127.819 E.01314
G1 X189.941 Y151.181 E.7325
G1 X189.522 Y151.181 E.01314
G1 X189.522 Y127.819 E.7325
G1 X189.103 Y127.819 E.01314
G1 X189.103 Y151.181 E.7325
G1 X188.685 Y151.181 E.01311
G1 X188.685 Y127.819 E.7325
G1 X188.266 Y127.819 E.01314
G1 X188.266 Y151.181 E.7325
G1 X187.847 Y151.181 E.01314
G1 X187.847 Y127.819 E.7325
G1 X187.428 Y127.819 E.01314
G1 X187.428 Y151.181 E.7325
G1 X187.009 Y151.181 E.01314
G1 X187.009 Y127.819 E.7325
G1 X186.59 Y127.819 E.01314
G1 X186.59 Y151.181 E.7325
G1 X186.171 Y151.181 E.01314
G1 X186.171 Y127.819 E.7325
G1 X185.752 Y127.819 E.01314
G1 X185.752 Y151.181 E.7325
G1 X185.333 Y151.181 E.01314
G1 X185.333 Y127.819 E.7325
G1 X184.914 Y127.819 E.01314
G1 X184.914 Y151.181 E.7325
G1 X184.495 Y151.181 E.01314
G1 X184.495 Y127.819 E.7325
G1 X184.076 Y127.819 E.01314
G1 X184.076 Y151.181 E.7325
G1 X183.657 Y151.181 E.01314
G1 X183.657 Y127.819 E.7325
G1 X183.238 Y127.819 E.01314
G1 X183.238 Y151.181 E.7325
G1 X182.819 Y151.181 E.01314
G1 X182.819 Y127.819 E.7325
G1 X182.4 Y127.819 E.01314
G1 X182.4 Y151.181 E.7325
G1 X181.981 Y151.181 E.01314
G1 X181.981 Y127.819 E.7325
G1 X181.562 Y127.819 E.01314
G1 X181.562 Y151.181 E.7325
G1 X181.143 Y151.181 E.01314
G1 X181.143 Y127.819 E.7325
G1 X180.724 Y127.819 E.01314
G1 X180.724 Y151.181 E.7325
G1 X180.305 Y151.181 E.01314
G1 X180.305 Y127.819 E.7325
G1 X179.886 Y127.819 E.01314
G1 X179.886 Y151.181 E.7325
G1 X179.467 Y151.181 E.01314
G1 X179.467 Y127.819 E.7325
G1 X179.048 Y127.819 E.01314
G1 X179.048 Y151.181 E.7325
G1 X178.629 Y151.181 E.01314
G1 X178.629 Y127.819 E.7325
G1 X178.21 Y127.819 E.01314
M73 Q0 S380
G1 X178.21 Y151.181 E.7325
G1 X177.791 Y151.181 E.01314
G1 X177.791 Y127.819 E.7325
G1 X177.372 Y127.819 E.01314
G1 X177.372 Y151.181 E.7325
G1 X176.953 Y151.181 E.01314
G1 X176.953 Y127.819 E.7325
G1 X176.534 Y127.819 E.01314
G1 X176.534 Y151.181 E.7325
G1 X176.115 Y151.181 E.01314
G1 X176.115 Y127.819 E.7325
G1 X175.696 Y127.819 E.01314
G1 X175.696 Y151.181 E.7325
G1 X175.277 Y151.181 E.01314
G1 X175.277 Y127.819 E.7325
G1 X174.858 Y127.819 E.01314
G1 X174.858 Y151.181 E.7325
G1 X174.439 Y151.181 E.01314
G1 X174.439 Y127.819 E.7325
G1 X174.02 Y127.819 E.01314
G1 X174.02 Y151.181 E.7325
G1 X173.601 Y151.181 E.01314
G1 X173.601 Y127.819 E.7325
G1 X173.182 Y127.819 E.01314
G1 X173.182 Y151.181 E.7325
G1 X172.763 Y151.181 E.01314
G1 X172.763 Y127.819 E.7325
G1 X172.344 Y127.819 E.01314
M73 P0 R363
G1 X172.344 Y151.181 E.7325
G1 X171.925 Y151.181 E.01314
G1 X171.925 Y127.819 E.7325
G1 X171.506 Y127.819 E.01314
G1 X171.506 Y151.181 E.7325
G1 X171.087 Y151.181 E.01314
G1 X171.087 Y127.819 E.7325
G1 X170.668 Y127.819 E.01314
G1 X170.668 Y151.181 E.7325
G1 X170.25 Y151.181 E.01311
G1 X170.25 Y127.819 E.7325
G1 X169.831 Y127.819 E.01314
G1 X169.831 Y151.35 E.7378
M204 S1000
;WIPE_START
G1 F8640
G1 X169.831 Y147.885 E-.8
;WIPE_END
G1 Z.6 F720
G1 X80.52 Y151.52 F10800
G1 Z.2 F720
G1 E.8 F2100
M204 S800
G1 F1200
G1 X41.48 Y151.52 E1.22407
G1 X41.48 Y127.48 E.75376
G1 X80.52 Y127.48 E1.22407
G1 X80.52 Y151.463 E.75197
M204 S1000
G1 X80.52 Y151.463 F10800
G1 X80.169 Y151.35
M204 S800
G1 F1200
G1 X80.169 Y127.819 E.7378
G1 X79.75 Y127.819 E.01314
G1 X79.75 Y151.181 E.7325
G1 X79.332 Y151.181 E.01311
G1 X79.332 Y127.819 E.7325
G1 X78.913 Y127.819 E.01314
G1 X78.913 Y151.181 E.7325
G1 X78.494 Y151.181 E.01314
G1 X78.494 Y127.819 E.7325
G1 X78.075 Y127.819 E.01314
G1 X78.075 Y151.181 E.7325
G1 X77.656 Y151.181 E.01314
G1 X77.656 Y127.819 E.7325
G1 X77.237 Y127.819 E.01314
G1 X77.237 Y151.181 E.7325
G1 X76.818 Y151.181 E.01314
G1 X76.818 Y127.819 E.7325
G1 X76.399 Y127.819 E.01314
G1 X76.399 Y151.181 E.7325
G1 X75.98 Y151.181 E.01314
G1 X75.98 Y127.819 E.7325
G1 X75.561 Y127.819 E.01314
G1 X75.561 Y151.181 E.7325
G1 X75.142 Y151.181 E.01314
G1 X75.142 Y127.819 E.7325
G1 X74.723 Y127.819 E.01314
G1 X74.723 Y151.181 E.7325
G1 X74.304 Y151.181 E.01314
G1 X74.304 Y127.819 E.7325
G1 X73.885 Y127.819 E.01314
G1 X73.885 Y151.181 E.7325
G1 X73.466 Y151.181 E.01314
G1 X73.466 Y127.819 E.7325
G1 X73.047 Y127.819 E.01314
G1 X73.047 Y151.181 E.7325
G1 X72.628 Y151.181 E.01314
G1 X72.628 Y127.819 E.7325
G1 X72.209 Y127.819 E.01314
G1 X72.209 Y151.181 E.7325
G1 X71.79 Y151.181 E.01314
G1 X71.79 Y127.819 E.7325
G1 X71.371 Y127.819 E.01314
G1 X71.371 Y151.181 E.7325
G1 X70.952 Y151.181 E.01314
M73 Q0 S379
G1 X70.952 Y127.819 E.7325
G1 X70.533 Y127.819 E.01314
G1 X70.533 Y151.181 E.7325
G1 X70.114 Y151.181 E.01314
G1 X70.114 Y127.819 E.7325
G1 X69.695 Y127.819 E.01314
G1 X69.695 Y151.181 E.7325
G1 X69.276 Y151.181 E.01314
G1 X69.276 Y127.819 E.7325
G1 X68.857 Y127.819 E.01314
G1 X68.857 Y151.181 E.7325
G1 X68.438 Y151.181 E.01314
G1 X68.438 Y127.819 E.7325
G1 X68.019 Y127.819 E.01314
G1 X68.019 Y151.181 E.7325
G1 X67.6 Y151.181 E.01314
G1 X67.6 Y127.819 E.7325
G1 X67.181 Y127.819 E.01314
G1 X67.181 Y151.181 E.7325
G1 X66.762 Y151.181 E.01314
G1 X66.762 Y127.819 E.7325
G1 X66.343 Y127.819 E.01314
G1 X66.343 Y151.181 E.7325
G1 X65.924 Y151.181 E.01314
G1 X65.924 Y127.819 E.7325
G1 X65.505 Y127.819 E.01314
G1 X65.505 Y151.181 E.7325
G1 X65.086 Y151.181 E.01314
G1 X65.086 Y127.819 E.7325
G1 X64.667 Y127.819 E.01314
M73 P0 R362
G1 X64.667 Y151.181 E.7325
G1 X64.248 Y151.181 E.01314
G1 X64.248 Y127.819 E.7325
G1 X63.829 Y127.819 E.01314
G1 X63.829 Y151.181 E.7325
G1 X63.41 Y151.181 E.01314
G1 X63.41 Y127.819 E.7325
G1 X62.991 Y127.819 E.01314
G1 X62.991 Y151.181 E.7325
G1 X62.572 Y151.181 E.01314
M73 P1 R362
G1 X62.572 Y127.819 E.7325
G1 X62.153 Y127.819 E.01314
G1 X62.153 Y151.181 E.7325
G1 X61.734 Y151.181 E.01314
G1 X61.734 Y127.819 E.7325
G1 X61.315 Y127.819 E.01314
G1 X61.315 Y151.181 E.7325
G1 X60.897 Y151.181 E.01311
G1 X60.897 Y127.819 E.7325
G1 X60.478 Y127.819 E.01314
G1 X60.478 Y151.181 E.7325
G1 X60.059 Y151.181 E.01314
G1 X60.059 Y127.819 E.7325
G1 X59.64 Y127.819 E.01314
M73 Q1 S379
G1 X59.64 Y151.181 E.7325
G1 X59.221 Y151.181 E.01314
G1 X59.221 Y127.819 E.7325
G1 X58.802 Y127.819 E.01314
G1 X58.802 Y151.181 E.7325
G1 X58.383 Y151.181 E.01314
G1 X58.383 Y127.819 E.7325
G1 X57.964 Y127.819 E.01314
G1 X57.964 Y151.181 E.7325
G1 X57.545 Y151.181 E.01314
G1 X57.545 Y127.819 E.7325
G1 X57.126 Y127.819 E.01314
G1 X57.126 Y151.181 E.7325
G1 X56.707 Y151.181 E.01314
G1 X56.707 Y127.819 E.7325
G1 X56.288 Y127.819 E.01314
G1 X56.288 Y151.181 E.7325
G1 X55.869 Y151.181 E.01314
G1 X55.869 Y127.819 E.7325
G1 X55.45 Y127.819 E.01314
G1 X55.45 Y151.181 E.7325
G1 X55.031 Y151.181 E.01314
G1 X55.031 Y127.819 E.7325
G1 X54.612 Y127.819 E.01314
G1 X54.612 Y151.181 E.7325
G1 X54.193 Y151.181 E.01314
G1 X54.193 Y127.819 E.7325
G1 X53.774 Y127.819 E.01314
G1 X53.774 Y151.181 E.7325
G1 X53.355 Y151.181 E.01314
G1 X53.355 Y127.819 E.7325
G1 X52.936 Y127.819 E.01314
G1 X52.936 Y151.181 E.7325
G1 X52.517 Y151.181 E.01314
G1 X52.517 Y127.819 E.7325
G1 X52.098 Y127.819 E.01314
G1 X52.098 Y151.181 E.7325
G1 X51.679 Y151.181 E.01314
G1 X51.679 Y127.819 E.7325
G1 X51.26 Y127.819 E.01314
G1 X51.26 Y151.181 E.7325
G1 X50.841 Y151.181 E.01314
G1 X50.841 Y127.819 E.7325
G1 X50.422 Y127.819 E.01314
G1 X50.422 Y151.181 E.7325
G1 X50.003 Y151.181 E.01314
M73 Q1 S378
G1 X50.003 Y127.819 E.7325
G1 X49.584 Y127.819 E.01314
G1 X49.584 Y151.181 E.7325
G1 X49.165 Y151.181 E.01314
G1 X49.165 Y127.819 E.7325
G1 X48.746 Y127.819 E.01314
G1 X48.746 Y151.181 E.7325
G1 X48.327 Y151.181 E.01314
G1 X48.327 Y127.819 E.7325
G1 X47.908 Y127.819 E.01314
G1 X47.908 Y151.181 E.7325
G1 X47.489 Y151.181 E.01314
G1 X47.489 Y127.819 E.7325
G1 X47.07 Y127.819 E.01314
G1 X47.07 Y151.181 E.7325
G1 X46.651 Y151.181 E.01314
G1 X46.651 Y127.819 E.7325
G1 X46.232 Y127.819 E.01314
G1 X46.232 Y151.181 E.7325
G1 X45.813 Y151.181 E.01314
G1 X45.813 Y127.819 E.7325
G1 X45.394 Y127.819 E.01314
G1 X45.394 Y151.181 E.7325
G1 X44.975 Y151.181 E.01314
G1 X44.975 Y127.819 E.7325
G1 X44.556 Y127.819 E.01314
G1 X44.556 Y151.181 E.7325
G1 X44.137 Y151.181 E.01314
M73 P1 R361
G1 X44.137 Y127.819 E.7325
G1 X43.718 Y127.819 E.01314
G1 X43.718 Y151.181 E.7325
G1 X43.299 Y151.181 E.01314
G1 X43.299 Y127.819 E.7325
G1 X42.881 Y127.819 E.01311
G1 X42.881 Y151.181 E.7325
G1 X42.462 Y151.181 E.01314
G1 X42.462 Y127.819 E.7325
G1 X42.043 Y127.819 E.01314
G1 X42.043 Y151.35 E.7378
M204 S1000
;WIPE_START
G1 F8640
G1 X42.043 Y147.885 E-.8
;WIPE_END
G1 Z.6 F720
G1 X197.205 Y98.326 F10800
G1 Z.2 F720
G1 E.8 F2100
M204 S800
;TYPE:Perimeter
;WIDTH:0.419999
G1 F1200
G1 X197.282 Y98.541 E.00716
G1 X197.482 Y98.721 E.00844
G1 X197.749 Y98.787 E.00862
G1 X224.213 Y98.787 E.82976
G1 X224.221 Y127.245 E.89228
G1 X224.342 Y127.508 E.00908
G1 X224.561 Y127.67 E.00854
G1 X236.213 Y132.525 E.39578
G1 X236.213 Y135.04 E.07886
G1 X236.213 Y151.475 E.51531
G1 X225.461 Y155.955 E.36521
G1 X224.447 Y156.394 E.03464
G1 X224.278 Y156.589 E.00809
G1 X224.213 Y156.852 E.00849
G1 X224.213 Y181.213 E.76382
G1 X136.787 Y181.213 E2.74118
G1 X136.786 Y110.193 E2.22678
G1 X136.701 Y109.928 E.00873
G1 X136.5 Y109.736 E.00872
G1 X136.221 Y109.663 E.00904
G1 X113.756 Y109.663 E.70437
G1 X113.483 Y109.746 E.00895
G1 X113.285 Y109.952 E.00896
G1 X113.213 Y110.229 E.00897
G1 X113.213 Y181.213 E2.22565
G1 X25.787 Y181.213 E2.74118
G1 X25.777 Y156.745 E.76718
G1 X25.663 Y156.499 E.0085
G1 X25.439 Y156.33 E.0088
G1 X13.787 Y151.475 E.39578
G1 X13.787 Y132.525 E.59416
G1 X24.808 Y127.933 E.37435
G1 X25.551 Y127.607 E.02544
G1 X25.717 Y127.42 E.00784
G1 X25.787 Y127.148 E.00881
G1 X25.787 Y98.787 E.88924
G1 X52.251 Y98.787 E.82976
G1 X52.543 Y98.706 E.0095
G1 X52.744 Y98.5 E.00902
G1 X52.817 Y98.221 E.00904
G1 X52.815 Y75.73 E.70519
G1 X52.722 Y75.464 E.00884
G1 X52.518 Y75.28 E.00861
G1 X52.251 Y75.213 E.00863
G1 X25.787 Y75.213 E.82976
G1 X25.787 Y28.787 E1.45565
G1 X224.213 Y28.787 E6.2215
M73 Q1 S377
G1 X224.213 Y75.213 E1.45565
G1 X197.749 Y75.213 E.82976
G1 X197.451 Y75.297 E.00971
G1 X197.256 Y75.501 E.00885
G1 X197.183 Y75.779 E.00901
G1 X197.185 Y98.269 E.70516
M204 S1000
G1 X197.56 Y98.221 F10800
M204 S800
;TYPE:External perimeter
G1 F1200
G1 X197.603 Y98.341 E.004
G1 X197.749 Y98.41 E.00506
G1 X224.59 Y98.41 E.84158
G1 X224.599 Y127.204 E.90281
G1 X224.706 Y127.322 E.00499
M73 P1 R360
G1 X236.59 Y132.273 E.40366
G1 X236.59 Y135.04 E.08676
G1 X236.59 Y151.727 E.52321
G1 X225.606 Y156.303 E.37309
G1 X224.655 Y156.71 E.03243
G1 X224.59 Y156.852 E.0049
G1 X224.59 Y181.59 E.77564
G1 X136.41 Y181.59 E2.76482
G1 X136.41 Y110.229 E2.23747
G1 X136.368 Y110.11 E.00396
G1 X136.221 Y110.04 E.0051
G1 X113.779 Y110.04 E.70365
G1 X113.658 Y110.084 E.00404
G1 X113.59 Y110.229 E.00502
G1 X113.59 Y181.59 E2.23747
G1 X25.41 Y181.59 E2.76482
G1 X25.402 Y156.799 E.7773
G1 X25.294 Y156.678 E.00509
G1 X13.41 Y151.727 E.40366
G1 X13.41 Y132.273 E.60997
G1 X24.663 Y127.585 E.38222
