; generated by PrusaSlicer 2.6.0+win64 on 2024-02-02 at 10:43:03 UTC


;
;
; 

; external perimeters extrusion width = 0.45mm
; perimeters extrusion width = 0.45mm
; infill extrusion width = 0.45mm
; solid infill extrusion width = 0.45mm
; top infill extrusion width = 0.40mm
; first layer extrusion width = 0.42mm

; external perimeters extrusion width = 0.45mm
; perimeters extrusion width = 0.45mm
; infill extrusion width = 0.45mm
; solid infill extrusion width = 0.45mm
; top infill extrusion width = 0.40mm
; first layer extrusion width = 0.42mm

M73 P0 R65
M73 Q0 S65
M201 X1000 Y1000 Z200 E5000 ; sets maximum accelerations, mm/sec^2
M203 X200 Y200 Z12 E120 ; sets maximum feedrates, mm / sec
M204 S1250 T1250 ; sets acceleration (S) and retract acceleration (R), mm/sec^2
M205 X8.00 Y8.00 Z0.40 E4.50 ; sets the jerk limits, mm/sec
M205 S0 T0 ; sets the minimum extruding and travel feed rate, mm/sec
;TYPE:Custom
M862.3 P "MK3S" ; printer model check
M862.1 P0.4 ; nozzle diameter check
M115 U3.12.2 ; tell printer latest fw version
G90 ; use absolute coordinates
M83 ; extruder relative mode
M104 S215 ; set extruder temp
M140 S60 ; set bed temp
M190 S60 ; wait for bed temp
M109 S215 ; wait for extruder temp
G28 W ; home all without mesh bed level
G80 ; mesh bed leveling

G1 Z0.2 F720
G1 Y-3 F1000 ; go outside print area
G92 E0
G1 X60 E9 F1000 ; intro line
G1 X100 E12.5 F1000 ; intro line

G92 E0
M221 S95

; Don't change E values below. Excessive value can damage the printer.

M907 E538 ; set extruder motor current
G21 ; set units to millimeters
G90 ; use absolute coordinates
M83 ; use relative distances for extrusion
M900 K0.05 ; Filament gcode LA 1.5
M900 K30 ; Filament gcode LA 1.0
M107
;LAYER_CHANGE
;Z:0.2
;HEIGHT:0.2
;BEFORE_LAYER_CHANGE
G92 E0.0
;0.2


G1 E-.8 F2100
G1 Z.4 F720
;AFTER_LAYER_CHANGE
;0.2
G1 X74.594 Y108.624 F10800
G1 Z.2 F720
G1 E.8 F2100
M204 S800
;TYPE:Skirt/Brim
;WIDTH:0.42
G1 F1200
G1 X121.62 Y95.708 E1.52907
G1 X122.25 Y95.623 E.01993
G1 X129.75 Y95.623 E.23516
G1 X131.431 Y96.319 E.05705
G1 X168.931 Y133.819 E1.66281
G1 X169.627 Y135.5 E.05705
G1 X169.627 Y149.5 E.43896
G1 X169.235 Y150.807 E.04278
G1 X167.905 Y151.785 E.05176
G1 X122.879 Y164.701 E1.46869
G1 X122.224 Y164.793 E.02074
G1 X112.724 Y164.793 E.29787
G1 X111.043 Y164.097 E.05705
G1 X73.543 Y126.597 E1.66281
G1 X72.847 Y124.916 E.05705
G1 X72.847 Y110.916 E.43896
G1 X73.238 Y109.609 E.04277
G1 X74.546 Y108.659 E.05069
M204 S1000
; printing object 5b_clamp_cover_right.stl id:1 copy 0
;WIPE_START
G1 F8640
G1 X77.887 Y107.74 E-.8
;WIPE_END
G1 Z.6 F720
G1 X122.558 Y109.265 F10800
G1 Z.2 F720
G1 E.8 F2100
M204 S800
;TYPE:Perimeter
;WIDTH:0.419999
G1 F1200
G1 X122.738 Y109.221 E.00581
G1 X122.924 Y109.061 E.00769
G1 X123.014 Y108.88 E.00634
G1 X123.037 Y108.721 E.00504
G1 X123.037 Y98.787 E.31147
G1 X128.963 Y98.787 E.18581
G1 X128.963 Y111.213 E.38961
G1 X121.037 Y111.213 E.24851
G1 X121.037 Y109.287 E.06039
G1 X122.5 Y109.28 E.04587
M204 S1000
G1 X122.471 Y108.91 F10800
M204 S800
;TYPE:External perimeter
G1 F1200
G1 X122.622 Y108.835 E.00529
G1 X122.66 Y108.721 E.00377
G1 X122.66 Y98.41 E.32329
G1 X129.34 Y98.41 E.20945
M73 P0 R64
G1 X129.34 Y111.59 E.41325
G1 X120.66 Y111.59 E.27215
G1 X120.66 Y108.91 E.08403
G1 X122.411 Y108.91 E.0549
M204 S1000
G1 X122.626 Y108.978 F10800
;WIPE_START
G1 F8640
G1 X122.622 Y108.835 E-.05171
G1 X122.66 Y108.721 E-.02775
G1 X122.66 Y105.6 E-.72054
;WIPE_END
G1 Z.6 F720
G1 X128.03 Y98.957 F10800
G1 Z.2 F720
G1 E.8 F2100
M204 S800
;TYPE:Solid infill
;WIDTH:0.42033
G1 F1200
G1 X128.624 Y99.55 E.02634
G1 X128.624 Y100.084 E.01676
G1 X127.666 Y99.126 E.04252
G1 X127.132 Y99.126 E.01676
G1 X128.624 Y100.618 E.06622
G1 X128.624 Y101.151 E.01673
G1 X126.599 Y99.126 E.08987
G1 X126.065 Y99.126 E.01676
G1 X128.624 Y101.685 E.11357
G1 X128.624 Y102.219 E.01676
G1 X125.531 Y99.126 E.13727
G1 X124.998 Y99.126 E.01673
G1 X128.624 Y102.752 E.16092
G1 X128.624 Y103.286 E.01676
G1 X124.464 Y99.126 E.18462
G1 X123.93 Y99.126 E.01676
G1 X128.624 Y103.82 E.20832
G1 X128.624 Y104.354 E.01676
G1 X123.396 Y99.126 E.23202
G1 X123.376 Y99.126 E.00063
G1 X123.376 Y99.64 E.01613
G1 X128.624 Y104.887 E.23289
G1 X128.624 Y105.421 E.01676
G1 X123.376 Y100.174 E.23289
G1 X123.376 Y100.708 E.01676
G1 X128.624 Y105.955 E.23289
G1 X128.624 Y106.489 E.01676
G1 X123.376 Y101.242 E.23289
G1 X123.376 Y101.775 E.01673
G1 X128.624 Y107.022 E.23289
G1 X128.624 Y107.556 E.01676
G1 X123.376 Y102.309 E.23289
G1 X123.376 Y102.843 E.01676
G1 X128.624 Y108.09 E.23289
G1 X128.624 Y108.624 E.01676
G1 X123.376 Y103.376 E.23291
G1 X123.376 Y103.91 E.01676
G1 X128.624 Y109.157 E.23289
G1 X128.624 Y109.691 E.01676
G1 X123.376 Y104.444 E.23289
G1 X123.376 Y104.978 E.01676
G1 X128.624 Y110.225 E.23289
G1 X128.624 Y110.759 E.01676
G1 X123.376 Y105.511 E.23291
G1 X123.376 Y106.045 E.01676
G1 X128.205 Y110.874 E.21431
G1 X127.671 Y110.874 E.01676
G1 X123.376 Y106.579 E.19061
G1 X123.376 Y107.113 E.01676
G1 X127.137 Y110.874 E.16692
G1 X126.604 Y110.874 E.01673
G1 X123.376 Y107.646 E.14326
G1 X123.376 Y108.18 E.01676
G1 X126.07 Y110.874 E.11956
G1 X125.536 Y110.874 E.01676
G1 X123.376 Y108.714 E.09586
G1 X123.341 Y108.978 E.00836
G1 X123.263 Y109.134 E.00547
G1 X125.002 Y110.874 E.0772
G1 X124.469 Y110.874 E.01673
G1 X123.017 Y109.422 E.06444
G1 X122.903 Y109.52 E.00472
G1 X122.664 Y109.602 E.00793
G1 X123.935 Y110.874 E.05643
G1 X123.401 Y110.874 E.01676
G1 X122.146 Y109.619 E.0557
G1 X121.617 Y109.623 E.0166
G1 X122.867 Y110.874 E.0555
G1 X122.334 Y110.874 E.01673
G1 X121.376 Y109.916 E.04252
G1 X121.376 Y110.45 E.01676
G1 X121.97 Y111.043 E.02634
M204 S1000
; stop printing object 5b_clamp_cover_right.stl id:1 copy 0
; printing object 5b_clamp_cover_right.stl id:1 copy 1
;WIPE_START
G1 F8640
G1 X121.376 Y110.45 E-.19381
G1 X121.376 Y109.916 E-.1233
G1 X122.334 Y110.874 E-.31283
G1 X122.867 Y110.874 E-.12307
G1 X122.723 Y110.73 E-.04699
;WIPE_END
G1 Z.6 F720
G1 X135.058 Y121.765 F10800
G1 Z.2 F720
G1 E.8 F2100
M204 S800
;TYPE:Perimeter
;WIDTH:0.419999
G1 F1200
G1 X135.238 Y121.721 E.00581
G1 X135.424 Y121.561 E.00769
G1 X135.514 Y121.38 E.00634
G1 X135.537 Y121.221 E.00504
G1 X135.537 Y111.287 E.31147
G1 X141.463 Y111.287 E.18581
G1 X141.463 Y123.713 E.38961
G1 X133.537 Y123.713 E.24851
G1 X133.537 Y121.787 E.06039
G1 X135 Y121.78 E.04587
M204 S1000
G1 X134.971 Y121.41 F10800
M204 S800
;TYPE:External perimeter
G1 F1200
G1 X135.122 Y121.335 E.00529
G1 X135.16 Y121.221 E.00377
G1 X135.16 Y110.91 E.32329
G1 X141.84 Y110.91 E.20945
M73 Q1 S65
G1 X141.84 Y124.09 E.41325
M73 P1 R64
G1 X133.16 Y124.09 E.27215
G1 X133.16 Y121.41 E.08403
G1 X134.911 Y121.41 E.0549
M204 S1000
G1 X135.126 Y121.478 F10800
;WIPE_START
G1 F8640
G1 X135.122 Y121.335 E-.05171
G1 X135.16 Y121.221 E-.02775
G1 X135.16 Y118.1 E-.72054
;WIPE_END
G1 Z.6 F720
G1 X140.53 Y111.457 F10800
G1 Z.2 F720
G1 E.8 F2100
M204 S800
;TYPE:Solid infill
;WIDTH:0.42033
G1 F1200
G1 X141.124 Y112.05 E.02634
G1 X141.124 Y112.584 E.01676
G1 X140.166 Y111.626 E.04252
G1 X139.632 Y111.626 E.01676
G1 X141.124 Y113.118 E.06622
G1 X141.124 Y113.651 E.01673
G1 X139.099 Y111.626 E.08987
G1 X138.565 Y111.626 E.01676
G1 X141.124 Y114.185 E.11357
G1 X141.124 Y114.719 E.01676
G1 X138.031 Y111.626 E.13727
G1 X137.498 Y111.626 E.01673
G1 X141.124 Y115.252 E.16092
G1 X141.124 Y115.786 E.01676
G1 X136.964 Y111.626 E.18462
G1 X136.43 Y111.626 E.01676
G1 X141.124 Y116.32 E.20832
G1 X141.124 Y116.854 E.01676
G1 X135.896 Y111.626 E.23202
G1 X135.876 Y111.626 E.00063
G1 X135.876 Y112.14 E.01613
G1 X141.124 Y117.387 E.23289
G1 X141.124 Y117.921 E.01676
G1 X135.876 Y112.674 E.23289
G1 X135.876 Y113.208 E.01676
G1 X141.124 Y118.455 E.23289
G1 X141.124 Y118.989 E.01676
G1 X135.876 Y113.742 E.23289
G1 X135.876 Y114.275 E.01673
G1 X141.124 Y119.522 E.23289
G1 X141.124 Y120.056 E.01676
G1 X135.876 Y114.809 E.23289
G1 X135.876 Y115.343 E.01676
G1 X141.124 Y120.59 E.23289
G1 X141.124 Y121.124 E.01676
G1 X135.876 Y115.876 E.23291
G1 X135.876 Y116.41 E.01676
G1 X141.124 Y121.657 E.23289
G1 X141.124 Y122.191 E.01676
G1 X135.876 Y116.944 E.23289
G1 X135.876 Y117.478 E.01676
G1 X141.124 Y122.725 E.23289
G1 X141.124 Y123.259 E.01676
G1 X135.876 Y118.011 E.23291
G1 X135.876 Y118.545 E.01676
G1 X140.705 Y123.374 E.21431
G1 X140.171 Y123.374 E.01676
G1 X135.876 Y119.079 E.19061
G1 X135.876 Y119.613 E.01676
G1 X139.637 Y123.374 E.16692
G1 X139.104 Y123.374 E.01673
G1 X135.876 Y120.146 E.14326
G1 X135.876 Y120.68 E.01676
G1 X138.57 Y123.374 E.11956
G1 X138.036 Y123.374 E.01676
G1 X135.876 Y121.214 E.09586
G1 X135.841 Y121.478 E.00836
G1 X135.763 Y121.634 E.00547
G1 X137.502 Y123.374 E.0772
G1 X136.969 Y123.374 E.01673
G1 X135.517 Y121.922 E.06444
G1 X135.403 Y122.02 E.00472
G1 X135.164 Y122.102 E.00793
G1 X136.435 Y123.374 E.05643
G1 X135.901 Y123.374 E.01676
G1 X134.646 Y122.119 E.0557
G1 X134.117 Y122.123 E.0166
G1 X135.367 Y123.374 E.0555
G1 X134.834 Y123.374 E.01673
G1 X133.876 Y122.416 E.04252
G1 X133.876 Y122.95 E.01676
G1 X134.47 Y123.543 E.02634
M204 S1000
; stop printing object 5b_clamp_cover_right.stl id:1 copy 1
; printing object 5b_clamp_cover_right.stl id:1 copy 2
;WIPE_START
G1 F8640
G1 X133.876 Y122.95 E-.19381
G1 X133.876 Y122.416 E-.1233
G1 X134.834 Y123.374 E-.31283
G1 X135.367 Y123.374 E-.12307
G1 X135.223 Y123.23 E-.04699
;WIPE_END
G1 Z.6 F720
G1 X147.558 Y134.265 F10800
G1 Z.2 F720
G1 E.8 F2100
M204 S800
;TYPE:Perimeter
;WIDTH:0.419999
G1 F1200
G1 X147.738 Y134.221 E.00581
G1 X147.924 Y134.061 E.00769
G1 X148.014 Y133.88 E.00634
G1 X148.037 Y133.721 E.00504
G1 X148.037 Y123.787 E.31147
G1 X153.963 Y123.787 E.18581
G1 X153.963 Y136.213 E.38961
M73 Q1 S64
G1 X146.037 Y136.213 E.24851
G1 X146.037 Y134.287 E.06039
G1 X147.5 Y134.28 E.04587
M204 S1000
G1 X147.471 Y133.91 F10800
M204 S800
;TYPE:External perimeter
G1 F1200
G1 X147.622 Y133.835 E.00529
G1 X147.66 Y133.721 E.00377
G1 X147.66 Y123.41 E.32329
G1 X154.34 Y123.41 E.20945
G1 X154.34 Y136.59 E.41325
G1 X145.66 Y136.59 E.27215
G1 X145.66 Y133.91 E.08403
G1 X147.411 Y133.91 E.0549
M204 S1000
G1 X147.626 Y133.978 F10800
;WIPE_START
G1 F8640
G1 X147.622 Y133.835 E-.05171
G1 X147.66 Y133.721 E-.02775
G1 X147.66 Y130.6 E-.72054
;WIPE_END
G1 Z.6 F720
G1 X153.03 Y123.957 F10800
G1 Z.2 F720
G1 E.8 F2100
M204 S800
;TYPE:Solid infill
;WIDTH:0.42033
G1 F1200
G1 X153.624 Y124.55 E.02634
G1 X153.624 Y125.084 E.01676
G1 X152.666 Y124.126 E.04252
G1 X152.132 Y124.126 E.01676
G1 X153.624 Y125.618 E.06622
G1 X153.624 Y126.151 E.01673
G1 X151.599 Y124.126 E.08987
G1 X151.065 Y124.126 E.01676
G1 X153.624 Y126.685 E.11357
G1 X153.624 Y127.219 E.01676
G1 X150.531 Y124.126 E.13727
G1 X149.998 Y124.126 E.01673
G1 X153.624 Y127.752 E.16092
G1 X153.624 Y128.286 E.01676
G1 X149.464 Y124.126 E.18462
G1 X148.93 Y124.126 E.01676
G1 X153.624 Y128.82 E.20832
G1 X153.624 Y129.354 E.01676
G1 X148.396 Y124.126 E.23202
G1 X148.376 Y124.126 E.00063
G1 X148.376 Y124.64 E.01613
G1 X153.624 Y129.887 E.23289
G1 X153.624 Y130.421 E.01676
G1 X148.376 Y125.174 E.23289
G1 X148.376 Y125.708 E.01676
G1 X153.624 Y130.955 E.23289
G1 X153.624 Y131.489 E.01676
G1 X148.376 Y126.242 E.23289
G1 X148.376 Y126.775 E.01673
G1 X153.624 Y132.022 E.23289
G1 X153.624 Y132.556 E.01676
G1 X148.376 Y127.309 E.23289
G1 X148.376 Y127.843 E.01676
G1 X153.624 Y133.09 E.23289
G1 X153.624 Y133.624 E.01676
G1 X148.376 Y128.376 E.23291
G1 X148.376 Y128.91 E.01676
G1 X153.624 Y134.157 E.23289
G1 X153.624 Y134.691 E.01676
G1 X148.376 Y129.444 E.23289
G1 X148.376 Y129.978 E.01676
G1 X153.624 Y135.225 E.23289
G1 X153.624 Y135.759 E.01676
G1 X148.376 Y130.511 E.23291
G1 X148.376 Y131.045 E.01676
G1 X153.205 Y135.874 E.21431
G1 X152.671 Y135.874 E.01676
G1 X148.376 Y131.579 E.19061
G1 X148.376 Y132.113 E.01676
G1 X152.137 Y135.874 E.16692
G1 X151.604 Y135.874 E.01673
G1 X148.376 Y132.646 E.14326
G1 X148.376 Y133.18 E.01676
G1 X151.07 Y135.874 E.11956
G1 X150.536 Y135.874 E.01676
G1 X148.376 Y133.714 E.09586
G1 X148.341 Y133.978 E.00836
G1 X148.263 Y134.134 E.00547
G1 X150.002 Y135.874 E.0772
G1 X149.469 Y135.874 E.01673
G1 X148.017 Y134.422 E.06444
G1 X147.903 Y134.52 E.00472
G1 X147.664 Y134.602 E.00793
G1 X148.935 Y135.874 E.05643
G1 X148.401 Y135.874 E.01676
G1 X147.146 Y134.619 E.0557
G1 X146.617 Y134.623 E.0166
G1 X147.867 Y135.874 E.0555
G1 X147.334 Y135.874 E.01673
G1 X146.376 Y134.916 E.04252
G1 X146.376 Y135.45 E.01676
G1 X146.97 Y136.043 E.02634
M204 S1000
; stop printing object 5b_clamp_cover_right.stl id:1 copy 2
; printing object 5b_clamp_cover_right.stl id:1 copy 3
;WIPE_START
G1 F8640
G1 X146.376 Y135.45 E-.19381
G1 X146.376 Y134.916 E-.1233
G1 X147.334 Y135.874 E-.31283
G1 X147.867 Y135.874 E-.12307
G1 X147.723 Y135.73 E-.04699
;WIPE_END
G1 Z.6 F720
G1 X160.058 Y146.765 F10800
G1 Z.2 F720
G1 E.8 F2100
M204 S800
;TYPE:Perimeter
;WIDTH:0.419999
G1 F1200
G1 X160.238 Y146.721 E.00581
G1 X160.424 Y146.561 E.00769
G1 X160.514 Y146.38 E.00634
G1 X160.537 Y146.221 E.00504
G1 X160.537 Y136.287 E.31147
G1 X166.463 Y136.287 E.18581
G1 X166.463 Y148.713 E.38961
G1 X158.537 Y148.713 E.24851
G1 X158.537 Y146.787 E.06039
G1 X160 Y146.78 E.04587
M204 S1000
G1 X159.971 Y146.41 F10800
M204 S800
;TYPE:External perimeter
G1 F1200
G1 X160.122 Y146.335 E.00529
G1 X160.16 Y146.221 E.00377
G1 X160.16 Y135.91 E.32329
G1 X166.84 Y135.91 E.20945
G1 X166.84 Y149.09 E.41325
G1 X158.16 Y149.09 E.27215
G1 X158.16 Y146.41 E.08403
G1 X159.911 Y146.41 E.0549
M204 S1000
G1 X160.126 Y146.478 F10800
;WIPE_START
G1 F8640
G1 X160.122 Y146.335 E-.05171
G1 X160.16 Y146.221 E-.02775
G1 X160.16 Y143.1 E-.72054
;WIPE_END
G1 Z.6 F720
G1 X165.53 Y136.457 F10800
G1 Z.2 F720
G1 E.8 F2100
M204 S800
;TYPE:Solid infill
;WIDTH:0.42033
G1 F1200
G1 X166.124 Y137.05 E.02634
G1 X166.124 Y137.584 E.01676
G1 X165.166 Y136.626 E.04252
G1 X164.632 Y136.626 E.01676
G1 X166.124 Y138.118 E.06622
G1 X166.124 Y138.651 E.01673
G1 X164.099 Y136.626 E.08987
G1 X163.565 Y136.626 E.01676
G1 X166.124 Y139.185 E.11357
G1 X166.124 Y139.719 E.01676
G1 X163.031 Y136.626 E.13727
G1 X162.498 Y136.626 E.01673
G1 X166.124 Y140.252 E.16092
G1 X166.124 Y140.786 E.01676
G1 X161.964 Y136.626 E.18462
G1 X161.43 Y136.626 E.01676
G1 X166.124 Y141.32 E.20832
G1 X166.124 Y141.854 E.01676
G1 X160.896 Y136.626 E.23202
G1 X160.876 Y136.626 E.00063
G1 X160.876 Y137.14 E.01613
G1 X166.124 Y142.387 E.23289
G1 X166.124 Y142.921 E.01676
G1 X160.876 Y137.674 E.23289
G1 X160.876 Y138.208 E.01676
G1 X166.124 Y143.455 E.23289
G1 X166.124 Y143.989 E.01676
G1 X160.876 Y138.742 E.23289
G1 X160.876 Y139.275 E.01673
G1 X166.124 Y144.522 E.23289
G1 X166.124 Y145.056 E.01676
G1 X160.876 Y139.809 E.23289
G1 X160.876 Y140.343 E.01676
G1 X166.124 Y145.59 E.23289
G1 X166.124 Y146.124 E.01676
G1 X160.876 Y140.876 E.23291
G1 X160.876 Y141.41 E.01676
G1 X166.124 Y146.657 E.23289
G1 X166.124 Y147.191 E.01676
G1 X160.876 Y141.944 E.23289
G1 X160.876 Y142.478 E.01676
G1 X166.124 Y147.725 E.23289
G1 X166.124 Y148.259 E.01676
M73 P2 R64
M73 Q2 S64
G1 X160.876 Y143.011 E.23291
G1 X160.876 Y143.545 E.01676
G1 X165.705 Y148.374 E.21431
G1 X165.171 Y148.374 E.01676
G1 X160.876 Y144.079 E.19061
G1 X160.876 Y144.613 E.01676
G1 X164.637 Y148.374 E.16692
G1 X164.104 Y148.374 E.01673
G1 X160.876 Y145.146 E.14326
G1 X160.876 Y145.68 E.01676
G1 X163.57 Y148.374 E.11956
G1 X163.036 Y148.374 E.01676
G1 X160.876 Y146.214 E.09586
G1 X160.841 Y146.478 E.00836
G1 X160.763 Y146.634 E.00547
G1 X162.502 Y148.374 E.0772
G1 X161.969 Y148.374 E.01673
G1 X160.517 Y146.922 E.06444
G1 X160.403 Y147.02 E.00472
G1 X160.164 Y147.102 E.00793
G1 X161.435 Y148.374 E.05643
G1 X160.901 Y148.374 E.01676
G1 X159.646 Y147.119 E.0557
G1 X159.117 Y147.123 E.0166
G1 X160.367 Y148.374 E.0555
G1 X159.834 Y148.374 E.01673
G1 X158.876 Y147.416 E.04252
G1 X158.876 Y147.95 E.01676
G1 X159.47 Y148.543 E.02634
M204 S1000
; stop printing object 5b_clamp_cover_right.stl id:1 copy 3
; printing object 5a_clamp_cover_left.stl id:0 copy 3
;WIPE_START
G1 F8640
G1 X158.876 Y147.95 E-.19381
G1 X158.876 Y147.416 E-.1233
G1 X159.834 Y148.374 E-.31283
G1 X160.367 Y148.374 E-.12307
