; generated by PrusaSlicer 2.6.0+win64 on 2024-02-02 at 10:23:38 UTC


;
;
; 

; external perimeters extrusion width = 0.45mm
; perimeters extrusion width = 0.45mm
; infill extrusion width = 0.45mm
; solid infill extrusion width = 0.45mm
; top infill extrusion width = 0.40mm
; first layer extrusion width = 0.42mm

M73 P0 R45
M73 Q0 S46
M201 X1000 Y1000 Z200 E5000 ; sets maximum accelerations, mm/sec^2
M203 X200 Y200 Z12 E120 ; sets maximum feedrates, mm / sec
M204 S1250 T1250 ; sets acceleration (S) and retract acceleration (R), mm/sec^2
M205 X8.00 Y8.00 Z0.40 E4.50 ; sets the jerk limits, mm/sec
M205 S0 T0 ; sets the minimum extruding and travel feed rate, mm/sec
;TYPE:Custom
M862.3 P "MK3S" ; printer model check
M862.1 P0.4 ; nozzle diameter check
M115 U3.12.2 ; tell printer latest fw version
G90 ; use absolute coordinates
M83 ; extruder relative mode
M104 S215 ; set extruder temp
M140 S60 ; set bed temp
M190 S60 ; wait for bed temp
M109 S215 ; wait for extruder temp
G28 W ; home all without mesh bed level
G80 ; mesh bed leveling

G1 Z0.2 F720
G1 Y-3 F1000 ; go outside print area
G92 E0
G1 X60 E9 F1000 ; intro line
G1 X100 E12.5 F1000 ; intro line

G92 E0
M221 S95

; Don't change E values below. Excessive value can damage the printer.

M907 E538 ; set extruder motor current
G21 ; set units to millimeters
G90 ; use absolute coordinates
M83 ; use relative distances for extrusion
M900 K0.05 ; Filament gcode LA 1.5
M900 K30 ; Filament gcode LA 1.0
M107
;LAYER_CHANGE
;Z:0.2
;HEIGHT:0.2
;BEFORE_LAYER_CHANGE
G92 E0.0
;0.2


G1 E-.8 F2100
G1 Z.4 F720
;AFTER_LAYER_CHANGE
;0.2
G1 X110.227 Y62.951 F10800
G1 Z.2 F720
G1 E.8 F2100
M204 S800
;TYPE:Skirt/Brim
;WIDTH:0.42
G1 F1200
G1 X111.273 Y62.075 E.04278
G1 X112.213 Y61.881 E.03009
G1 X137.019 Y61.881 E.77777
G1 X176.137 Y61.986 E1.22652
G1 X177.443 Y62.381 E.04278
M73 Q0 S45
G1 X178.317 Y63.429 E.04279
G1 X178.508 Y64.363 E.02989
G1 X178.503 Y104.317 E1.25273
G1 X175.357 Y152.617 E1.51762
G1 X174.881 Y153.896 E.04279
G1 X173.78 Y154.703 E.0428
G1 X172.985 Y154.84 E.02529
G1 X148.185 Y154.84 E.77759
G1 X114.043 Y154.146 E1.07072
G1 X112.744 Y153.728 E.04279
G1 X111.889 Y152.665 E.04277
G1 X111.716 Y151.863 E.02572
G1 X109.837 Y104.152 E1.4971
G1 X109.835 Y64.258 E1.25085
G1 X110.21 Y63.009 E.04089
M204 S1000
; printing object 6_marker.stl id:0 copy 1
;WIPE_START
G1 F8640
G1 X111.273 Y62.075 E-.32674
G1 X112.213 Y61.881 E-.22162
G1 X113.303 Y61.881 E-.25164
;WIPE_END
G1 Z.6 F720
G1 X175.344 Y103.376 F10800
G1 Z.2 F720
G1 E.8 F2100
M204 S800
;TYPE:Perimeter
;WIDTH:0.419999
G1 F1200
G1 X152.118 Y103.376 E.72823
G1 X152.118 Y65.15 E1.19855
G1 X175.344 Y65.15 E.72823
G1 X175.344 Y103.316 E1.19667
M204 S1000
M73 P1 R45
M73 Q1 S45
G1 X175.721 Y103.753 F10800
M204 S800
;TYPE:External perimeter
G1 F1200
G1 X151.741 Y103.753 E.75187
G1 X151.741 Y64.773 E1.22219
G1 X175.721 Y64.773 E.75187
G1 X175.721 Y103.693 E1.22031
M204 S1000
G1 X175.343 Y103.619 F10800
;WIPE_START
G1 F8640
G1 X172.256 Y103.702 E-.8
;WIPE_END
G1 Z.6 F720
G1 X174.411 Y65.319 F10800
G1 Z.2 F720
G1 E.8 F2100
M204 S800
;TYPE:Solid infill
;WIDTH:0.420343
G1 F1200
G1 X175.004 Y65.913 E.02634
G1 X175.004 Y66.446 E.01673
G1 X174.047 Y65.489 E.04247
G1 X173.513 Y65.489 E.01676
G1 X175.004 Y66.98 E.06617
G1 X175.004 Y67.514 E.01676
G1 X172.979 Y65.489 E.08987
G1 X172.446 Y65.489 E.01673
G1 X175.004 Y68.048 E.11355
G1 X175.004 Y68.581 E.01673
G1 X171.912 Y65.489 E.13723
G1 X171.378 Y65.489 E.01676
G1 X175.004 Y69.115 E.16093
G1 X175.004 Y69.649 E.01676
G1 X170.844 Y65.489 E.18463
G1 X170.31 Y65.489 E.01676
G1 X175.004 Y70.183 E.20833
G1 X175.004 Y70.717 E.01676
G1 X169.777 Y65.489 E.23201
G1 X169.243 Y65.489 E.01676
G1 X175.004 Y71.25 E.25569
G1 X175.004 Y71.784 E.01676
G1 X168.709 Y65.489 E.27939
G1 X168.175 Y65.489 E.01676
G1 X175.004 Y72.318 E.30309
G1 X175.004 Y72.852 E.01676
G1 X167.642 Y65.489 E.32676
G1 X167.108 Y65.489 E.01676
G1 X175.004 Y73.385 E.35044
G1 X175.004 Y73.919 E.01676
G1 X166.574 Y65.489 E.37414
G1 X166.04 Y65.489 E.01676
G1 X175.004 Y74.453 E.39784
G1 X175.004 Y74.987 E.01676
G1 X165.507 Y65.489 E.42152
G1 X164.973 Y65.489 E.01676
G1 X175.004 Y75.52 E.4452
G1 X175.004 Y76.054 E.01676
G1 X164.439 Y65.489 E.4689
G1 X163.905 Y65.489 E.01676
G1 X175.004 Y76.588 E.4926
G1 X175.004 Y77.122 E.01676
G1 X163.372 Y65.489 E.51627
G1 X162.838 Y65.489 E.01676
G1 X175.004 Y77.655 E.53995
G1 X175.004 Y78.189 E.01676
G1 X162.304 Y65.489 E.56365
G1 X161.77 Y65.489 E.01676
G1 X175.004 Y78.723 E.58735
G1 X175.004 Y79.257 E.01676
G1 X161.237 Y65.489 E.61103
G1 X160.703 Y65.489 E.01676
G1 X175.004 Y79.79 E.63471
G1 X175.004 Y80.324 E.01676
G1 X160.169 Y65.489 E.65841
G1 X159.635 Y65.489 E.01676
G1 X175.004 Y80.858 E.68211
G1 X175.004 Y81.392 E.01676
G1 X159.102 Y65.489 E.70579
G1 X158.568 Y65.489 E.01676
M73 P2 R45
M73 Q2 S45
G1 X175.004 Y81.925 E.72946
G1 X175.004 Y82.459 E.01676
G1 X158.034 Y65.489 E.75316
G1 X157.5 Y65.489 E.01676
M73 P2 R44
G1 X175.004 Y82.993 E.77686
G1 X175.004 Y83.527 E.01676
G1 X156.967 Y65.489 E.80054
G1 X156.433 Y65.489 E.01676
G1 X175.004 Y84.06 E.82422
G1 X175.004 Y84.594 E.01676
G1 X155.899 Y65.489 E.84792
G1 X155.365 Y65.489 E.01676
G1 X175.004 Y85.128 E.87162
G1 X175.004 Y85.662 E.01676
G1 X154.832 Y65.489 E.8953
G1 X154.298 Y65.489 E.01676
G1 X175.004 Y86.195 E.91897
G1 X175.004 Y86.729 E.01676
G1 X153.764 Y65.489 E.94267
G1 X153.23 Y65.489 E.01676
M73 Q2 S44
G1 X175.004 Y87.263 E.96637
G1 X175.004 Y87.797 E.01676
G1 X152.697 Y65.489 E.99005
G1 X152.457 Y65.489 E.00753
G1 X152.457 Y65.783 E.00923
G1 X175.004 Y88.33 E1.00068
G1 X175.004 Y88.864 E.01676
G1 X152.457 Y66.317 E1.00068
G1 X152.457 Y66.851 E.01676
G1 X175.004 Y89.398 E1.00068
G1 X175.004 Y89.932 E.01676
G1 X152.457 Y67.385 E1.00068
G1 X152.457 Y67.918 E.01673
G1 X175.004 Y90.466 E1.0007
G1 X175.004 Y90.999 E.01673
G1 X152.457 Y68.452 E1.00068
G1 X152.457 Y68.986 E.01676
G1 X175.004 Y91.533 E1.00068
G1 X175.004 Y92.067 E.01676
M73 P3 R44
M73 Q3 S44
G1 X152.457 Y69.52 E1.00068
G1 X152.457 Y70.053 E.01673
G1 X175.004 Y92.601 E1.0007
G1 X175.004 Y93.134 E.01673
G1 X152.457 Y70.587 E1.00068
G1 X152.457 Y71.121 E.01676
G1 X175.004 Y93.668 E1.00068
G1 X175.004 Y94.202 E.01676
G1 X152.457 Y71.655 E1.00068
G1 X152.457 Y72.188 E.01673
G1 X175.004 Y94.736 E1.0007
G1 X175.004 Y95.269 E.01673
G1 X152.457 Y72.722 E1.00068
G1 X152.457 Y73.256 E.01676
G1 X175.004 Y95.803 E1.00068
G1 X175.004 Y96.337 E.01676
G1 X152.457 Y73.79 E1.00068
G1 X152.457 Y74.323 E.01673
G1 X175.004 Y96.871 E1.0007
G1 X175.004 Y97.404 E.01673
G1 X152.457 Y74.857 E1.00068
G1 X152.457 Y75.391 E.01676
G1 X175.004 Y97.938 E1.00068
G1 X175.004 Y98.472 E.01676
G1 X152.457 Y75.925 E1.00068
G1 X152.457 Y76.459 E.01676
G1 X175.004 Y99.006 E1.00068
G1 X175.004 Y99.539 E.01673
G1 X152.457 Y76.992 E1.00068
G1 X152.457 Y77.526 E.01676
G1 X175.004 Y100.073 E1.00068
G1 X175.004 Y100.607 E.01676
G1 X152.457 Y78.06 E1.00068
G1 X152.457 Y78.594 E.01676
M73 P4 R44
M73 Q4 S44
G1 X175.004 Y101.141 E1.00068
G1 X175.004 Y101.674 E.01673
G1 X152.457 Y79.127 E1.00068
G1 X152.457 Y79.661 E.01676
G1 X175.004 Y102.208 E1.00068
G1 X175.004 Y102.742 E.01676
G1 X152.457 Y80.195 E1.00068
G1 X152.457 Y80.729 E.01676
M73 P4 R43
G1 X174.765 Y103.036 E.99005
G1 X174.231 Y103.036 E.01676
G1 X152.457 Y81.262 E.96637
G1 X152.457 Y81.796 E.01676
G1 X173.697 Y103.036 E.94267
G1 X173.163 Y103.036 E.01676
G1 X152.457 Y82.33 E.91897
G1 X152.457 Y82.864 E.01676
G1 X172.63 Y103.036 E.8953
G1 X172.096 Y103.036 E.01676
G1 X152.457 Y83.397 E.87162
G1 X152.457 Y83.931 E.01676
G1 X171.562 Y103.036 E.84792
G1 X171.028 Y103.036 E.01676
M73 Q4 S43
G1 X152.457 Y84.465 E.82422
G1 X152.457 Y84.999 E.01676
G1 X170.495 Y103.036 E.80054
G1 X169.961 Y103.036 E.01676
G1 X152.457 Y85.532 E.77686
G1 X152.457 Y86.066 E.01676
G1 X169.427 Y103.036 E.75316
G1 X168.893 Y103.036 E.01676
G1 X152.457 Y86.6 E.72946
G1 X152.457 Y87.134 E.01676
G1 X168.36 Y103.036 E.70579
G1 X167.826 Y103.036 E.01676
G1 X152.457 Y87.667 E.68211
G1 X152.457 Y88.201 E.01676
G1 X167.292 Y103.036 E.65841
G1 X166.758 Y103.036 E.01676
M73 P5 R43
M73 Q5 S43
G1 X152.457 Y88.735 E.63471
G1 X152.457 Y89.269 E.01676
G1 X166.225 Y103.036 E.61103
G1 X165.691 Y103.036 E.01676
G1 X152.457 Y89.802 E.58735
G1 X152.457 Y90.336 E.01676
G1 X165.157 Y103.036 E.56365
G1 X164.623 Y103.036 E.01676
G1 X152.457 Y90.87 E.53995
G1 X152.457 Y91.404 E.01676
G1 X164.09 Y103.036 E.51627
G1 X163.556 Y103.036 E.01676
G1 X152.457 Y91.937 E.4926
G1 X152.457 Y92.471 E.01676
G1 X163.022 Y103.036 E.4689
G1 X162.488 Y103.036 E.01676
G1 X152.457 Y93.005 E.4452
G1 X152.457 Y93.539 E.01676
G1 X161.955 Y103.036 E.42152
G1 X161.421 Y103.036 E.01676
G1 X152.457 Y94.072 E.39784
G1 X152.457 Y94.606 E.01676
G1 X160.887 Y103.036 E.37414
G1 X160.353 Y103.036 E.01676
G1 X152.457 Y95.14 E.35044
G1 X152.457 Y95.674 E.01676
G1 X159.819 Y103.036 E.32674
G1 X159.286 Y103.036 E.01673
G1 X152.457 Y96.208 E.30306
G1 X152.457 Y96.741 E.01673
G1 X158.752 Y103.036 E.27939
G1 X158.218 Y103.036 E.01676
G1 X152.457 Y97.275 E.25569
G1 X152.457 Y97.809 E.01676
G1 X157.684 Y103.036 E.23198
G1 X157.151 Y103.036 E.01673
G1 X152.457 Y98.343 E.20831
G1 X152.457 Y98.876 E.01673
G1 X156.617 Y103.036 E.18463
G1 X156.083 Y103.036 E.01676
G1 X152.457 Y99.41 E.16093
G1 X152.457 Y99.944 E.01676
G1 X155.549 Y103.036 E.13723
G1 X155.016 Y103.036 E.01673
G1 X152.457 Y100.478 E.11355
G1 X152.457 Y101.011 E.01673
G1 X154.482 Y103.036 E.08987
G1 X153.948 Y103.036 E.01676
G1 X152.457 Y101.545 E.06617
G1 X152.457 Y102.079 E.01676
G1 X153.414 Y103.036 E.04247
G1 X152.881 Y103.036 E.01673
G1 X152.287 Y102.443 E.02634
M204 S1000
; stop printing object 6_marker.stl id:0 copy 1
; printing object 6_marker.stl id:0 copy 0
;WIPE_START
G1 F8640
G1 X152.881 Y103.036 E-.19381
G1 X153.414 Y103.036 E-.12307
G1 X152.457 Y102.079 E-.3125
G1 X152.457 Y101.545 E-.1233
G1 X152.602 Y101.69 E-.04732
;WIPE_END
G1 Z.6 F720
G1 X136.225 Y103.271 F10800
G1 Z.2 F720
G1 E.8 F2100
M204 S800
;TYPE:Perimeter
;WIDTH:0.419999
G1 F1200
G1 X113 Y103.271 E.7282
G1 X113 Y65.046 E1.19852
G1 X136.225 Y65.046 E.7282
G1 X136.225 Y103.211 E1.19663
M204 S1000
G1 X136.603 Y103.648 F10800
M204 S800
;TYPE:External perimeter
G1 F1200
G1 X112.623 Y103.648 E.75187
G1 X112.623 Y64.668 E1.22219
G1 X136.603 Y64.668 E.75187
G1 X136.603 Y103.588 E1.22031
M204 S1000
G1 X136.225 Y103.515 F10800
;WIPE_START
M73 P6 R43
M73 Q6 S43
G1 F8640
G1 X133.138 Y103.597 E-.8
;WIPE_END
G1 Z.6 F720
G1 X135.293 Y65.215 F10800
G1 Z.2 F720
G1 E.8 F2100
M204 S800
;TYPE:Solid infill
;WIDTH:0.420343
G1 F1200
G1 X135.886 Y65.809 E.02634
G1 X135.886 Y66.342 E.01673
G1 X134.929 Y65.385 E.04247
G1 X134.395 Y65.385 E.01676
G1 X135.886 Y66.876 E.06617
G1 X135.886 Y67.41 E.01676
G1 X133.861 Y65.385 E.08987
G1 X133.327 Y65.385 E.01676
G1 X135.886 Y67.944 E.11357
G1 X135.886 Y68.477 E.01673
G1 X132.794 Y65.385 E.13723
G1 X132.26 Y65.385 E.01676
G1 X135.886 Y69.011 E.16093
G1 X135.886 Y69.545 E.01676
G1 X131.726 Y65.385 E.18463
G1 X131.192 Y65.385 E.01676
G1 X135.886 Y70.079 E.20833
G1 X135.886 Y70.612 E.01673
G1 X130.659 Y65.385 E.23198
G1 X130.125 Y65.385 E.01676
G1 X135.886 Y71.146 E.25569
G1 X135.886 Y71.68 E.01676
G1 X129.591 Y65.385 E.27939
G1 X129.057 Y65.385 E.01676
G1 X135.886 Y72.214 E.30309
G1 X135.886 Y72.747 E.01673
G1 X128.524 Y65.385 E.32674
G1 X127.99 Y65.385 E.01676
G1 X135.886 Y73.281 E.35044
G1 X135.886 Y73.815 E.01676
G1 X127.456 Y65.385 E.37414
G1 X126.922 Y65.385 E.01676
G1 X135.886 Y74.349 E.39784
G1 X135.886 Y74.882 E.01673
G1 X126.389 Y65.385 E.4215
G1 X125.855 Y65.385 E.01676
G1 X135.886 Y75.416 E.4452
G1 X135.886 Y75.95 E.01676
G1 X125.321 Y65.385 E.4689
G1 X124.787 Y65.385 E.01676
G1 X135.886 Y76.484 E.4926
G1 X135.886 Y77.017 E.01673
M73 P6 R42
G1 X124.254 Y65.385 E.51625
G1 X123.72 Y65.385 E.01676
G1 X135.886 Y77.551 E.53995
G1 X135.886 Y78.085 E.01676
G1 X123.186 Y65.385 E.56365
G1 X122.652 Y65.385 E.01676
G1 X135.886 Y78.619 E.58735
G1 X135.886 Y79.152 E.01673
G1 X122.119 Y65.385 E.61101
G1 X121.585 Y65.385 E.01676
G1 X135.886 Y79.686 E.63471
G1 X135.886 Y80.22 E.01676
G1 X121.051 Y65.385 E.65841
G1 X120.517 Y65.385 E.01676
G1 X135.886 Y80.754 E.68211
G1 X135.886 Y81.287 E.01673
G1 X119.984 Y65.385 E.70576
G1 X119.45 Y65.385 E.01676
G1 X135.886 Y81.821 E.72946
G1 X135.886 Y82.355 E.01676
G1 X118.916 Y65.385 E.75316
G1 X118.382 Y65.385 E.01676
G1 X135.886 Y82.889 E.77686
G1 X135.886 Y83.423 E.01676
M73 Q6 S42
G1 X117.849 Y65.385 E.80054
G1 X117.315 Y65.385 E.01676
G1 X135.886 Y83.956 E.82422
G1 X135.886 Y84.49 E.01676
G1 X116.781 Y65.385 E.84792
G1 X116.247 Y65.385 E.01676
M73 P7 R42
M73 Q7 S42
G1 X135.886 Y85.024 E.87162
G1 X135.886 Y85.558 E.01676
G1 X115.713 Y65.385 E.89532
G1 X115.18 Y65.385 E.01673
G1 X135.886 Y86.091 E.91897
G1 X135.886 Y86.625 E.01676
G1 X114.646 Y65.385 E.94267
G1 X114.112 Y65.385 E.01676
G1 X135.886 Y87.159 E.96637
G1 X135.886 Y87.693 E.01676
G1 X113.578 Y65.385 E.99007
G1 X113.339 Y65.385 E.0075
G1 X113.339 Y65.679 E.00923
G1 X135.886 Y88.226 E1.00068
G1 X135.886 Y88.76 E.01676
G1 X113.339 Y66.213 E1.00068
G1 X113.339 Y66.747 E.01676
G1 X135.886 Y89.294 E1.00068
G1 X135.886 Y89.828 E.01676
G1 X113.339 Y67.28 E1.0007
G1 X113.339 Y67.814 E.01676
G1 X135.886 Y90.361 E1.00068
G1 X135.886 Y90.895 E.01676
G1 X113.339 Y68.348 E1.00068
G1 X113.339 Y68.882 E.01676
G1 X135.886 Y91.429 E1.00068
G1 X135.886 Y91.963 E.01676
G1 X113.339 Y69.416 E1.00068
G1 X113.339 Y69.949 E.01673
G1 X135.886 Y92.496 E1.00068
G1 X135.886 Y93.03 E.01676
G1 X113.339 Y70.483 E1.00068
G1 X113.339 Y71.017 E.01676
G1 X135.886 Y93.564 E1.00068
G1 X135.886 Y94.098 E.01676
M73 P8 R42
G1 X113.339 Y71.551 E1.00068
G1 X113.339 Y72.084 E.01673
M73 Q8 S42
G1 X135.886 Y94.631 E1.00068
G1 X135.886 Y95.165 E.01676
G1 X113.339 Y72.618 E1.00068
G1 X113.339 Y73.152 E.01676
G1 X135.886 Y95.699 E1.00068
G1 X135.886 Y96.233 E.01676
G1 X113.339 Y73.686 E1.00068
G1 X113.339 Y74.219 E.01673
G1 X135.886 Y96.766 E1.00068
G1 X135.886 Y97.3 E.01676
G1 X113.339 Y74.753 E1.00068
G1 X113.339 Y75.287 E.01676
G1 X135.886 Y97.834 E1.00068
G1 X135.886 Y98.368 E.01676
G1 X113.339 Y75.821 E1.00068
G1 X113.339 Y76.354 E.01673
G1 X135.886 Y98.901 E1.00068
G1 X135.886 Y99.435 E.01676
M73 P8 R41
G1 X113.339 Y76.888 E1.00068
G1 X113.339 Y77.422 E.01676
G1 X135.886 Y99.969 E1.00068
G1 X135.886 Y100.503 E.01676
G1 X113.339 Y77.956 E1.00068
G1 X113.339 Y78.489 E.01673
G1 X135.886 Y101.036 E1.00068
G1 X135.886 Y101.57 E.01676
G1 X113.339 Y79.023 E1.00068
G1 X113.339 Y79.557 E.01676
G1 X135.886 Y102.104 E1.00068
G1 X135.886 Y102.638 E.01676
G1 X113.339 Y80.091 E1.00068
G1 X113.339 Y80.624 E.01673
M73 P9 R41
M73 Q8 S41
G1 X135.647 Y102.932 E.99007
G1 X135.113 Y102.932 E.01676
M73 Q9 S41
G1 X113.339 Y81.158 E.96637
G1 X113.339 Y81.692 E.01676
G1 X134.579 Y102.932 E.94267
G1 X134.045 Y102.932 E.01676
G1 X113.339 Y82.226 E.91897
G1 X113.339 Y82.759 E.01673
G1 X133.512 Y102.932 E.89532
G1 X132.978 Y102.932 E.01676
G1 X113.339 Y83.293 E.87162
G1 X113.339 Y83.827 E.01676
G1 X132.444 Y102.932 E.84792
G1 X131.91 Y102.932 E.01676
G1 X113.339 Y84.361 E.82422
G1 X113.339 Y84.894 E.01673
G1 X131.377 Y102.932 E.80056
G1 X130.843 Y102.932 E.01676
G1 X113.339 Y85.428 E.77686
G1 X113.339 Y85.962 E.01676
G1 X130.309 Y102.932 E.75316
G1 X129.775 Y102.932 E.01676
G1 X113.339 Y86.496 E.72946
G1 X113.339 Y87.029 E.01673
G1 X129.242 Y102.932 E.70581
G1 X128.708 Y102.932 E.01676
G1 X113.339 Y87.563 E.68211
G1 X113.339 Y88.097 E.01676
G1 X128.174 Y102.932 E.65841
G1 X127.64 Y102.932 E.01676
G1 X113.339 Y88.631 E.63471
G1 X113.339 Y89.165 E.01676
G1 X127.107 Y102.932 E.61103
G1 X126.573 Y102.932 E.01676
G1 X113.339 Y89.698 E.58735
G1 X113.339 Y90.232 E.01676
G1 X126.039 Y102.932 E.56365
G1 X125.505 Y102.932 E.01676
G1 X113.339 Y90.766 E.53995
G1 X113.339 Y91.3 E.01676
G1 X124.971 Y102.932 E.51625
G1 X124.438 Y102.932 E.01673
G1 X113.339 Y91.833 E.4926
G1 X113.339 Y92.367 E.01676
G1 X123.904 Y102.932 E.4689
G1 X123.37 Y102.932 E.01676
M73 P10 R41
G1 X113.339 Y92.901 E.4452
G1 X113.339 Y93.435 E.01676
M73 Q10 S41
G1 X122.836 Y102.932 E.4215
