; generated by PrusaSlicer 2.6.0+win64 on 2023-11-15 at 07:51:01 UTC


;
;
; 

; external perimeters extrusion width = 0.45mm
; perimeters extrusion width = 0.45mm
; infill extrusion width = 0.45mm
; solid infill extrusion width = 0.45mm
; top infill extrusion width = 0.40mm
; first layer extrusion width = 0.42mm

M73 P0 R388
M73 Q0 S415
M201 X1000 Y1000 Z200 E5000 ; sets maximum accelerations, mm/sec^2
M203 X200 Y200 Z12 E120 ; sets maximum feedrates, mm / sec
M204 S1250 T1250 ; sets acceleration (S) and retract acceleration (R), mm/sec^2
M205 X8.00 Y8.00 Z0.40 E4.50 ; sets the jerk limits, mm/sec
M205 S0 T0 ; sets the minimum extruding and travel feed rate, mm/sec
;TYPE:Custom
M862.3 P "MK3S" ; printer model check
M862.1 P0.4 ; nozzle diameter check
M115 U3.12.2 ; tell printer latest fw version
G90 ; use absolute coordinates
M83 ; extruder relative mode
M104 S215 ; set extruder temp
M140 S60 ; set bed temp
M190 S60 ; wait for bed temp
M109 S215 ; wait for extruder temp
G28 W ; home all without mesh bed level
G80 ; mesh bed leveling

G1 Z0.2 F720
G1 Y-3 F1000 ; go outside print area
G92 E0
G1 X60 E9 F1000 ; intro line
G1 X100 E12.5 F1000 ; intro line

G92 E0
M221 S95

; Don't change E values below. Excessive value can damage the printer.

M907 E538 ; set extruder motor current
G21 ; set units to millimeters
G90 ; use absolute coordinates
M83 ; use relative distances for extrusion
M900 K0.05 ; Filament gcode LA 1.5
M900 K30 ; Filament gcode LA 1.0
M107
;LAYER_CHANGE
;Z:0.2
;HEIGHT:0.2
;BEFORE_LAYER_CHANGE
G92 E0.0
;0.2


G1 E-.8 F2100
G1 Z.4 F720
;AFTER_LAYER_CHANGE
;0.2
G1 X72.571 Y5.966 F10800
G1 Z.2 F720
G1 E.8 F2100
M204 S800
;TYPE:Skirt/Brim
;WIDTH:0.42
G1 F1200
G1 X72.963 Y4.659 E.04278
G1 X74.009 Y3.782 E.0428
G1 X74.949 Y3.588 E.03009
G1 X214.949 Y3.588 E4.3896
G1 X216.256 Y3.98 E.04278
G1 X217.132 Y5.026 E.04278
G1 X217.326 Y5.966 E.03009
G1 X217.326 Y205.966 E6.27086
G1 X216.934 Y207.273 E.04278
M73 P0 R387
M73 Q0 S414
G1 X215.888 Y208.149 E.04278
G1 X214.949 Y208.343 E.03006
G1 X74.949 Y208.343 E4.3896
G1 X73.641 Y207.951 E.04281
G1 X72.765 Y206.905 E.04278
G1 X72.571 Y205.966 E.03006
G1 X72.571 Y6.026 E6.26898
M204 S1000
; printing object 2_paper_floor.stl id:0 copy 0
;WIPE_START
G1 F8640
G1 X72.963 Y4.659 E-.32837
G1 X74.009 Y3.782 E-.31518
G1 X74.673 Y3.645 E-.15645
;WIPE_END
G1 Z.6 F720
G1 X145.714 Y117.273 F10800
G1 Z.2 F720
G1 E.8 F2100
M204 S800
;TYPE:Perimeter
;WIDTH:0.419999
G1 F1200
G1 X145.736 Y117.187 E.00278
G1 X145.734 Y94.706 E.70487
G1 X145.65 Y94.445 E.0086
G1 X145.442 Y94.248 E.00898
G1 X145.17 Y94.178 E.00881
G1 X75.736 Y94.178 E2.17705
G1 X75.736 Y6.753 E2.74114
G1 X158.161 Y6.753 E2.58437
G1 X158.161 Y30.187 E.73476
G1 X158.245 Y30.483 E.00965
G1 X158.452 Y30.681 E.00898
G1 X158.727 Y30.753 E.00891
G1 X181.209 Y30.751 E.70491
G1 X181.475 Y30.664 E.00877
G1 X181.663 Y30.464 E.00861
G1 X181.736 Y30.187 E.00898
G1 X181.736 Y6.753 E.73476
G1 X214.161 Y6.753 E1.01666
G1 X214.161 Y205.178 E6.22147
G1 X181.736 Y205.178 E1.01666
G1 X181.736 Y181.744 E.73476
G1 X181.65 Y181.445 E.00976
G1 X181.44 Y181.247 E.00905
G1 X181.17 Y181.178 E.00874
G1 X159.601 Y181.178 E.67628
G1 X158.696 Y181.179 E.02838
M73 Q0 S413
G1 X158.429 Y181.263 E.00878
G1 X158.234 Y181.466 E.00883
G1 X158.161 Y181.744 E.00901
G1 X158.161 Y205.178 E.73476
G1 X75.736 Y205.178 E2.58437
G1 X75.736 Y117.753 E2.74114
G1 X145.21 Y117.751 E2.1783
M73 P0 R386
G1 X145.476 Y117.662 E.00879
G1 X145.666 Y117.459 E.00872
G1 X145.699 Y117.331 E.00414
M204 S1000
G1 X145.359 Y117.187 F10800
M204 S800
;TYPE:External perimeter
G1 F1200
G1 X145.359 Y94.744 E.70368
G1 X145.316 Y94.624 E.004
G1 X145.17 Y94.556 E.00505
G1 X75.359 Y94.556 E2.18887
G1 X75.359 Y6.376 E2.76482
G1 X158.539 Y6.376 E2.60805
G1 X158.539 Y30.187 E.74658
G1 X158.579 Y30.304 E.00388
G1 X158.725 Y30.376 E.0051
G1 X181.17 Y30.376 E.70375
G1 X181.289 Y30.333 E.00397
G1 X181.359 Y30.187 E.00508
G1 X181.359 Y6.376 E.74658
G1 X214.539 Y6.376 E1.04033
G1 X214.539 Y205.556 E6.24514
G1 X181.359 Y205.556 E1.04033
G1 X181.359 Y181.744 E.74661
G1 X181.316 Y181.625 E.00397
G1 X181.17 Y181.556 E.00506
G1 X158.727 Y181.556 E.70368
G1 X158.607 Y181.599 E.004
G1 X158.539 Y181.744 E.00502
G1 X158.539 Y205.556 E.74661
G1 X75.359 Y205.556 E2.60805
G1 X75.359 Y117.376 E2.76482
G1 X145.17 Y117.376 E2.18887
G1 X145.291 Y117.332 E.00404
M73 Q0 S412
G1 X145.333 Y117.241 E.00314
M204 S1000
G1 X145.745 Y117.084 F10800
;WIPE_START
G1 F8640
G1 X145.337 Y113.776 E-.8
;WIPE_END
G1 Z.6 F720
G1 X184.464 Y89.033 F10800
G1 Z.2 F720
G1 E.8 F2100
M204 S800
;TYPE:Perimeter
G1 F1200
G1 X183.966 Y88.461 E.02378
G1 X183.527 Y87.691 E.02779
G1 X183.268 Y86.907 E.02589
G1 X183.166 Y86.094 E.02569
G1 X183.219 Y85.277 E.02567
G1 X183.428 Y84.485 E.02568
G1 X183.82 Y83.688 E.02785
G1 X184.401 Y82.954 E.02935
G1 X184.993 Y82.454 E.0243
G1 X185.712 Y82.048 E.02589
G1 X186.489 Y81.789 E.02568
G1 X187.247 Y81.69 E.02397
G1 X188.187 Y81.745 E.02952
G1 X188.982 Y81.964 E.02586
G1 X189.715 Y82.329 E.02567
G1 X190.366 Y82.827 E.0257
G1 X190.91 Y83.44 E.0257
G1 X191.356 Y84.208 E.02785
G1 X191.635 Y85.056 E.02799
G1 X191.732 Y85.874 E.02583
G1 X191.672 Y86.691 E.02569
G1 X191.431 Y87.546 E.02785
G1 X191.055 Y88.28 E.02586
G1 X190.549 Y88.923 E.02565
G1 X189.929 Y89.459 E.0257
G1 X189.219 Y89.867 E.02568
G1 X188.444 Y90.133 E.02569
G1 X187.563 Y90.248 E.02786
G1 X186.754 Y90.193 E.02542
G1 X185.95 Y89.98 E.02608
G1 X185.06 Y89.523 E.03137
G1 X184.504 Y89.078 E.02233
M204 S1000
G1 X184.761 Y88.801 F10800
M204 S800
;TYPE:External perimeter
G1 F1200
G1 X184.253 Y88.217 E.02427
G1 X183.857 Y87.508 E.02546
G1 X183.628 Y86.794 E.02351
G1 X183.54 Y86.052 E.02343
G1 X183.595 Y85.306 E.02345
G1 X183.791 Y84.585 E.02343
G1 X184.156 Y83.858 E.02551
G1 X184.618 Y83.269 E.02347
G1 X185.236 Y82.743 E.02545
G1 X185.893 Y82.379 E.02355
G1 X186.604 Y82.149 E.02343
G1 X187.291 Y82.064 E.0217
G1 X188.156 Y82.121 E.02718
G1 X188.877 Y82.327 E.02351
G1 X189.543 Y82.665 E.02342
G1 X190.133 Y83.124 E.02344
G1 X190.625 Y83.686 E.02342
G1 X191.027 Y84.393 E.0255
G1 X191.276 Y85.169 E.02555
G1 X191.357 Y85.914 E.0235
G1 X191.296 Y86.658 E.02341
G1 X191.069 Y87.439 E.0255
G1 X190.722 Y88.103 E.02349
G1 X190.255 Y88.687 E.02345
G1 X189.686 Y89.171 E.02342
G1 X189.035 Y89.538 E.02343
G1 X188.326 Y89.775 E.02344
G1 X187.519 Y89.874 E.02549
G1 X186.785 Y89.817 E.02308
G1 X186.052 Y89.617 E.02382
G1 X185.295 Y89.228 E.02669
G1 X184.808 Y88.838 E.01956
M204 S1000
G1 X184.377 Y88.915 F10800
;WIPE_START
G1 F8640
G1 X184.253 Y88.217 E-.19231
G1 X183.857 Y87.508 E-.18751
G1 X183.628 Y86.794 E-.17314
G1 X183.54 Y86.052 E-.17253
G1 X183.564 Y85.73 E-.07451
;WIPE_END
G1 Z.6 F720
G1 X191.728 Y125.935 F10800
G1 Z.2 F720
G1 E.8 F2100
M204 S800
;TYPE:Perimeter
G1 F1200
G1 X191.672 Y126.691 E.02377
G1 X191.431 Y127.546 E.02785
G1 X191.055 Y128.28 E.02586
G1 X190.549 Y128.923 E.02565
G1 X189.929 Y129.459 E.0257
G1 X189.219 Y129.867 E.02568
G1 X188.444 Y130.133 E.02569
G1 X187.563 Y130.248 E.02786
G1 X186.741 Y130.192 E.02583
G1 X185.95 Y129.98 E.02568
G1 X185.155 Y129.584 E.02785
G1 X184.504 Y129.079 E.02583
G1 X183.966 Y128.461 E.02569
G1 X183.527 Y127.691 E.02779
G1 X183.268 Y126.907 E.02589
G1 X183.166 Y126.094 E.02569
G1 X183.219 Y125.277 E.02567
G1 X183.428 Y124.485 E.02568
G1 X183.82 Y123.688 E.02785
G1 X184.323 Y123.035 E.02584
G1 X184.944 Y122.496 E.02578
G1 X185.583 Y122.119 E.02326
G1 X185.811 Y122.006 E.00798
G1 X186.49 Y121.789 E.02235
G1 X187.289 Y121.685 E.02526
G1 X188.23 Y121.753 E.02958
G1 X188.982 Y121.965 E.0245
G1 X189.715 Y122.329 E.02566
G1 X190.366 Y122.827 E.0257
G1 X190.955 Y123.499 E.02802
G1 X191.356 Y124.208 E.02554
G1 X191.635 Y125.056 E.02799
G1 X191.732 Y125.875 E.02586
M204 S1000
G1 X191.356 Y125.897 F10800
M204 S800
;TYPE:External perimeter
G1 F1200
G1 X191.296 Y126.658 E.02393
G1 X191.069 Y127.439 E.0255
G1 X190.722 Y128.103 E.02349
G1 X190.255 Y128.687 E.02345
G1 X189.686 Y129.171 E.02342
G1 X189.035 Y129.538 E.02343
G1 X188.326 Y129.775 E.02344
G1 X187.519 Y129.874 E.02549
G1 X186.772 Y129.816 E.02349
G1 X186.052 Y129.617 E.02342
G1 X185.327 Y129.249 E.02549
G1 X184.74 Y128.784 E.02348
G1 X184.253 Y128.217 E.02344
G1 X183.857 Y127.508 E.02546
G1 X183.628 Y126.794 E.02351
G1 X183.54 Y126.052 E.02343
G1 X183.595 Y125.306 E.02345
G1 X183.791 Y124.585 E.02343
G1 X184.156 Y123.858 E.02551
G1 X184.618 Y123.269 E.02347
G1 X185.187 Y122.784 E.02344
G1 X185.926 Y122.365 E.02664
G1 X186.604 Y122.149 E.02231
G1 X187.333 Y122.059 E.02303
G1 X188.128 Y122.116 E.02499
G1 X188.877 Y122.327 E.0244
G1 X189.543 Y122.665 E.02342
G1 X190.133 Y123.124 E.02344
G1 X190.64 Y123.706 E.0242
G1 X191.027 Y124.393 E.02472
G1 X191.276 Y125.169 E.02555
G1 X191.349 Y125.837 E.02107
M204 S1000
G1 X191.706 Y126.09 F10800
;WIPE_START
G1 F8640
G1 X191.296 Y126.658 E-.18997
G1 X191.069 Y127.439 E-.1878
G1 X190.722 Y128.103 E-.17299
G1 X190.255 Y128.687 E-.17266
G1 X190.002 Y128.902 E-.07658
;WIPE_END
G1 Z.6 F720
G1 X157.992 Y7.727 F10800
G1 Z.2 F720
G1 E.8 F2100
M204 S800
;TYPE:Solid infill
;WIDTH:0.420322
G1 F1200
G1 X157.357 Y7.092 E.02818
G1 X156.823 Y7.092 E.01676
G1 X157.822 Y8.091 E.04434
G1 X157.822 Y8.624 E.01673
G1 X156.29 Y7.092 E.06799
G1 X155.756 Y7.092 E.01676
G1 X157.822 Y9.158 E.09169
G1 X157.822 Y9.692 E.01676
M73 P0 R385
G1 X155.222 Y7.092 E.11539
G1 X154.689 Y7.092 E.01673
G1 X157.822 Y10.226 E.13906
G1 X157.822 Y10.759 E.01673
G1 X154.155 Y7.092 E.16274
G1 X153.621 Y7.092 E.01676
G1 X157.822 Y11.293 E.18644
G1 X157.822 Y11.827 E.01676
G1 X153.087 Y7.092 E.21014
G1 X152.554 Y7.092 E.01673
G1 X157.822 Y12.36 E.23379
G1 X157.822 Y12.894 E.01676
G1 X152.02 Y7.092 E.25749
G1 X151.486 Y7.092 E.01676
G1 X157.822 Y13.428 E.28119
G1 X157.822 Y13.962 E.01676
G1 X150.952 Y7.092 E.30489
G1 X150.419 Y7.092 E.01673
G1 X157.822 Y14.495 E.32854
G1 X157.822 Y15.029 E.01676
G1 X149.885 Y7.092 E.35224
G1 X149.351 Y7.092 E.01676
G1 X157.822 Y15.563 E.37594
G1 X157.822 Y16.097 E.01676
G1 X148.818 Y7.092 E.39962
G1 X148.284 Y7.092 E.01676
G1 X157.822 Y16.63 E.42329
G1 X157.822 Y17.164 E.01676
G1 X147.75 Y7.092 E.44699
G1 X147.216 Y7.092 E.01676
G1 X157.822 Y17.698 E.47069
G1 X157.822 Y18.231 E.01673
G1 X146.683 Y7.092 E.49434
G1 X146.149 Y7.092 E.01676
G1 X157.822 Y18.765 E.51804
G1 X157.822 Y19.299 E.01676
G1 X145.615 Y7.092 E.54174
G1 X145.081 Y7.092 E.01676
G1 X157.822 Y19.833 E.56544
G1 X157.822 Y20.366 E.01673
G1 X144.548 Y7.092 E.58909
G1 X144.014 Y7.092 E.01676
G1 X157.822 Y20.9 E.61279
G1 X157.822 Y21.434 E.01676
G1 X143.48 Y7.092 E.63649
G1 X142.947 Y7.092 E.01673
G1 X157.822 Y21.968 E.66017
G1 X157.822 Y22.501 E.01673
G1 X142.413 Y7.092 E.68385
G1 X141.879 Y7.092 E.01676
G1 X157.822 Y23.035 E.70754
G1 X157.822 Y23.569 E.01676
G1 X141.345 Y7.092 E.73124
G1 X140.812 Y7.092 E.01673
G1 X157.822 Y24.102 E.7549
G1 X157.822 Y24.636 E.01676
G1 X140.278 Y7.092 E.7786
G1 X139.744 Y7.092 E.01676
G1 X157.822 Y25.17 E.80229
G1 X157.822 Y25.704 E.01676
G1 X139.21 Y7.092 E.82599
G1 X138.677 Y7.092 E.01673
G1 X157.822 Y26.237 E.84965
G1 X157.822 Y26.771 E.01676
G1 X138.143 Y7.092 E.87335
G1 X137.609 Y7.092 E.01676
G1 X157.822 Y27.305 E.89704
G1 X157.822 Y27.839 E.01676
G1 X137.076 Y7.092 E.92072
G1 X136.542 Y7.092 E.01676
G1 X157.822 Y28.372 E.9444
G1 X157.822 Y28.906 E.01676
G1 X136.008 Y7.092 E.9681
G1 X135.474 Y7.092 E.01676
G1 X157.822 Y29.44 E.99179
G1 X157.822 Y29.973 E.01673
G1 X134.771 Y6.922 E1.02299
M204 S1000
;WIPE_START
G1 F8640
G1 X137.221 Y9.372 E-.8
;WIPE_END
G1 Z.6 F720
G1 X213.992 Y7.685 F10800
G1 Z.2 F720
G1 E.8 F2100
M204 S800
G1 F1200
G1 X213.398 Y7.092 E.02634
G1 X212.865 Y7.092 E.01673
G1 X213.822 Y8.049 E.04247
G1 X213.822 Y8.583 E.01676
G1 X212.331 Y7.092 E.06617
G1 X211.797 Y7.092 E.01676
G1 X213.822 Y9.117 E.08987
G1 X213.822 Y9.651 E.01676
G1 X211.264 Y7.092 E.11355
G1 X210.73 Y7.092 E.01676
G1 X213.822 Y10.184 E.13722
G1 X213.822 Y10.718 E.01676
G1 X210.196 Y7.092 E.16092
G1 X209.662 Y7.092 E.01676
G1 X213.822 Y11.252 E.18462
G1 X213.822 Y11.785 E.01673
G1 X209.129 Y7.092 E.20827
G1 X208.595 Y7.092 E.01676
G1 X213.822 Y12.319 E.23197
G1 X213.822 Y12.853 E.01676
G1 X208.061 Y7.092 E.25567
G1 X207.527 Y7.092 E.01676
G1 X213.822 Y13.387 E.27937
G1 X213.822 Y13.92 E.01673
G1 X206.994 Y7.092 E.30302
G1 X206.46 Y7.092 E.01676
G1 X213.822 Y14.454 E.32672
G1 X213.822 Y14.988 E.01676
G1 X205.926 Y7.092 E.35042
G1 X205.393 Y7.092 E.01673
G1 X213.822 Y15.522 E.3741
G1 X213.822 Y16.055 E.01673
G1 X204.859 Y7.092 E.39777
G1 X204.325 Y7.092 E.01676
G1 X213.822 Y16.589 E.42147
G1 X213.822 Y17.123 E.01676
G1 X203.791 Y7.092 E.44517
G1 X203.258 Y7.092 E.01673
G1 X213.822 Y17.656 E.46883
G1 X213.822 Y18.19 E.01676
G1 X202.724 Y7.092 E.49252
G1 X202.19 Y7.092 E.01676
G1 X213.822 Y18.724 E.51622
G1 X213.822 Y19.258 E.01676
G1 X201.656 Y7.092 E.53992
G1 X201.123 Y7.092 E.01673
G1 X213.822 Y19.791 E.56358
G1 X213.822 Y20.325 E.01676
G1 X200.589 Y7.092 E.58728
G1 X200.055 Y7.092 E.01676
M73 Q0 S411
G1 X213.822 Y20.859 E.61097
G1 X213.822 Y21.393 E.01676
G1 X199.522 Y7.092 E.63465
G1 X198.988 Y7.092 E.01676
G1 X213.822 Y21.926 E.65833
G1 X213.822 Y22.46 E.01676
G1 X198.454 Y7.092 E.68203
G1 X197.92 Y7.092 E.01676
G1 X213.822 Y22.994 E.70572
G1 X213.822 Y23.527 E.01673
G1 X197.387 Y7.092 E.72938
G1 X196.853 Y7.092 E.01676
G1 X213.822 Y24.061 E.75308
G1 X213.822 Y24.595 E.01676
G1 X196.319 Y7.092 E.77678
G1 X195.785 Y7.092 E.01676
G1 X213.822 Y25.129 E.80047
G1 X213.822 Y25.662 E.01673
M73 P0 R384
G1 X195.252 Y7.092 E.82413
G1 X194.718 Y7.092 E.01676
G1 X213.822 Y26.196 E.84783
G1 X213.822 Y26.73 E.01676
G1 X194.184 Y7.092 E.87153
G1 X193.651 Y7.092 E.01673
G1 X213.822 Y27.264 E.8952
G1 X213.822 Y27.797 E.01673
G1 X193.117 Y7.092 E.91888
G1 X192.583 Y7.092 E.01676
G1 X213.822 Y28.331 E.94258
G1 X213.822 Y28.865 E.01676
G1 X192.049 Y7.092 E.96628
G1 X191.516 Y7.092 E.01673
G1 X213.822 Y29.398 E.98993
G1 X213.822 Y29.932 E.01676
G1 X190.982 Y7.092 E1.01363
G1 X190.448 Y7.092 E.01676
G1 X213.822 Y30.466 E1.03733
G1 X213.822 Y31 E.01676
G1 X189.914 Y7.092 E1.06103
G1 X189.381 Y7.092 E.01673
G1 X213.822 Y31.533 E1.08468
G1 X213.822 Y32.067 E.01676
G1 X188.847 Y7.092 E1.10838
G1 X188.313 Y7.092 E.01676
G1 X213.822 Y32.601 E1.13208
G1 X213.822 Y33.134 E.01673
G1 X187.78 Y7.092 E1.15573
G1 X187.246 Y7.092 E.01676
G1 X213.822 Y33.668 E1.17943
G1 X213.822 Y34.202 E.01676
G1 X186.712 Y7.092 E1.20313
G1 X186.178 Y7.092 E.01676
G1 X213.822 Y34.736 E1.22683
G1 X213.822 Y35.269 E.01673
M73 P1 R384
G1 X185.645 Y7.092 E1.25048
G1 X185.111 Y7.092 E.01676
G1 X213.822 Y35.803 E1.27418
G1 X213.822 Y36.337 E.01676
G1 X184.577 Y7.092 E1.29788
G1 X184.044 Y7.092 E.01673
G1 X213.822 Y36.871 E1.32156
G1 X213.822 Y37.404 E.01673
G1 X183.51 Y7.092 E1.34523
G1 X182.976 Y7.092 E.01676
G1 X213.822 Y37.938 E1.36893
G1 X213.822 Y38.472 E.01676
G1 X182.442 Y7.092 E1.39263
G1 X182.075 Y7.092 E.01152
M73 Q1 S411
G1 X182.075 Y7.258 E.00521
G1 X213.822 Y39.005 E1.40892
G1 X213.822 Y39.539 E.01676
G1 X182.075 Y7.792 E1.40892
G1 X182.075 Y8.326 E.01676
M73 Q1 S410
G1 X213.822 Y40.073 E1.40892
G1 X213.822 Y40.607 E.01676
G1 X182.075 Y8.86 E1.40892
G1 X182.075 Y9.393 E.01673
G1 X213.822 Y41.14 E1.40892
G1 X213.822 Y41.674 E.01676
G1 X182.075 Y9.927 E1.40892
G1 X182.075 Y10.461 E.01676
M73 P1 R383
G1 X213.822 Y42.208 E1.40892
G1 X213.822 Y42.742 E.01676
G1 X182.075 Y10.994 E1.40894
G1 X182.075 Y11.528 E.01676
G1 X213.822 Y43.275 E1.40892
G1 X213.822 Y43.809 E.01676
G1 X182.075 Y12.062 E1.40892
G1 X182.075 Y12.596 E.01676
G1 X213.822 Y44.343 E1.40892
G1 X213.822 Y44.876 E.01673
G1 X182.075 Y13.129 E1.40892
G1 X182.075 Y13.663 E.01676
G1 X213.822 Y45.41 E1.40892
G1 X213.822 Y45.944 E.01676
G1 X182.075 Y14.197 E1.40892
G1 X182.075 Y14.731 E.01676
G1 X213.822 Y46.478 E1.40892
G1 X213.822 Y47.011 E.01673
G1 X182.075 Y15.264 E1.40892
G1 X182.075 Y15.798 E.01676
G1 X213.822 Y47.545 E1.40892
G1 X213.822 Y48.079 E.01676
G1 X182.075 Y16.332 E1.40892
G1 X182.075 Y16.865 E.01673
G1 X213.822 Y48.613 E1.40894
G1 X213.822 Y49.146 E.01673
G1 X182.075 Y17.399 E1.40892
G1 X182.075 Y17.933 E.01676
