; generated by PrusaSlicer 2.6.0+win64 on 2023-11-15 at 07:52:42 UTC


;
;
; 

; external perimeters extrusion width = 0.45mm
; perimeters extrusion width = 0.45mm
; infill extrusion width = 0.45mm
; solid infill extrusion width = 0.45mm
; top infill extrusion width = 0.40mm
; first layer extrusion width = 0.42mm

M73 P0 R559
M73 Q0 S605
M201 X1000 Y1000 Z200 E5000 ; sets maximum accelerations, mm/sec^2
M203 X200 Y200 Z12 E120 ; sets maximum feedrates, mm / sec
M204 S1250 T1250 ; sets acceleration (S) and retract acceleration (R), mm/sec^2
M205 X8.00 Y8.00 Z0.40 E4.50 ; sets the jerk limits, mm/sec
M205 S0 T0 ; sets the minimum extruding and travel feed rate, mm/sec
;TYPE:Custom
M862.3 P "MK3S" ; printer model check
M862.1 P0.4 ; nozzle diameter check
M115 U3.12.2 ; tell printer latest fw version
G90 ; use absolute coordinates
M83 ; extruder relative mode
M104 S215 ; set extruder temp
M140 S60 ; set bed temp
M190 S60 ; wait for bed temp
M109 S215 ; wait for extruder temp
G28 W ; home all without mesh bed level
G80 ; mesh bed leveling

G1 Z0.2 F720
G1 Y-3 F1000 ; go outside print area
G92 E0
G1 X60 E9 F1000 ; intro line
G1 X100 E12.5 F1000 ; intro line

G92 E0
M221 S95

; Don't change E values below. Excessive value can damage the printer.

M907 E538 ; set extruder motor current
G21 ; set units to millimeters
G90 ; use absolute coordinates
M83 ; use relative distances for extrusion
M900 K0.05 ; Filament gcode LA 1.5
M900 K30 ; Filament gcode LA 1.0
M107
;LAYER_CHANGE
;Z:0.2
;HEIGHT:0.2
;BEFORE_LAYER_CHANGE
G92 E0.0
;0.2


G1 E-.8 F2100
G1 Z.4 F720
;AFTER_LAYER_CHANGE
;0.2
G1 X32.805 Y5.001 F10800
G1 Z.2 F720
G1 E.8 F2100
M204 S800
;TYPE:Skirt/Brim
;WIDTH:0.42
G1 F1200
G1 X33.196 Y3.694 E.04277
G1 X34.242 Y2.818 E.04278
G1 X35.182 Y2.624 E.03009
G1 X245.182 Y2.624 E6.5844
G1 X246.489 Y3.016 E.04278
G1 X247.365 Y4.062 E.04278
G1 X247.559 Y5.001 E.03006
G1 X247.559 Y205.001 E6.27086
G1 X247.167 Y206.308 E.04278
G1 X246.122 Y207.185 E.04277
G1 X245.182 Y207.379 E.03009
G1 X35.182 Y207.379 E6.5844
G1 X33.875 Y206.987 E.04278
M73 Q0 S604
G1 X32.998 Y205.941 E.0428
G1 X32.805 Y205.001 E.03009
G1 X32.805 Y5.061 E6.26898
M204 S1000
; printing object 2_paper_floor.stl id:0 copy 0
;WIPE_START
G1 F8640
M73 P0 R558
G1 X33.196 Y3.694 E-.3283
G1 X34.242 Y2.818 E-.31504
G1 X34.906 Y2.681 E-.15666
;WIPE_END
G1 Z.6 F720
G1 X174.417 Y93.694 F10800
G1 Z.2 F720
G1 E.8 F2100
M204 S800
;TYPE:Perimeter
;WIDTH:0.419999
G1 F1200
G1 X174.395 Y93.78 E.00278
G1 X174.396 Y116.256 E.70472
G1 X174.483 Y116.527 E.00892
G1 X174.686 Y116.717 E.00872
G1 X174.96 Y116.789 E.00888
G1 X244.395 Y116.789 E2.17708
G1 X244.395 Y204.214 E2.74114
G1 X161.969 Y204.214 E2.58441
G1 X161.969 Y180.78 E.73476
G1 X161.885 Y180.484 E.00965
G1 X161.679 Y180.286 E.00896
G1 X161.405 Y180.214 E.00888
G1 X139.684 Y180.214 E.68105
G1 X138.922 Y180.216 E.02389
G1 X138.658 Y180.302 E.00871
G1 X138.468 Y180.503 E.00867
G1 X138.395 Y180.78 E.00898
G1 X138.395 Y204.214 E.73476
G1 X81.969 Y204.214 E1.76919
G1 X81.969 Y180.78 E.73476
G1 X81.879 Y180.474 E.01
G1 X81.675 Y180.284 E.00874
G1 X81.403 Y180.214 E.00881
G1 X58.96 Y180.214 E.70368
G1 X58.899 Y180.218 E.00192
G1 X58.634 Y180.318 E.00888
G1 X58.457 Y180.522 E.00847
G1 X58.395 Y180.78 E.00832
G1 X58.395 Y204.214 E.73476
G1 X35.969 Y204.214 E.70315
G1 X35.969 Y5.789 E6.22147
G1 X58.395 Y5.789 E.70315
G1 X58.395 Y29.223 E.73476
G1 X58.4 Y29.301 E.00245
G1 X58.494 Y29.543 E.00814
G1 X58.684 Y29.716 E.00806
G1 X58.96 Y29.789 E.00895
G1 X81.403 Y29.789 E.70368
G1 X81.704 Y29.702 E.00982
M73 Q0 S603
G1 X81.896 Y29.5 E.00874
G1 X81.969 Y29.223 E.00898
G1 X81.969 Y5.789 E.73476
G1 X138.395 Y5.789 E1.76919
G1 X138.395 Y29.223 E.73476
G1 X138.479 Y29.52 E.00968
G1 X138.684 Y29.717 E.00891
G1 X138.96 Y29.789 E.00894
G1 X161.435 Y29.788 E.70469
G1 X161.701 Y29.704 E.00875
G1 X161.896 Y29.501 E.00883
G1 X161.969 Y29.223 E.00901
G1 X161.969 Y5.789 E.73476
G1 X244.395 Y5.789 E2.58441
G1 X244.395 Y93.214 E2.74114
G1 X174.921 Y93.216 E2.1783
M73 P0 R557
G1 X174.655 Y93.304 E.00878
G1 X174.464 Y93.51 E.00881
G1 X174.431 Y93.636 E.00408
M204 S1000
G1 X174.772 Y93.78 F10800
M204 S800
;TYPE:External perimeter
G1 F1200
G1 X174.772 Y116.223 E.70368
G1 X174.817 Y116.345 E.00408
G1 X174.96 Y116.411 E.00494
G1 X244.772 Y116.411 E2.1889
G1 X244.772 Y204.591 E2.76482
G1 X161.592 Y204.591 E2.60805
G1 X161.592 Y180.78 E.74658
G1 X161.551 Y180.663 E.00389
G1 X161.407 Y180.591 E.00505
G1 X138.96 Y180.591 E.70381
G1 X138.841 Y180.634 E.00397
G1 X138.772 Y180.78 E.00506
G1 X138.772 Y204.591 E.74658
G1 X81.592 Y204.591 E1.79284
G1 X81.592 Y180.78 E.74658
G1 X81.55 Y180.662 E.00393
G1 X81.403 Y180.591 E.00512
G1 X58.96 Y180.591 E.70368
G1 X58.835 Y180.639 E.0042
G1 X58.772 Y180.78 E.00484
G1 X58.772 Y204.591 E.74658
G1 X35.592 Y204.591 E.72679
G1 X35.592 Y5.411 E6.24514
G1 X58.772 Y5.411 E.72679
G1 X58.772 Y29.223 E.74661
G1 X58.819 Y29.348 E.00419
G1 X58.96 Y29.411 E.00484
G1 X81.403 Y29.411 E.70368
G1 X81.522 Y29.37 E.00395
G1 X81.592 Y29.223 E.0051
G1 X81.592 Y5.411 E.74661
G1 X138.772 Y5.411 E1.79284
G1 X138.772 Y29.223 E.74661
M73 Q0 S602
G1 X138.813 Y29.341 E.00392
G1 X138.96 Y29.411 E.0051
G1 X161.403 Y29.411 E.70368
G1 X161.523 Y29.368 E.004
G1 X161.592 Y29.223 E.00503
G1 X161.592 Y5.411 E.74661
G1 X244.772 Y5.411 E2.60805
G1 X244.772 Y93.591 E2.76482
G1 X174.96 Y93.591 E2.1889
G1 X174.841 Y93.634 E.00397
M73 P0 R556
G1 X174.798 Y93.726 E.00318
M204 S1000
G1 X174.386 Y93.884 F10800
;WIPE_START
G1 F8640
G1 X174.794 Y97.191 E-.8
;WIPE_END
G1 Z.6 F720
G1 X131.129 Y128.989 F10800
G1 Z.2 F720
G1 E.8 F2100
M204 S800
;TYPE:Perimeter
G1 F1200
G1 X130.447 Y128.657 E.02378
G1 X129.741 Y128.118 E.02785
G1 X129.199 Y127.497 E.02584
G1 X128.788 Y126.789 E.02567
G1 X128.519 Y126.015 E.02569
G1 X128.4 Y125.135 E.02784
G1 X128.465 Y124.246 E.02795
G1 X128.687 Y123.451 E.02588
G1 X129.056 Y122.719 E.0257
G1 X129.556 Y122.071 E.02566
G1 X130.227 Y121.49 E.02783
G1 X130.945 Y121.084 E.02586
G1 X131.723 Y120.825 E.02571
G1 X132.522 Y120.721 E.02526
G1 X133.464 Y120.789 E.02961
G1 X134.216 Y121 E.02449
G1 X134.948 Y121.365 E.02565
G1 X135.599 Y121.871 E.02585
G1 X136.186 Y122.536 E.02781
G1 X136.592 Y123.248 E.0257
G1 X136.868 Y124.078 E.02743
G1 X136.965 Y124.905 E.02611
G1 X136.905 Y125.727 E.02584
G1 X136.664 Y126.582 E.02785
G1 X136.288 Y127.315 E.02583
G1 X135.782 Y127.959 E.02568
G1 X135.163 Y128.495 E.02567
G1 X134.453 Y128.903 E.02568
G1 X133.678 Y129.169 E.02569
G1 X132.882 Y129.274 E.02517
G1 X131.975 Y129.228 E.02847
G1 X131.183 Y129.015 E.02571
M204 S1000
G1 X131.256 Y128.638 F10800
M204 S800
;TYPE:External perimeter
G1 F1200
G1 X130.616 Y128.32 E.02241
G1 X129.974 Y127.821 E.02549
G1 X129.486 Y127.253 E.02348
G1 X129.116 Y126.604 E.02342
G1 X128.876 Y125.896 E.02344
G1 X128.774 Y125.089 E.0255
G1 X128.84 Y124.278 E.02551
G1 X129.049 Y123.558 E.02351
G1 X129.39 Y122.893 E.02343
G1 X129.852 Y122.305 E.02345
G1 X130.47 Y121.778 E.02547
G1 X131.126 Y121.415 E.02351
G1 X131.837 Y121.185 E.02343
G1 X132.567 Y121.095 E.02306
G1 X133.362 Y121.152 E.02499
G1 X134.11 Y121.362 E.02436
G1 X134.776 Y121.701 E.02343
G1 X135.363 Y122.165 E.02346
G1 X135.897 Y122.778 E.02549
G1 X136.261 Y123.43 E.02341
G1 X136.5 Y124.158 E.02402
G1 X136.591 Y124.948 E.02493
G1 X136.529 Y125.694 E.02347
G1 X136.303 Y126.475 E.02549
G1 X135.955 Y127.139 E.02351
G1 X135.489 Y127.723 E.02343
G1 X134.92 Y128.207 E.02342
G1 X134.269 Y128.574 E.02343
G1 X133.56 Y128.811 E.02344
G1 X132.837 Y128.9 E.02284
G1 X132.006 Y128.852 E.0261
G1 X131.311 Y128.66 E.02261
M204 S1000
G1 X130.946 Y128.891 F10800
;WIPE_START
G1 F8640
G1 X130.616 Y128.32 E-.17865
G1 X129.974 Y127.821 E-.18775
G1 X129.486 Y127.253 E-.17291
G1 X129.116 Y126.604 E-.1725
G1 X128.993 Y126.242 E-.08819
;WIPE_END
G1 Z.6 F720
G1 X130.282 Y81.459 F10800
G1 Z.2 F720
G1 E.8 F2100
M204 S800
;TYPE:Perimeter
G1 F1200
G1 X130.945 Y81.084 E.02388
G1 X131.723 Y80.825 E.02571
G1 X132.535 Y80.719 E.02568
G1 X133.352 Y80.769 E.02566
G1 X134.21 Y80.999 E.02785
G1 X134.948 Y81.365 E.02583
G1 X135.649 Y81.911 E.02786
G1 X136.186 Y82.536 E.02584
G1 X136.592 Y83.248 E.0257
G1 X136.854 Y84.024 E.02568
G1 X136.965 Y84.905 E.02784
G1 X136.905 Y85.727 E.02584
G1 X136.664 Y86.582 E.02785
G1 X136.288 Y87.315 E.02583
G1 X135.782 Y87.959 E.02568
G1 X135.212 Y88.453 E.02365
G1 X134.453 Y88.903 E.02767
G1 X133.678 Y89.169 E.02569
G1 X132.797 Y89.284 E.02786
G1 X131.987 Y89.229 E.02546
G1 X131.183 Y89.016 E.02608
G1 X130.447 Y88.657 E.02568
G1 X129.741 Y88.118 E.02785
G1 X129.199 Y87.497 E.02584
G1 X128.788 Y86.789 E.02567
G1 X128.519 Y86.015 E.02569
G1 X128.4 Y85.135 E.02784
G1 X128.465 Y84.246 E.02795
G1 X128.687 Y83.451 E.02588
G1 X129.056 Y82.719 E.0257
G1 X129.556 Y82.071 E.02566
G1 X130.229 Y81.489 E.0279
M204 S1000
G1 X130.485 Y81.77 F10800
M204 S800
;TYPE:External perimeter
G1 F1200
G1 X131.126 Y81.415 E.02297
G1 X131.837 Y81.185 E.02343
G1 X132.579 Y81.094 E.02344
G1 X133.324 Y81.145 E.02341
G1 X134.108 Y81.362 E.02551
G1 X134.776 Y81.701 E.02349
G1 X135.414 Y82.206 E.02551
G1 X135.897 Y82.778 E.02347
G1 X136.261 Y83.43 E.02341
G1 X136.495 Y84.14 E.02344
G1 X136.591 Y84.948 E.02551
G1 X136.529 Y85.694 E.02347
G1 X136.303 Y86.475 E.02549
G1 X135.955 Y87.139 E.02351
G1 X135.489 Y87.723 E.02343
G1 X134.969 Y88.165 E.0214
G1 X134.269 Y88.574 E.02542
G1 X133.56 Y88.811 E.02344
G1 X132.753 Y88.91 E.02549
G1 X132.018 Y88.853 E.02311
G1 X131.286 Y88.653 E.02379
G1 X130.616 Y88.32 E.02346
G1 X129.974 Y87.821 E.02549
G1 X129.486 Y87.253 E.02348
G1 X129.103 Y86.574 E.02444
G1 X128.876 Y85.896 E.02242
G1 X128.774 Y85.089 E.0255
G1 X128.84 Y84.278 E.02551
G1 X129.049 Y83.558 E.02351
G1 X129.39 Y82.893 E.02343
G1 X129.852 Y82.305 E.02345
G1 X130.437 Y81.806 E.02411
M204 S1000
G1 X130.453 Y81.372 F10800
;WIPE_START
G1 F8640
G1 X131.126 Y81.415 E-.18292
G1 X131.837 Y81.185 E-.17255
G1 X132.579 Y81.094 E-.17261
G1 X133.324 Y81.145 E-.17243
G1 X133.739 Y81.26 E-.09949
;WIPE_END
G1 Z.6 F720
G1 X137.763 Y5.958 F10800
G1 Z.2 F720
G1 E.8 F2100
M204 S800
;TYPE:Solid infill
;WIDTH:0.420398
G1 F1200
G1 X138.055 Y6.251 E.01298
G1 X138.055 Y6.785 E.01676
G1 X137.399 Y6.128 E.02914
G1 X136.865 Y6.128 E.01676
G1 X138.055 Y7.319 E.05284
G1 X138.055 Y7.852 E.01673
G1 X136.331 Y6.128 E.07653
G1 X135.797 Y6.128 E.01676
G1 X138.056 Y8.386 E.10025
G1 X138.056 Y8.92 E.01676
G1 X135.263 Y6.128 E.12395
G1 X134.729 Y6.128 E.01676
G1 X138.056 Y9.454 E.14766
G1 X138.056 Y9.988 E.01676
G1 X134.196 Y6.128 E.17134
G1 X133.662 Y6.128 E.01676
G1 X138.056 Y10.522 E.19504
G1 X138.056 Y11.055 E.01673
G1 X133.128 Y6.128 E.21872
G1 X132.594 Y6.128 E.01676
G1 X138.056 Y11.589 E.24243
G1 X138.056 Y12.123 E.01676
G1 X132.06 Y6.128 E.26613
G1 X131.526 Y6.128 E.01676
G1 X138.056 Y12.657 E.28983
G1 X138.056 Y13.191 E.01676
G1 X130.993 Y6.128 E.31352
G1 X130.459 Y6.128 E.01676
G1 X138.056 Y13.725 E.33722
G1 X138.056 Y14.259 E.01676
G1 X129.925 Y6.128 E.36092
G1 X129.391 Y6.128 E.01676
G1 X138.056 Y14.792 E.3846
G1 X138.056 Y15.326 E.01676
G1 X128.857 Y6.128 E.40831
G1 X128.323 Y6.128 E.01676
G1 X138.056 Y15.86 E.43201
G1 X138.056 Y16.394 E.01676
G1 X127.79 Y6.128 E.45569
G1 X127.256 Y6.128 E.01676
G1 X138.056 Y16.928 E.4794
G1 X138.056 Y17.462 E.01676
G1 X126.722 Y6.128 E.5031
G1 X126.188 Y6.128 E.01676
G1 X138.056 Y17.995 E.52678
G1 X138.056 Y18.529 E.01676
G1 X125.654 Y6.128 E.55048
G1 X125.12 Y6.128 E.01676
G1 X138.056 Y19.063 E.57419
G1 X138.056 Y19.597 E.01676
G1 X124.587 Y6.128 E.59787
G1 X124.053 Y6.128 E.01676
G1 X138.056 Y20.131 E.62157
G1 X138.056 Y20.665 E.01676
G1 X123.519 Y6.128 E.64528
G1 X122.985 Y6.128 E.01676
G1 X138.056 Y21.199 E.66898
G1 X138.056 Y21.732 E.01673
G1 X122.451 Y6.128 E.69266
G1 X121.917 Y6.128 E.01676
G1 X138.056 Y22.266 E.71636
G1 X138.056 Y22.8 E.01676
G1 X121.384 Y6.128 E.74005
G1 X120.85 Y6.128 E.01676
G1 X138.056 Y23.334 E.76375
G1 X138.056 Y23.868 E.01676
G1 X120.316 Y6.128 E.78745
G1 X119.782 Y6.128 E.01676
G1 X138.056 Y24.402 E.81116
G1 X138.056 Y24.935 E.01673
G1 X119.248 Y6.128 E.83484
G1 X118.714 Y6.128 E.01676
G1 X138.056 Y25.469 E.85854
G1 X138.056 Y26.003 E.01676
G1 X118.181 Y6.128 E.88222
G1 X117.647 Y6.128 E.01676
G1 X138.056 Y26.537 E.90593
G1 X138.056 Y27.071 E.01676
G1 X117.113 Y6.128 E.92963
G1 X116.579 Y6.128 E.01676
G1 X138.056 Y27.605 E.95333
G1 X138.056 Y28.138 E.01673
G1 X116.045 Y6.128 E.97701
G1 X115.511 Y6.128 E.01676
G1 X138.226 Y28.842 E1.00826
M204 S1000
;WIPE_START
M73 Q0 S601
G1 F8640
G1 X135.776 Y26.392 E-.8
;WIPE_END
G1 Z.6 F720
G1 X243.462 Y5.958 F10800
G1 Z.2 F720
G1 E.8 F2100
M204 S800
G1 F1200
G1 X244.055 Y6.552 E.02634
G1 X244.055 Y7.085 E.01673
G1 X243.098 Y6.128 E.04248
G1 X242.564 Y6.128 E.01676
G1 X244.055 Y7.619 E.06618
G1 X244.055 Y8.153 E.01676
G1 X242.03 Y6.128 E.08989
G1 X241.496 Y6.128 E.01676
G1 X244.055 Y8.687 E.11359
G1 X244.055 Y9.221 E.01676
G1 X240.963 Y6.128 E.13727
G1 X240.429 Y6.128 E.01676
G1 X244.055 Y9.755 E.16097
G1 X244.055 Y10.289 E.01676
G1 X239.895 Y6.128 E.18468
G1 X239.361 Y6.128 E.01676
G1 X244.055 Y10.822 E.20836
G1 X244.055 Y11.356 E.01676
G1 X238.827 Y6.128 E.23206
G1 X238.293 Y6.128 E.01676
G1 X244.055 Y11.89 E.25577
G1 X244.055 Y12.424 E.01676
G1 X237.76 Y6.128 E.27945
G1 X237.226 Y6.128 E.01676
G1 X244.055 Y12.958 E.30315
G1 X244.055 Y13.492 E.01676
G1 X236.692 Y6.128 E.32685
G1 X236.158 Y6.128 E.01676
G1 X244.055 Y14.025 E.35054
G1 X244.055 Y14.559 E.01676
G1 X235.624 Y6.128 E.37424
G1 X235.09 Y6.128 E.01676
G1 X244.055 Y15.093 E.39794
G1 X244.055 Y15.627 E.01676
G1 X234.557 Y6.128 E.42162
G1 X234.023 Y6.128 E.01676
G1 X244.055 Y16.161 E.44533
G1 X244.055 Y16.695 E.01676
G1 X233.489 Y6.128 E.46903
G1 X232.955 Y6.128 E.01676
G1 X244.055 Y17.228 E.49271
G1 X244.055 Y17.762 E.01676
G1 X232.421 Y6.128 E.51642
G1 X231.887 Y6.128 E.01676
G1 X244.055 Y18.296 E.54012
G1 X244.055 Y18.83 E.01676
G1 X231.354 Y6.128 E.5638
G1 X230.82 Y6.128 E.01676
G1 X244.055 Y19.364 E.5875
G1 X244.055 Y19.898 E.01676
G1 X230.286 Y6.128 E.61121
M73 P0 R555
G1 X229.752 Y6.128 E.01676
G1 X244.055 Y20.431 E.63489
G1 X244.055 Y20.965 E.01676
G1 X229.218 Y6.128 E.65859
G1 X228.684 Y6.128 E.01676
G1 X244.055 Y21.499 E.6823
G1 X244.055 Y22.033 E.01676
G1 X228.151 Y6.128 E.70598
G1 X227.617 Y6.128 E.01676
G1 X244.055 Y22.567 E.72968
G1 X244.055 Y23.101 E.01676
G1 X227.083 Y6.128 E.75338
G1 X226.549 Y6.128 E.01676
G1 X244.055 Y23.634 E.77707
G1 X244.055 Y24.168 E.01676
G1 X226.015 Y6.128 E.80077
G1 X225.481 Y6.128 E.01676
G1 X244.055 Y24.702 E.82447
G1 X244.055 Y25.236 E.01676
G1 X224.948 Y6.128 E.84815
G1 X224.414 Y6.128 E.01676
G1 X244.055 Y25.77 E.87186
G1 X244.055 Y26.304 E.01676
G1 X223.88 Y6.128 E.89556
G1 X223.346 Y6.128 E.01676
G1 X244.055 Y26.837 E.91924
G1 X244.055 Y27.371 E.01676
G1 X222.812 Y6.128 E.94295
G1 X222.278 Y6.128 E.01676
G1 X244.055 Y27.905 E.96665
G1 X244.055 Y28.439 E.01676
G1 X221.745 Y6.128 E.99033
G1 X221.211 Y6.128 E.01676
G1 X244.055 Y28.973 E1.01403
G1 X244.055 Y29.507 E.01676
G1 X220.677 Y6.128 E1.03774
G1 X220.143 Y6.128 E.01676
G1 X244.055 Y30.04 E1.06142
G1 X244.055 Y30.574 E.01676
G1 X219.609 Y6.128 E1.08512
G1 X219.075 Y6.128 E.01676
G1 X244.055 Y31.108 E1.10883
G1 X244.055 Y31.642 E.01676
G1 X218.541 Y6.128 E1.13253
G1 X218.008 Y6.128 E.01673
G1 X244.055 Y32.176 E1.15621
G1 X244.055 Y32.71 E.01676
G1 X217.474 Y6.128 E1.17991
G1 X216.94 Y6.128 E.01676
G1 X244.055 Y33.243 E1.20359
G1 X244.055 Y33.777 E.01676
G1 X216.406 Y6.128 E1.2273
G1 X215.872 Y6.128 E.01676
G1 X244.055 Y34.311 E1.251
G1 X244.055 Y34.845 E.01676
G1 X215.338 Y6.128 E1.27471
G1 X214.805 Y6.128 E.01673
M73 Q0 S600
G1 X244.055 Y35.379 E1.29839
G1 X244.055 Y35.913 E.01676
G1 X214.271 Y6.128 E1.32209
G1 X213.737 Y6.128 E.01676
G1 X244.055 Y36.446 E1.34577
G1 X244.055 Y36.98 E.01676
G1 X213.203 Y6.128 E1.36947
G1 X212.669 Y6.128 E.01676
G1 X244.055 Y37.514 E1.39318
G1 X244.055 Y38.048 E.01676
G1 X212.135 Y6.128 E1.41688
G1 X211.602 Y6.128 E.01673
G1 X244.055 Y38.582 E1.44056
G1 X244.055 Y39.116 E.01676
M73 P0 R554
G1 X211.068 Y6.128 E1.46427
G1 X210.534 Y6.128 E.01676
G1 X244.055 Y39.649 E1.48795
