; generated by PrusaSlicer 2.7.3+win64 on 2024-04-22 at 11:12:47 UTC


;
;
; 

; external perimeters extrusion width = 0.45mm
; perimeters extrusion width = 0.45mm
; infill extrusion width = 0.45mm
; solid infill extrusion width = 0.45mm
; top infill extrusion width = 0.40mm
; support material extrusion width = 0.35mm
; first layer extrusion width = 0.42mm

M73 P0 R104
M73 Q0 S108
M201 X1000 Y1000 Z200 E5000 ; sets maximum accelerations, mm/sec^2
M203 X200 Y200 Z12 E120 ; sets maximum feedrates, mm / sec
M204 S1250 T1250 ; sets acceleration (S) and retract acceleration (R), mm/sec^2
M205 X8.00 Y8.00 Z0.40 E4.50 ; sets the jerk limits, mm/sec
M205 S0 T0 ; sets the minimum extruding and travel feed rate, mm/sec

; printing object 4a_glas_front_cover.stl id:0 copy 0
; stop printing object 4a_glas_front_cover.stl id:0 copy 0

;TYPE:Custom
M862.3 P "MK3S" ; printer model check
M862.1 P0.4 ; nozzle diameter check
M115 U3.12.2 ; tell printer latest fw version
G90 ; use absolute coordinates
M83 ; extruder relative mode
M104 S215 ; set extruder temp
M140 S60 ; set bed temp
M190 S60 ; wait for bed temp
M109 S215 ; wait for extruder temp
G28 W ; home all without mesh bed level
G80 ; mesh bed leveling

G1 Z0.2 F720
G1 Y-3 F1000 ; go outside print area
G92 E0
G1 X60 E9 F1000 ; intro line
G1 X100 E12.5 F1000 ; intro line

G92 E0
M221 S95

; Don't change E values below. Excessive value can damage the printer.

M907 E538 ; set extruder motor current
G21 ; set units to millimeters
G90 ; use absolute coordinates
M83 ; use relative distances for extrusion
M900 K0.05 ; Filament gcode LA 1.5
M900 K30 ; Filament gcode LA 1.0
M107
;LAYER_CHANGE
;Z:0.2
;HEIGHT:0.2
G1 E-.8 F2100
M73 Q0 S107
G1 Z.6 F720
G1 X19.605 Y69.881 F10800
G1 Z.2 F720
G1 E.8 F2100
M204 S800
;TYPE:Skirt/Brim
;WIDTH:0.42
G1 F1200
G1 X20.545 Y69.687 E.03009
G1 X74.93 Y69.688 E1.7052
G1 X185.67 Y71.995 E3.47293
G1 X229.58 Y74.305 E1.37867
G1 X230.865 Y74.765 E.04279
G1 X231.685 Y75.855 E.04277
G1 X231.832 Y76.679 E.02624
G1 X231.832 Y137.935 E1.92064
G1 X231.44 Y139.243 E.04281
G1 X230.395 Y140.119 E.04275
G1 X229.455 Y140.313 E.03009
G1 X175.07 Y140.312 E1.7052
G1 X64.33 Y138.005 E3.47293
G1 X20.42 Y135.695 E1.37867
G1 X19.136 Y135.235 E.04276
G1 X18.315 Y134.145 E.04279
G1 X18.168 Y133.321 E.02624
G1 X18.168 Y72.065 E1.92064
G1 X18.56 Y70.758 E.04278
G1 X19.559 Y69.92 E.04088
M204 S1000
;WIPE_START
G1 F8640
G1 X19.605 Y69.881 E-.01393
G1 X20.545 Y69.687 E-.22162
G1 X22.99 Y69.687 E-.56445
;WIPE_END
G1 Z.6 F720
; printing object 4a_glas_front_cover.stl id:0 copy 0
G1 X226.416 Y128.071 F10800
G1 Z.2 F720
G1 E.8 F2100
M204 S800
;TYPE:Support material interface
;WIDTH:0.35
G1 F1200
G1 X226.416 Y130.378 E.05891
G1 X225.909 Y130.378 E.01295
G1 X225.909 Y128.071 E.05891
G1 X225.402 Y128.071 E.01295
G1 X225.402 Y130.378 E.05891
G1 X224.895 Y130.378 E.01295
G1 X224.962 Y128.071 E.05893
M204 S1000
;WIPE_START
G1 F8640
G1 X224.895 Y130.378 E-.53292
G1 X225.402 Y130.378 E-.11707
G1 X225.402 Y129.728 E-.15001
;WIPE_END
G1 Z.6 F720
G1 X224.784 Y129.377 F10800
G1 Z.2 F720
G1 E.8 F2100
M204 S800
G1 F1200
G1 X224.684 Y129.472 E.00352
G1 X224.387 Y129.466 E.00759
G1 X224.387 Y130.378 E.02329
G1 X223.88 Y130.378 E.01295
G1 X223.88 Y129.456 E.02354
G1 X223.373 Y129.445 E.01295
G1 X223.373 Y130.378 E.02382
G1 X222.866 Y130.378 E.01295
G1 X222.866 Y129.434 E.0241
G1 X222.359 Y129.424 E.01295
G1 X222.359 Y130.378 E.02436
G1 X221.852 Y130.378 E.01295
G1 X221.852 Y129.413 E.02464
G1 X221.345 Y129.402 E.01295
G1 X221.345 Y130.378 E.02492
G1 X220.838 Y130.378 E.01295
G1 X220.838 Y129.392 E.02518
G1 X220.331 Y129.381 E.01295
G1 X220.331 Y130.378 E.02546
G1 X219.824 Y130.378 E.01295
G1 X219.824 Y129.37 E.02574
G1 X219.317 Y129.36 E.01295
G1 X219.317 Y130.378 E.02599
G1 X218.81 Y130.378 E.01295
G1 X218.81 Y129.349 E.02627
G1 X218.303 Y129.339 E.01295
G1 X218.303 Y130.378 E.02653
G1 X217.795 Y130.378 E.01297
G1 X217.795 Y129.328 E.02681
G1 X217.288 Y129.317 E.01295
G1 X217.288 Y130.378 E.02709
G1 X216.781 Y130.378 E.01295
G1 X216.781 Y129.307 E.02735
G1 X216.274 Y129.296 E.01295
G1 X216.274 Y130.378 E.02763
G1 X215.767 Y130.378 E.01295
G1 X215.767 Y129.285 E.02791
G1 X215.26 Y129.275 E.01295
G1 X215.26 Y130.378 E.02816
G1 X214.753 Y130.378 E.01295
G1 X214.753 Y129.264 E.02844
G1 X214.246 Y129.254 E.01295
G1 X214.246 Y130.378 E.0287
G1 X213.739 Y130.378 E.01295
G1 X213.739 Y129.243 E.02898
G1 X213.232 Y129.232 E.01295
G1 X213.232 Y130.378 E.02926
G1 X212.725 Y130.378 E.01295
G1 X212.725 Y129.222 E.02952
G1 X212.218 Y129.211 E.01295
G1 X212.218 Y130.378 E.0298
G1 X211.711 Y130.378 E.01295
G1 X211.711 Y129.2 E.03008
G1 X211.203 Y129.19 E.01297
G1 X211.203 Y130.378 E.03033
G1 X210.696 Y130.378 E.01295
G1 X210.696 Y129.179 E.03061
G1 X210.189 Y129.168 E.01295
G1 X210.189 Y130.378 E.0309
G1 X209.682 Y130.378 E.01295
G1 X209.682 Y129.158 E.03115
G1 X209.175 Y129.147 E.01295
G1 X209.175 Y130.378 E.03143
G1 X208.668 Y130.378 E.01295
G1 X208.668 Y129.137 E.03169
G1 X208.161 Y129.126 E.01295
G1 X208.161 Y130.378 E.03197
G1 X207.654 Y130.378 E.01295
G1 X207.654 Y129.115 E.03225
G1 X207.147 Y129.105 E.01295
G1 X207.147 Y130.378 E.0325
G1 X206.64 Y130.378 E.01295
G1 X206.64 Y129.094 E.03279
G1 X206.133 Y129.083 E.01295
G1 X206.133 Y130.378 E.03307
G1 X205.626 Y130.378 E.01295
G1 X205.626 Y129.073 E.03332
G1 X205.118 Y129.062 E.01297
G1 X205.118 Y130.378 E.0336
G1 X204.611 Y130.378 E.01295
G1 X204.611 Y129.051 E.03388
G1 X204.104 Y129.041 E.01295
G1 X204.104 Y130.378 E.03414
G1 X203.597 Y130.378 E.01295
G1 X203.597 Y129.03 E.03442
G1 X203.09 Y129.02 E.01295
G1 X203.09 Y130.378 E.03467
G1 X202.583 Y130.378 E.01295
G1 X202.583 Y129.009 E.03496
G1 X202.076 Y128.998 E.01295
G1 X202.076 Y130.378 E.03524
G1 X201.569 Y130.378 E.01295
G1 X201.569 Y128.988 E.03549
G1 X201.062 Y128.977 E.01295
G1 X201.062 Y130.378 E.03577
G1 X200.555 Y130.378 E.01295
G1 X200.555 Y128.966 E.03605
G1 X200.048 Y128.956 E.01295
G1 X200.048 Y130.378 E.03631
G1 X199.541 Y130.378 E.01295
G1 X199.541 Y128.945 E.03659
G1 X199.034 Y128.935 E.01295
G1 X199.034 Y130.378 E.03685
G1 X198.526 Y130.378 E.01297
G1 X198.526 Y128.924 E.03713
G1 X198.019 Y128.913 E.01295
G1 X198.019 Y130.378 E.03741
G1 X197.512 Y130.378 E.01295
G1 X197.512 Y128.903 E.03766
G1 X197.005 Y128.892 E.01295
G1 X197.005 Y130.378 E.03794
G1 X196.498 Y130.378 E.01295
G1 X196.498 Y128.881 E.03822
G1 X195.991 Y128.871 E.01295
G1 X195.991 Y130.378 E.03848
G1 X195.484 Y130.378 E.01295
G1 X195.484 Y128.86 E.03876
G1 X194.977 Y128.849 E.01295
G1 X194.977 Y130.378 E.03904
G1 X194.47 Y130.378 E.01295
G1 X194.47 Y128.839 E.0393
G1 X193.963 Y128.828 E.01295
G1 X193.963 Y130.378 E.03958
G1 X193.456 Y130.378 E.01295
G1 X193.456 Y128.818 E.03983
G1 X192.949 Y128.807 E.01295
G1 X192.949 Y130.378 E.04011
G1 X192.442 Y130.378 E.01295
G1 X192.442 Y128.796 E.04039
G1 X191.934 Y128.786 E.01297
M73 P0 R103
G1 X191.934 Y130.378 E.04065
G1 X191.427 Y130.378 E.01295
G1 X191.427 Y128.775 E.04093
G1 X190.92 Y128.764 E.01295
G1 X190.92 Y130.378 E.04121
G1 X190.413 Y130.378 E.01295
G1 X190.413 Y128.754 E.04147
G1 X189.906 Y128.743 E.01295
G1 X189.906 Y130.378 E.04175
G1 X189.399 Y130.378 E.01295
G1 X189.399 Y128.732 E.04203
G1 X188.892 Y128.722 E.01295
G1 X188.892 Y130.378 E.04228
G1 X188.385 Y130.378 E.01295
G1 X188.385 Y128.711 E.04256
G1 X187.878 Y128.701 E.01295
G1 X187.878 Y130.378 E.04282
G1 X187.371 Y130.378 E.01295
G1 X187.371 Y128.69 E.0431
G1 X186.864 Y128.679 E.01295
G1 X186.864 Y130.378 E.04338
G1 X186.357 Y130.378 E.01295
G1 X186.357 Y128.669 E.04364
G1 X185.849 Y128.658 E.01297
G1 X185.849 Y130.378 E.04392
G1 X185.342 Y130.378 E.01295
G1 X185.342 Y128.647 E.0442
G1 X184.835 Y128.637 E.01295
G1 X184.835 Y130.378 E.04445
G1 X184.328 Y130.378 E.01295
G1 X184.328 Y128.626 E.04474
G1 X183.821 Y128.616 E.01295
G1 X183.821 Y130.378 E.04499
G1 X183.314 Y130.378 E.01295
G1 X183.314 Y128.605 E.04527
G1 X182.807 Y128.594 E.01295
G1 X182.807 Y130.378 E.04555
G1 X182.3 Y130.378 E.01295
G1 X182.3 Y128.584 E.04581
G1 X181.793 Y128.573 E.01295
G1 X181.793 Y130.378 E.04609
G1 X181.286 Y130.378 E.01295
G1 X181.286 Y128.562 E.04637
G1 X180.779 Y128.552 E.01295
G1 X180.779 Y130.378 E.04662
G1 X180.272 Y130.378 E.01295
G1 X180.272 Y128.541 E.04691
G1 X179.765 Y128.53 E.01295
G1 X179.765 Y130.378 E.04719
G1 X179.257 Y130.378 E.01297
G1 X179.257 Y128.52 E.04744
G1 X178.75 Y128.509 E.01295
G1 X178.75 Y130.378 E.04772
G1 X178.243 Y130.378 E.01295
G1 X178.243 Y128.499 E.04798
G1 X177.736 Y128.488 E.01295
G1 X177.736 Y130.378 E.04826
G1 X177.229 Y130.378 E.01295
G1 X177.229 Y128.477 E.04854
G1 X176.722 Y128.467 E.01295
G1 X176.722 Y130.378 E.0488
G1 X176.215 Y130.378 E.01295
G1 X176.215 Y128.456 E.04908
G1 X175.708 Y128.445 E.01295
G1 X175.708 Y130.378 E.04936
G1 X175.201 Y130.378 E.01295
G1 X175.201 Y128.435 E.04961
G1 X174.694 Y128.424 E.01295
G1 X174.694 Y130.378 E.04989
G1 X174.187 Y130.378 E.01295
G1 X174.187 Y128.413 E.05017
G1 X173.68 Y128.403 E.01295
G1 X173.68 Y130.378 E.05043
G1 X173.173 Y130.378 E.01295
G1 X173.173 Y128.392 E.05071
G1 X172.665 Y128.382 E.01297
G1 X172.665 Y130.378 E.05097
G1 X172.158 Y130.378 E.01295
G1 X172.158 Y128.371 E.05125
G1 X171.651 Y128.36 E.01295
G1 X171.651 Y130.378 E.05153
G1 X171.144 Y130.378 E.01295
G1 X171.144 Y128.35 E.05178
G1 X170.637 Y128.339 E.01295
G1 X170.637 Y130.378 E.05206
G1 X170.13 Y130.378 E.01295
G1 X170.13 Y128.328 E.05234
G1 X169.623 Y128.318 E.01295
G1 X169.623 Y130.378 E.0526
G1 X169.116 Y130.378 E.01295
G1 X169.116 Y128.307 E.05288
G1 X168.609 Y128.297 E.01295
G1 X168.609 Y130.378 E.05314
G1 X168.102 Y130.378 E.01295
G1 X168.102 Y128.286 E.05342
G1 X167.595 Y128.275 E.01295
G1 X167.595 Y130.378 E.0537
G1 X167.088 Y130.378 E.01295
G1 X167.088 Y128.265 E.05395
G1 X166.58 Y128.254 E.01297
G1 X166.58 Y130.378 E.05423
G1 X166.073 Y130.378 E.01295
G1 X166.073 Y128.243 E.05451
G1 X165.566 Y128.233 E.01295
G1 X165.566 Y130.378 E.05477
G1 X165.059 Y130.378 E.01295
G1 X165.059 Y128.222 E.05505
G1 X164.552 Y128.211 E.01295
G1 X164.552 Y130.378 E.05533
G1 X164.045 Y130.378 E.01295
G1 X164.045 Y128.201 E.05559
G1 X163.538 Y128.19 E.01295
G1 X163.538 Y130.378 E.05587
G1 X163.031 Y130.378 E.01295
G1 X163.031 Y128.18 E.05612
G1 X162.524 Y128.169 E.01295
G1 X162.524 Y130.378 E.0564
G1 X162.017 Y130.378 E.01295
G1 X162.017 Y128.158 E.05668
G1 X161.51 Y128.148 E.01295
G1 X161.51 Y130.378 E.05694
G1 X161.003 Y130.378 E.01295
G1 X161.003 Y128.137 E.05722
G1 X160.496 Y128.126 E.01295
G1 X160.496 Y130.378 E.0575
G1 X159.988 Y130.378 E.01297
G1 X159.988 Y128.116 E.05776
G1 X159.481 Y128.105 E.01295
G1 X159.481 Y130.378 E.05804
G1 X158.974 Y130.378 E.01295
G1 X158.974 Y128.095 E.05829
G1 X158.467 Y128.084 E.01295
G1 X158.467 Y130.378 E.05857
G1 X157.96 Y130.378 E.01295
G1 X157.96 Y128.073 E.05886
G1 X157.453 Y128.063 E.01295
G1 X157.453 Y130.378 E.05911
G1 X156.946 Y130.378 E.01295
G1 X156.946 Y128.052 E.05939
G1 X156.439 Y128.041 E.01295
G1 X156.439 Y130.378 E.05967
G1 X155.932 Y130.378 E.01295
G1 X155.932 Y128.031 E.05993
G1 X155.425 Y128.02 E.01295
G1 X155.425 Y130.378 E.06021
G1 X154.918 Y130.378 E.01295
G1 X154.918 Y128.009 E.06049
G1 X154.411 Y127.999 E.01295
G1 X154.411 Y130.378 E.06074
G1 X153.904 Y130.378 E.01295
G1 X153.904 Y127.988 E.06103
G1 X153.396 Y127.978 E.01297
G1 X153.396 Y130.378 E.06128
G1 X152.889 Y130.378 E.01295
G1 X152.889 Y127.967 E.06156
G1 X152.382 Y127.956 E.01295
G1 X152.382 Y130.378 E.06184
G1 X151.875 Y130.378 E.01295
G1 X151.875 Y127.946 E.0621
G1 X151.368 Y127.935 E.01295
G1 X151.368 Y130.378 E.06238
G1 X150.861 Y130.378 E.01295
G1 X150.861 Y127.924 E.06266
G1 X150.354 Y127.914 E.01295
G1 X150.354 Y130.378 E.06292
G1 X149.847 Y130.378 E.01295
G1 X149.847 Y127.903 E.0632
G1 X149.34 Y127.892 E.01295
G1 X149.34 Y130.378 E.06348
G1 X148.833 Y130.378 E.01295
G1 X148.833 Y127.882 E.06373
G1 X148.326 Y127.871 E.01295
G1 X148.326 Y130.378 E.06401
G1 X147.819 Y130.378 E.01295
G1 X147.819 Y127.861 E.06427
G1 X147.311 Y127.85 E.01297
G1 X147.311 Y130.378 E.06455
G1 X146.804 Y130.378 E.01295
G1 X146.804 Y127.839 E.06483
G1 X146.297 Y127.829 E.01295
G1 X146.297 Y130.378 E.06509
G1 X145.79 Y130.378 E.01295
G1 X145.79 Y127.818 E.06537
G1 X145.283 Y127.807 E.01295
G1 X145.283 Y130.378 E.06565
G1 X144.776 Y130.378 E.01295
G1 X144.776 Y127.797 E.0659
G1 X144.269 Y127.786 E.01295
G1 X144.269 Y130.378 E.06618
G1 X143.762 Y130.378 E.01295
G1 X143.762 Y127.776 E.06644
G1 X143.255 Y127.765 E.01295
G1 X143.255 Y128.071 E.00781
G1 X143.457 Y128.071 E.00516
G1 X143.457 Y128.461 E.00996
G1 X143.255 Y128.456 E.00516
G1 X143.255 Y130.378 E.04908
G1 X142.748 Y130.378 E.01295
G1 X142.748 Y128.446 E.04933
G1 X142.241 Y128.435 E.01295
G1 X142.241 Y130.378 E.04961
G1 X141.734 Y130.378 E.01295
G1 X141.734 Y128.424 E.04989
G1 X141.227 Y128.414 E.01295
G1 X141.227 Y130.378 E.05015
G1 X140.719 Y130.378 E.01297
G1 X140.719 Y128.403 E.05043
G1 X140.212 Y128.393 E.01295
G1 X140.212 Y130.378 E.05068
G1 X139.705 Y130.378 E.01295
G1 X139.705 Y128.382 E.05097
G1 X139.444 Y128.376 E.00667
M204 S1000
G1 X139.444 Y128.376 F10800
G1 X139.406 Y128.071
M204 S800
G1 F1200
G1 X139.705 Y128.071 E.00763
G1 X139.705 Y127.69 E.00973
G1 X140.212 Y127.701 E.01295
G1 X140.212 Y128.071 E.00945
G1 X140.719 Y128.071 E.01295
G1 X140.719 Y127.712 E.00917
G1 X141.227 Y127.722 E.01297
G1 X141.227 Y128.071 E.00891
G1 X141.734 Y128.071 E.01295
G1 X141.734 Y127.733 E.00863
G1 X142.241 Y127.744 E.01295
G1 X142.241 Y128.071 E.00835
G1 X142.748 Y128.071 E.01295
G1 X142.748 Y127.754 E.00809
G1 X143.101 Y127.762 E.00902
M204 S1000
;WIPE_START
G1 F8640
G1 X142.748 Y127.754 E-.08153
G1 X142.748 Y128.071 E-.0732
G1 X142.241 Y128.071 E-.11707
G1 X142.241 Y127.744 E-.07551
G1 X141.734 Y127.733 E-.1171
G1 X141.734 Y128.071 E-.07805
G1 X141.227 Y128.071 E-.11707
G1 X141.227 Y127.722 E-.08059
G1 X140.968 Y127.717 E-.05988
;WIPE_END
G1 Z.6 F720
G1 X146.093 Y126.86 F10800
G1 Z.2 F720
G1 E.8 F2100
M204 S800
;TYPE:Support material
;WIDTH:0.42
G1 F1200
G1 X146.093 Y127.461 E.01884
G1 X136.735 Y127.264 E.29348
G1 X136.741 Y126.664 E.01881
G1 X146.036 Y126.859 E.2915
M204 S1000
;WIPE_START
G1 F8640
G1 X142.572 Y126.786 E-.8
;WIPE_END
G1 Z.6 F720
G1 X139.552 Y127.687 F10800
G1 Z.2 F720
G1 E.8 F2100
M204 S800
;TYPE:Support material interface
;WIDTH:0.35
G1 F1200
G1 X139.198 Y127.68 E.00904
G1 X139.198 Y130.378 E.06889
G1 X138.691 Y130.378 E.01295
G1 X138.691 Y127.669 E.06917
G1 X138.184 Y127.659 E.01295
G1 X138.184 Y130.378 E.06943
G1 X137.677 Y130.378 E.01295
G1 X137.677 Y127.648 E.06971
M73 P1 R103
G1 X137.17 Y127.637 E.01295
G1 X137.17 Y130.378 E.06999
M73 Q0 S106
G1 X136.663 Y130.378 E.01295
G1 X136.663 Y127.627 E.07024
G1 X136.156 Y127.616 E.01295
G1 X136.156 Y130.378 E.07052
G1 X135.649 Y130.378 E.01295
G1 X135.649 Y127.605 E.07081
G1 X135.142 Y127.595 E.01295
G1 X135.142 Y130.378 E.07106
G1 X134.634 Y130.378 E.01297
M73 Q1 S106
G1 X134.634 Y127.584 E.07134
G1 X134.127 Y127.573 E.01295
G1 X134.127 Y130.378 E.07162
G1 X133.62 Y130.378 E.01295
G1 X133.62 Y127.563 E.07188
G1 X133.113 Y127.552 E.01295
G1 X133.113 Y130.378 E.07216
G1 X132.606 Y130.378 E.01295
G1 X132.606 Y127.542 E.07241
G1 X132.099 Y127.531 E.01295
G1 X132.099 Y130.378 E.07269
G1 X131.592 Y130.378 E.01295
G1 X131.592 Y127.52 E.07298
G1 X131.085 Y127.51 E.01295
G1 X131.085 Y130.378 E.07323
G1 X130.578 Y130.378 E.01295
G1 X130.578 Y127.499 E.07351
G1 X130.071 Y127.488 E.01295
G1 X130.071 Y130.378 E.07379
G1 X129.564 Y130.378 E.01295
G1 X129.564 Y127.478 E.07405
G1 X129.057 Y127.467 E.01295
G1 X129.057 Y130.378 E.07433
G1 X128.55 Y130.378 E.01295
G1 X128.55 Y127.457 E.07458
G1 X128.042 Y127.446 E.01297
G1 X128.042 Y130.378 E.07487
G1 X127.535 Y130.378 E.01295
G1 X127.535 Y127.435 E.07515
G1 X127.028 Y127.425 E.01295
G1 X127.028 Y130.378 E.0754
G1 X126.521 Y130.378 E.01295
G1 X126.521 Y127.414 E.07568
G1 X126.014 Y127.403 E.01295
G1 X126.014 Y130.378 E.07596
G1 X125.507 Y130.378 E.01295
G1 X125.507 Y127.393 E.07622
G1 X125 Y127.382 E.01295
G1 X125 Y130.378 E.0765
G1 X124.493 Y130.378 E.01295
G1 X124.493 Y127.371 E.07678
G1 X123.986 Y127.361 E.01295
