; generated by PrusaSlicer 2.7.3+win64 on 2024-04-22 at 11:13:22 UTC


;
;
; 

; external perimeters extrusion width = 0.45mm
; perimeters extrusion width = 0.45mm
; infill extrusion width = 0.45mm
; solid infill extrusion width = 0.45mm
; top infill extrusion width = 0.40mm
; support material extrusion width = 0.35mm
; first layer extrusion width = 0.42mm

M73 P0 R103
M73 Q0 S106
M201 X1000 Y1000 Z200 E5000 ; sets maximum accelerations, mm/sec^2
M203 X200 Y200 Z12 E120 ; sets maximum feedrates, mm / sec
M204 S1250 T1250 ; sets acceleration (S) and retract acceleration (R), mm/sec^2
M205 X8.00 Y8.00 Z0.40 E4.50 ; sets the jerk limits, mm/sec
M205 S0 T0 ; sets the minimum extruding and travel feed rate, mm/sec

; printing object 4b_glas_front_cover.stl id:0 copy 0
; stop printing object 4b_glas_front_cover.stl id:0 copy 0

;TYPE:Custom
M862.3 P "MK3S" ; printer model check
M862.1 P0.4 ; nozzle diameter check
M115 U3.12.2 ; tell printer latest fw version
G90 ; use absolute coordinates
M83 ; extruder relative mode
M104 S215 ; set extruder temp
M140 S60 ; set bed temp
M190 S60 ; wait for bed temp
M109 S215 ; wait for extruder temp
G28 W ; home all without mesh bed level
G80 ; mesh bed leveling

G1 Z0.2 F720
G1 Y-3 F1000 ; go outside print area
G92 E0
G1 X60 E9 F1000 ; intro line
G1 X100 E12.5 F1000 ; intro line

G92 E0
M221 S95

; Don't change E values below. Excessive value can damage the printer.

M907 E538 ; set extruder motor current
G21 ; set units to millimeters
G90 ; use absolute coordinates
M83 ; use relative distances for extrusion
M900 K0.05 ; Filament gcode LA 1.5
M900 K30 ; Filament gcode LA 1.0
M107
;LAYER_CHANGE
;Z:0.2
;HEIGHT:0.2
G1 E-.8 F2100
G1 Z.6 F720
G1 X19.605 Y72.188 F10800
G1 Z.2 F720
G1 E.8 F2100
M204 S800
;TYPE:Skirt/Brim
;WIDTH:0.42
G1 F1200
G1 X20.545 Y71.995 E.03009
G1 X229.455 Y71.995 E6.55023
G1 X230.762 Y72.386 E.04277
M73 P0 R102
G1 X231.638 Y73.432 E.04278
G1 X231.832 Y74.372 E.03009
G1 X231.832 Y135.628 E1.92064
G1 X231.44 Y136.935 E.04278
G1 X230.395 Y137.812 E.04277
G1 X229.455 Y138.005 E.03009
G1 X20.545 Y138.005 E6.55023
G1 X19.238 Y137.614 E.04277
G1 X18.362 Y136.568 E.04278
G1 X18.168 Y135.628 E.03009
G1 X18.168 Y74.372 E1.92064
G1 X18.56 Y73.065 E.04278
M73 Q0 S105
G1 X19.559 Y72.227 E.04088
M204 S1000
;WIPE_START
G1 F8640
G1 X19.605 Y72.188 E-.01393
G1 X20.545 Y71.995 E-.22158
G1 X22.99 Y71.995 E-.56449
;WIPE_END
G1 Z.6 F720
; printing object 4b_glas_front_cover.stl id:0 copy 0
G1 X226.416 Y125.764 F10800
G1 Z.2 F720
G1 E.8 F2100
M204 S800
;TYPE:Support material interface
;WIDTH:0.35
G1 F1200
G1 X226.416 Y130.378 E.11781
G1 X225.909 Y130.378 E.01295
G1 X225.909 Y125.764 E.11781
G1 X225.424 Y125.764 E.01238
G1 X225.402 Y130.378 E.11781
G1 X224.895 Y130.378 E.01295
G1 X224.895 Y127.377 E.07663
G1 X224.387 Y127.377 E.01297
G1 X224.387 Y130.378 E.07663
G1 X223.88 Y130.378 E.01295
G1 X223.88 Y127.377 E.07663
G1 X223.373 Y127.377 E.01295
G1 X223.373 Y130.378 E.07663
G1 X222.866 Y130.378 E.01295
G1 X222.866 Y127.377 E.07663
G1 X222.359 Y127.377 E.01295
G1 X222.359 Y130.378 E.07663
G1 X221.852 Y130.378 E.01295
G1 X221.852 Y127.377 E.07663
G1 X221.345 Y127.377 E.01295
G1 X221.345 Y130.378 E.07663
G1 X220.838 Y130.378 E.01295
G1 X220.838 Y127.377 E.07663
G1 X220.331 Y127.377 E.01295
G1 X220.331 Y130.378 E.07663
G1 X219.824 Y130.378 E.01295
G1 X219.824 Y127.377 E.07663
G1 X219.317 Y127.377 E.01295
G1 X219.317 Y130.378 E.07663
G1 X218.81 Y130.378 E.01295
G1 X218.81 Y127.377 E.07663
G1 X218.303 Y127.377 E.01295
G1 X218.303 Y130.378 E.07663
G1 X217.795 Y130.378 E.01297
G1 X217.795 Y127.377 E.07663
G1 X217.288 Y127.377 E.01295
G1 X217.288 Y130.378 E.07663
G1 X216.781 Y130.378 E.01295
G1 X216.781 Y127.377 E.07663
G1 X216.274 Y127.377 E.01295
G1 X216.274 Y130.378 E.07663
G1 X215.767 Y130.378 E.01295
G1 X215.767 Y127.377 E.07663
G1 X215.26 Y127.377 E.01295
G1 X215.26 Y130.378 E.07663
G1 X214.753 Y130.378 E.01295
G1 X214.753 Y127.377 E.07663
G1 X214.246 Y127.377 E.01295
G1 X214.246 Y130.378 E.07663
G1 X213.739 Y130.378 E.01295
G1 X213.739 Y127.377 E.07663
G1 X213.232 Y127.377 E.01295
G1 X213.232 Y130.378 E.07663
G1 X212.725 Y130.378 E.01295
G1 X212.725 Y127.377 E.07663
G1 X212.218 Y127.377 E.01295
G1 X212.218 Y130.378 E.07663
G1 X211.711 Y130.378 E.01295
G1 X211.711 Y127.377 E.07663
G1 X211.203 Y127.377 E.01297
G1 X211.203 Y130.378 E.07663
G1 X210.696 Y130.378 E.01295
G1 X210.696 Y127.377 E.07663
G1 X210.189 Y127.377 E.01295
G1 X210.189 Y130.378 E.07663
G1 X209.682 Y130.378 E.01295
G1 X209.682 Y127.377 E.07663
G1 X209.175 Y127.377 E.01295
G1 X209.175 Y130.378 E.07663
G1 X208.668 Y130.378 E.01295
G1 X208.668 Y127.377 E.07663
G1 X208.161 Y127.377 E.01295
G1 X208.161 Y130.378 E.07663
G1 X207.654 Y130.378 E.01295
G1 X207.654 Y127.377 E.07663
G1 X207.147 Y127.377 E.01295
G1 X207.147 Y130.378 E.07663
G1 X206.64 Y130.378 E.01295
G1 X206.64 Y127.377 E.07663
G1 X206.133 Y127.377 E.01295
G1 X206.133 Y130.378 E.07663
G1 X205.626 Y130.378 E.01295
G1 X205.626 Y127.377 E.07663
G1 X205.118 Y127.377 E.01297
G1 X205.118 Y130.378 E.07663
G1 X204.611 Y130.378 E.01295
G1 X204.611 Y127.377 E.07663
G1 X204.104 Y127.377 E.01295
G1 X204.104 Y130.378 E.07663
G1 X203.597 Y130.378 E.01295
G1 X203.597 Y127.377 E.07663
G1 X203.09 Y127.377 E.01295
G1 X203.09 Y130.378 E.07663
G1 X202.583 Y130.378 E.01295
G1 X202.583 Y127.377 E.07663
G1 X202.076 Y127.377 E.01295
G1 X202.076 Y130.378 E.07663
G1 X201.569 Y130.378 E.01295
G1 X201.569 Y127.377 E.07663
G1 X201.062 Y127.377 E.01295
G1 X201.062 Y130.378 E.07663
G1 X200.555 Y130.378 E.01295
G1 X200.555 Y127.377 E.07663
G1 X200.048 Y127.377 E.01295
G1 X200.048 Y130.378 E.07663
G1 X199.541 Y130.378 E.01295
G1 X199.541 Y127.377 E.07663
G1 X199.034 Y127.377 E.01295
G1 X199.034 Y130.378 E.07663
G1 X198.526 Y130.378 E.01297
G1 X198.526 Y127.377 E.07663
G1 X198.019 Y127.377 E.01295
G1 X198.019 Y130.378 E.07663
G1 X197.512 Y130.378 E.01295
G1 X197.512 Y127.377 E.07663
G1 X197.005 Y127.377 E.01295
G1 X197.005 Y130.378 E.07663
G1 X196.498 Y130.378 E.01295
G1 X196.498 Y127.377 E.07663
G1 X195.991 Y127.377 E.01295
G1 X195.991 Y130.378 E.07663
G1 X195.484 Y130.378 E.01295
G1 X195.484 Y127.377 E.07663
G1 X194.977 Y127.377 E.01295
G1 X194.977 Y130.378 E.07663
G1 X194.47 Y130.378 E.01295
G1 X194.47 Y127.377 E.07663
G1 X193.963 Y127.377 E.01295
G1 X193.963 Y130.378 E.07663
G1 X193.456 Y130.378 E.01295
G1 X193.456 Y127.377 E.07663
G1 X192.949 Y127.377 E.01295
G1 X192.949 Y130.378 E.07663
G1 X192.442 Y130.378 E.01295
G1 X192.442 Y127.377 E.07663
G1 X191.934 Y127.377 E.01297
G1 X191.934 Y130.378 E.07663
G1 X191.427 Y130.378 E.01295
G1 X191.427 Y127.377 E.07663
G1 X190.92 Y127.377 E.01295
G1 X190.92 Y130.378 E.07663
G1 X190.413 Y130.378 E.01295
G1 X190.413 Y127.377 E.07663
G1 X189.906 Y127.377 E.01295
G1 X189.906 Y130.378 E.07663
G1 X189.399 Y130.378 E.01295
G1 X189.399 Y127.377 E.07663
G1 X188.892 Y127.377 E.01295
G1 X188.892 Y130.378 E.07663
G1 X188.385 Y130.378 E.01295
G1 X188.385 Y127.377 E.07663
G1 X187.878 Y127.377 E.01295
G1 X187.878 Y130.378 E.07663
G1 X187.371 Y130.378 E.01295
G1 X187.371 Y127.377 E.07663
G1 X186.864 Y127.377 E.01295
G1 X186.864 Y130.378 E.07663
G1 X186.357 Y130.378 E.01295
G1 X186.357 Y127.377 E.07663
G1 X185.849 Y127.377 E.01297
G1 X185.849 Y130.378 E.07663
G1 X185.342 Y130.378 E.01295
G1 X185.342 Y127.377 E.07663
G1 X184.835 Y127.377 E.01295
G1 X184.835 Y130.378 E.07663
G1 X184.328 Y130.378 E.01295
G1 X184.328 Y127.377 E.07663
G1 X183.821 Y127.377 E.01295
G1 X183.821 Y130.378 E.07663
G1 X183.314 Y130.378 E.01295
G1 X183.314 Y127.377 E.07663
G1 X182.807 Y127.377 E.01295
G1 X182.807 Y130.378 E.07663
G1 X182.3 Y130.378 E.01295
G1 X182.3 Y127.377 E.07663
G1 X181.793 Y127.377 E.01295
G1 X181.793 Y130.378 E.07663
G1 X181.286 Y130.378 E.01295
G1 X181.286 Y127.377 E.07663
G1 X180.779 Y127.377 E.01295
G1 X180.779 Y130.378 E.07663
G1 X180.272 Y130.378 E.01295
G1 X180.272 Y127.377 E.07663
G1 X179.765 Y127.377 E.01295
G1 X179.765 Y130.378 E.07663
G1 X179.257 Y130.378 E.01297
G1 X179.257 Y127.377 E.07663
G1 X178.75 Y127.377 E.01295
G1 X178.75 Y130.378 E.07663
G1 X178.243 Y130.378 E.01295
G1 X178.243 Y127.377 E.07663
G1 X177.736 Y127.377 E.01295
G1 X177.736 Y130.378 E.07663
G1 X177.229 Y130.378 E.01295
G1 X177.229 Y127.377 E.07663
G1 X176.722 Y127.377 E.01295
G1 X176.722 Y130.378 E.07663
G1 X176.215 Y130.378 E.01295
G1 X176.215 Y127.377 E.07663
G1 X175.708 Y127.377 E.01295
G1 X175.708 Y130.378 E.07663
G1 X175.201 Y130.378 E.01295
G1 X175.201 Y127.377 E.07663
G1 X174.694 Y127.377 E.01295
G1 X174.694 Y130.378 E.07663
G1 X174.187 Y130.378 E.01295
G1 X174.187 Y127.377 E.07663
G1 X173.68 Y127.377 E.01295
G1 X173.68 Y130.378 E.07663
G1 X173.173 Y130.378 E.01295
G1 X173.173 Y127.377 E.07663
G1 X172.665 Y127.377 E.01297
G1 X172.665 Y130.378 E.07663
G1 X172.158 Y130.378 E.01295
G1 X172.158 Y127.377 E.07663
G1 X171.651 Y127.377 E.01295
G1 X171.651 Y130.378 E.07663
G1 X171.144 Y130.378 E.01295
G1 X171.144 Y127.377 E.07663
G1 X170.637 Y127.377 E.01295
G1 X170.637 Y130.378 E.07663
G1 X170.13 Y130.378 E.01295
G1 X170.13 Y127.377 E.07663
G1 X169.623 Y127.377 E.01295
G1 X169.623 Y130.378 E.07663
G1 X169.116 Y130.378 E.01295
G1 X169.116 Y127.377 E.07663
G1 X168.609 Y127.377 E.01295
G1 X168.609 Y130.378 E.07663
G1 X168.102 Y130.378 E.01295
G1 X168.102 Y127.377 E.07663
G1 X167.595 Y127.377 E.01295
G1 X167.595 Y130.378 E.07663
G1 X167.088 Y130.378 E.01295
G1 X167.088 Y127.377 E.07663
G1 X166.58 Y127.377 E.01297
G1 X166.58 Y130.378 E.07663
G1 X166.073 Y130.378 E.01295
G1 X166.073 Y127.377 E.07663
G1 X165.566 Y127.377 E.01295
G1 X165.566 Y130.378 E.07663
G1 X165.059 Y130.378 E.01295
G1 X165.059 Y127.377 E.07663
G1 X164.552 Y127.377 E.01295
G1 X164.552 Y130.378 E.07663
G1 X164.045 Y130.378 E.01295
G1 X164.045 Y127.377 E.07663
G1 X163.538 Y127.377 E.01295
G1 X163.538 Y130.378 E.07663
G1 X163.031 Y130.378 E.01295
G1 X163.031 Y127.377 E.07663
G1 X162.524 Y127.377 E.01295
G1 X162.524 Y130.378 E.07663
G1 X162.017 Y130.378 E.01295
G1 X162.017 Y127.377 E.07663
G1 X161.51 Y127.377 E.01295
G1 X161.51 Y130.378 E.07663
G1 X161.003 Y130.378 E.01295
G1 X161.003 Y127.377 E.07663
G1 X160.496 Y127.377 E.01295
M73 P1 R102
G1 X160.496 Y130.378 E.07663
G1 X159.988 Y130.378 E.01297
G1 X159.988 Y127.377 E.07663
G1 X159.481 Y127.377 E.01295
G1 X159.481 Y130.378 E.07663
G1 X158.974 Y130.378 E.01295
G1 X158.974 Y127.377 E.07663
G1 X158.467 Y127.377 E.01295
G1 X158.467 Y130.378 E.07663
G1 X157.96 Y130.378 E.01295
G1 X157.96 Y127.377 E.07663
G1 X157.453 Y127.377 E.01295
M73 Q1 S105
G1 X157.453 Y130.378 E.07663
G1 X156.946 Y130.378 E.01295
G1 X156.946 Y127.377 E.07663
G1 X156.439 Y127.377 E.01295
G1 X156.439 Y130.378 E.07663
G1 X155.932 Y130.378 E.01295
G1 X155.932 Y127.377 E.07663
G1 X155.425 Y127.377 E.01295
G1 X155.425 Y130.378 E.07663
G1 X154.918 Y130.378 E.01295
G1 X154.918 Y127.377 E.07663
G1 X154.411 Y127.377 E.01295
G1 X154.411 Y130.378 E.07663
G1 X153.904 Y130.378 E.01295
G1 X153.904 Y127.377 E.07663
G1 X153.396 Y127.377 E.01297
G1 X153.396 Y130.378 E.07663
G1 X152.889 Y130.378 E.01295
G1 X152.889 Y127.377 E.07663
G1 X152.382 Y127.377 E.01295
G1 X152.382 Y130.378 E.07663
G1 X151.875 Y130.378 E.01295
G1 X151.875 Y127.377 E.07663
G1 X151.368 Y127.377 E.01295
G1 X151.368 Y130.378 E.07663
G1 X150.861 Y130.378 E.01295
G1 X150.861 Y127.377 E.07663
G1 X150.354 Y127.377 E.01295
G1 X150.354 Y130.378 E.07663
G1 X149.847 Y130.378 E.01295
G1 X149.847 Y127.377 E.07663
G1 X149.34 Y127.377 E.01295
G1 X149.34 Y130.378 E.07663
G1 X148.833 Y130.378 E.01295
G1 X148.833 Y127.377 E.07663
G1 X148.326 Y127.377 E.01295
G1 X148.326 Y130.378 E.07663
G1 X147.819 Y130.378 E.01295
G1 X147.819 Y127.377 E.07663
G1 X147.311 Y127.377 E.01297
G1 X147.311 Y130.378 E.07663
G1 X146.804 Y130.378 E.01295
G1 X146.804 Y127.377 E.07663
G1 X146.297 Y127.377 E.01295
G1 X146.297 Y130.378 E.07663
G1 X145.79 Y130.378 E.01295
G1 X145.79 Y127.377 E.07663
G1 X145.283 Y127.377 E.01295
G1 X145.283 Y130.378 E.07663
G1 X144.776 Y130.378 E.01295
G1 X144.776 Y127.377 E.07663
G1 X144.269 Y127.377 E.01295
G1 X144.269 Y130.378 E.07663
G1 X143.762 Y130.378 E.01295
G1 X143.762 Y127.377 E.07663
G1 X143.255 Y127.377 E.01295
G1 X143.255 Y130.378 E.07663
G1 X142.748 Y130.378 E.01295
G1 X142.748 Y127.377 E.07663
G1 X142.241 Y127.377 E.01295
G1 X142.241 Y130.378 E.07663
G1 X141.734 Y130.378 E.01295
G1 X141.734 Y127.377 E.07663
G1 X141.227 Y127.377 E.01295
G1 X141.227 Y130.378 E.07663
G1 X140.719 Y130.378 E.01297
G1 X140.719 Y127.377 E.07663
G1 X140.212 Y127.377 E.01295
G1 X140.212 Y130.378 E.07663
G1 X139.705 Y130.378 E.01295
G1 X139.705 Y127.377 E.07663
G1 X139.198 Y127.377 E.01295
G1 X139.198 Y130.378 E.07663
G1 X138.691 Y130.378 E.01295
G1 X138.691 Y127.377 E.07663
G1 X138.184 Y127.377 E.01295
G1 X138.184 Y130.378 E.07663
G1 X137.677 Y130.378 E.01295
G1 X137.677 Y127.377 E.07663
G1 X137.17 Y127.377 E.01295
G1 X137.17 Y130.378 E.07663
G1 X136.663 Y130.378 E.01295
G1 X136.663 Y127.377 E.07663
G1 X136.156 Y127.377 E.01295
G1 X136.156 Y130.378 E.07663
G1 X135.649 Y130.378 E.01295
G1 X135.649 Y127.377 E.07663
G1 X135.142 Y127.377 E.01295
G1 X135.142 Y130.378 E.07663
G1 X134.634 Y130.378 E.01297
G1 X134.634 Y127.377 E.07663
G1 X134.127 Y127.377 E.01295
G1 X134.127 Y130.378 E.07663
G1 X133.62 Y130.378 E.01295
G1 X133.62 Y127.377 E.07663
G1 X133.113 Y127.377 E.01295
G1 X133.113 Y130.378 E.07663
G1 X132.606 Y130.378 E.01295
G1 X132.606 Y127.377 E.07663
G1 X132.099 Y127.377 E.01295
G1 X132.099 Y130.378 E.07663
G1 X131.592 Y130.378 E.01295
G1 X131.592 Y127.377 E.07663
G1 X131.085 Y127.377 E.01295
G1 X131.085 Y130.378 E.07663
G1 X130.578 Y130.378 E.01295
G1 X130.578 Y127.377 E.07663
G1 X130.071 Y127.377 E.01295
G1 X130.071 Y130.378 E.07663
G1 X129.564 Y130.378 E.01295
M73 P1 R101
G1 X129.564 Y127.377 E.07663
G1 X129.057 Y127.377 E.01295
G1 X129.057 Y130.378 E.07663
G1 X128.55 Y130.378 E.01295
G1 X128.55 Y127.377 E.07663
G1 X128.042 Y127.377 E.01297
G1 X128.042 Y130.378 E.07663
G1 X127.535 Y130.378 E.01295
G1 X127.535 Y127.377 E.07663
G1 X127.028 Y127.377 E.01295
G1 X127.028 Y130.378 E.07663
G1 X126.521 Y130.378 E.01295
G1 X126.521 Y127.377 E.07663
G1 X126.014 Y127.377 E.01295
G1 X126.014 Y130.378 E.07663
G1 X125.507 Y130.378 E.01295
G1 X125.507 Y127.377 E.07663
G1 X125 Y127.377 E.01295
G1 X125 Y130.378 E.07663
G1 X124.493 Y130.378 E.01295
G1 X124.493 Y127.377 E.07663
G1 X123.986 Y127.377 E.01295
G1 X123.986 Y130.378 E.07663
G1 X123.479 Y130.378 E.01295
G1 X123.479 Y127.377 E.07663
G1 X122.972 Y127.377 E.01295
G1 X122.972 Y130.378 E.07663
G1 X122.465 Y130.378 E.01295
G1 X122.465 Y127.377 E.07663
G1 X121.958 Y127.377 E.01295
G1 X121.958 Y130.378 E.07663
G1 X121.45 Y130.378 E.01297
G1 X121.45 Y127.377 E.07663
G1 X120.943 Y127.377 E.01295
G1 X120.943 Y130.378 E.07663
G1 X120.436 Y130.378 E.01295
G1 X120.436 Y127.377 E.07663
G1 X119.929 Y127.377 E.01295
G1 X119.929 Y130.378 E.07663
G1 X119.422 Y130.378 E.01295
G1 X119.422 Y127.377 E.07663
G1 X118.915 Y127.377 E.01295
G1 X118.915 Y130.378 E.07663
G1 X118.408 Y130.378 E.01295
G1 X118.408 Y127.377 E.07663
G1 X117.901 Y127.377 E.01295
G1 X117.901 Y130.378 E.07663
G1 X117.394 Y130.378 E.01295
G1 X117.394 Y127.377 E.07663
G1 X116.887 Y127.377 E.01295
G1 X116.887 Y130.378 E.07663
G1 X116.38 Y130.378 E.01295
G1 X116.38 Y127.377 E.07663
G1 X115.873 Y127.377 E.01295
G1 X115.873 Y130.378 E.07663
G1 X115.365 Y130.378 E.01297
G1 X115.365 Y127.377 E.07663
G1 X114.858 Y127.377 E.01295
G1 X114.858 Y130.378 E.07663
G1 X114.351 Y130.378 E.01295
G1 X114.351 Y127.377 E.07663
G1 X113.844 Y127.377 E.01295
G1 X113.844 Y130.378 E.07663
G1 X113.337 Y130.378 E.01295
G1 X113.337 Y127.377 E.07663
G1 X112.83 Y127.377 E.01295
G1 X112.83 Y130.378 E.07663
G1 X112.323 Y130.378 E.01295
G1 X112.323 Y127.377 E.07663
G1 X111.816 Y127.377 E.01295
G1 X111.816 Y130.378 E.07663
G1 X111.309 Y130.378 E.01295
G1 X111.309 Y127.377 E.07663
G1 X110.802 Y127.377 E.01295
G1 X110.802 Y130.378 E.07663
G1 X110.295 Y130.378 E.01295
G1 X110.295 Y127.377 E.07663
G1 X109.788 Y127.377 E.01295
G1 X109.788 Y130.378 E.07663
G1 X109.281 Y130.378 E.01295
G1 X109.281 Y127.377 E.07663
