; generated by PrusaSlicer 2.7.3+win64 on 2024-04-22 at 11:13:53 UTC


;
;
; 

; external perimeters extrusion width = 0.45mm
; perimeters extrusion width = 0.45mm
; infill extrusion width = 0.45mm
; solid infill extrusion width = 0.45mm
; top infill extrusion width = 0.40mm
; support material extrusion width = 0.35mm
; first layer extrusion width = 0.42mm

M73 P0 R105
M73 Q0 S110
M201 X1000 Y1000 Z200 E5000 ; sets maximum accelerations, mm/sec^2
M203 X200 Y200 Z12 E120 ; sets maximum feedrates, mm / sec
M204 S1250 T1250 ; sets acceleration (S) and retract acceleration (R), mm/sec^2
M205 X8.00 Y8.00 Z0.40 E4.50 ; sets the jerk limits, mm/sec
M205 S0 T0 ; sets the minimum extruding and travel feed rate, mm/sec

; printing object 4c_glas_front_cover.stl id:0 copy 0
; stop printing object 4c_glas_front_cover.stl id:0 copy 0

;TYPE:Custom
M862.3 P "MK3S" ; printer model check
M862.1 P0.4 ; nozzle diameter check
M115 U3.12.2 ; tell printer latest fw version
G90 ; use absolute coordinates
M83 ; extruder relative mode
M104 S215 ; set extruder temp
M140 S60 ; set bed temp
M190 S60 ; wait for bed temp
M109 S215 ; wait for extruder temp
G28 W ; home all without mesh bed level
G80 ; mesh bed leveling

G1 Z0.2 F720
G1 Y-3 F1000 ; go outside print area
G92 E0
G1 X60 E9 F1000 ; intro line
G1 X100 E12.5 F1000 ; intro line

G92 E0
M221 S95

; Don't change E values below. Excessive value can damage the printer.

M907 E538 ; set extruder motor current
G21 ; set units to millimeters
G90 ; use absolute coordinates
M83 ; use relative distances for extrusion
M900 K0.05 ; Filament gcode LA 1.5
M900 K30 ; Filament gcode LA 1.0
M107
;LAYER_CHANGE
;Z:0.2
;HEIGHT:0.2
G1 E-.8 F2100
G1 Z.6 F720
G1 X72.218 Y72.42 F10800
G1 Z.2 F720
M73 Q0 S109
G1 E.8 F2100
M204 S800
;TYPE:Skirt/Brim
;WIDTH:0.42
G1 F1200
G1 X88.439 Y56.244 E.71827
G1 X102.537 Y46.868 E.53086
G1 X120.994 Y37.639 E.64702
M73 P0 R104
G1 X135.147 Y32.896 E.46801
G1 X144.551 Y30.538 E.30398
G1 X158.97 Y28.16 E.4582
G1 X208.691 Y28.16 E1.55897
G1 X209.998 Y28.552 E.04278
G1 X210.875 Y29.597 E.04277
G1 X211.068 Y30.537 E.03009
G1 X211.068 Y91.794 E1.92067
G1 X210.677 Y93.101 E.04277
G1 X210.156 Y93.666 E.0241
G1 X104.031 Y176.721 E4.22535
G1 X102.592 Y177.226 E.04782
G1 X88.96 Y177.377 E.42745
G1 X69.348 Y177.377 E.61492
G1 X67.607 Y176.619 E.05954
G1 X39.568 Y146.476 E1.29079
G1 X38.932 Y144.857 E.05454
G1 X38.932 Y134.356 E.32925
G1 X39.054 Y133.604 E.02389
G1 X45.975 Y112.84 E.68625
G1 X55.332 Y94.072 E.65754
G1 X65.006 Y79.612 E.54549
G1 X72.176 Y72.462 E.31749
M204 S1000
;WIPE_START
G1 F8640
G1 X72.218 Y72.42 E-.01371
G1 X74.629 Y70.015 E-.78629
;WIPE_END
G1 Z.6 F720
; printing object 4c_glas_front_cover.stl id:0 copy 0
G1 X97.372 Y145.704 F10800
G1 Z.2 F720
G1 E.8 F2100
M204 S800
;TYPE:Support material interface
;WIDTH:0.35
G1 F1200
G1 X97.454 Y145.395 E.00816
M204 S1000
G1 X97.454 Y145.395 F10800
G1 X97.372 Y145.704
M204 S800
G1 F1200
G1 X97.111 Y146.721 E.02681
G1 X97.111 Y174.212 E.70195
G1 X96.604 Y174.212 E.01295
G1 X96.604 Y148.868 E.64713
G1 X96.77 Y148.133 E.01924
M204 S1000
G1 X96.77 Y148.133 F10800
G1 X96.865 Y147.729
M204 S800
G1 F1200
G1 X96.925 Y147.477 E.00661
M204 S1000
;WIPE_START
G1 F8640
G1 X96.865 Y147.729 E-.05981
;WIPE_END
G1 E-.74019 F2100
G1 Z.6 F720
G1 X96.29 Y148.603 F10800
G1 Z.2 F720
G1 E.8 F2100
M204 S800
;TYPE:Support material
;WIDTH:0.42
G1 F1200
G1 X95.325 Y153.612 E.15994
G1 X94.679 Y158.58 E.15708
G1 X94.732 Y153.516 E.15879
G1 X95.696 Y148.505 E.16
G1 X96.302 Y148.548 E.01905
M204 S1000
;WIPE_START
G1 F8640
G1 X95.696 Y148.505 E-.14028
G1 X95.156 Y151.311 E-.65972
;WIPE_END
G1 Z.6 F720
G1 X96.428 Y149.679 F10800
G1 Z.2 F720
G1 E.8 F2100
M204 S800
;TYPE:Support material interface
;WIDTH:0.35
G1 F1200
G1 X96.358 Y150.012 E.00869
M204 S1000
M204 S800
G1 X96.096 Y151.325 E.03419
G1 X96.096 Y174.212 E.58439
G1 X95.589 Y174.212 E.01295
G1 X95.589 Y154.273 E.50912
G1 X95.702 Y153.561 E.01841
M204 S1000
;WIPE_START
G1 F8640
G1 X95.589 Y154.273 E-.16646
G1 X95.589 Y157.017 E-.63354
;WIPE_END
G1 Z.6 F720
G1 X95.432 Y155.344 F10800
G1 Z.2 F720
G1 E.8 F2100
M204 S800
G1 F1200
G1 X95.344 Y155.996 E.0168
M204 S1000
M204 S800
G1 X95.082 Y158.206 E.05682
G1 X95.082 Y162.677 E.11416
G1 X95.008 Y162.677 E.00189
G1 X95.082 Y174.212 E.29454
G1 X94.575 Y174.212 E.01295
G1 X94.575 Y173.768 E.01134
G1 X94.068 Y174.074 E.01512
G1 X94.068 Y174.212 E.00352
G1 X93.816 Y174.212 E.00643
G1 X93.934 Y174.149 E.00342
M204 S1000
;WIPE_START
G1 F8640
G1 X93.816 Y174.212 E-.03089
G1 X94.068 Y174.212 E-.05819
G1 X94.068 Y174.074 E-.03186
G1 X94.575 Y173.768 E-.13674
G1 X94.575 Y174.212 E-.10252
G1 X95.082 Y174.212 E-.11707
G1 X95.073 Y172.814 E-.32273
;WIPE_END
G1 Z.6 F720
G1 X94.837 Y173.539 F10800
G1 Z.2 F720
G1 E.8 F2100
M204 S800
G1 F1200
G1 X94.896 Y173.417 E.00346
G1 X94.693 Y169.979 E.08794
G1 X94.636 Y166.03 E.10084
G1 X94.711 Y163.209 E.07206
G1 X94.928 Y159.83 E.08646
M204 S1000
G1 X94.928 Y159.83 F10800
G1 X94.529 Y160.254
M204 S800
;TYPE:Support material
;WIDTH:0.42
G1 F1200
G1 X94.348 Y163.193 E.09232
G1 X94.273 Y166.026 E.08886
G1 X94.294 Y168.86 E.08886
G1 X94.445 Y172.235 E.10593
G1 X93.843 Y172.235 E.01888
G1 X93.669 Y167.162 E.15915
G1 X93.806 Y162.026 E.16109
G1 X93.944 Y160.041 E.06239
G1 X94.546 Y160.041 E.01888
G1 X94.534 Y160.197 E.00491
M204 S1000
;WIPE_START
G1 F8640
G1 X94.546 Y160.041 E-.03613
G1 X93.944 Y160.041 E-.139
G1 X93.806 Y162.026 E-.45945
G1 X93.787 Y162.742 E-.16542
;WIPE_END
G1 Z.6 F720
G1 X97.356 Y151.142 F10800
G1 Z.2 F720
G1 E.8 F2100
M204 S800
;TYPE:Support material interface
;WIDTH:0.35
G1 F1200
G1 X97.618 Y151.142 E.00669
G1 X97.618 Y144.793 E.16211
G1 X97.879 Y143.867 E.02457
M204 S1000
;WIPE_START
G1 F8640
G1 X97.618 Y144.793 E-.22215
G1 X97.618 Y147.295 E-.57785
;WIPE_END
G1 Z.6 F720
G1 X98.263 Y142.578 F10800
G1 Z.2 F720
G1 E.8 F2100
M204 S800
G1 F1200
G1 X98.125 Y143.033 E.01214
G1 X98.125 Y151.142 E.20705
G1 X98.632 Y151.142 E.01295
G1 X98.632 Y141.404 E.24865
G1 X98.893 Y140.607 E.02141
M204 S1000
;WIPE_START
G1 F8640
G1 X98.632 Y141.404 E-.19365
G1 X98.632 Y144.03 E-.60635
;WIPE_END
G1 Z.6 F720
G1 X99.284 Y139.465 F10800
G1 Z.2 F720
G1 E.8 F2100
M204 S800
G1 F1200
G1 X99.139 Y139.883 E.0113
G1 X99.139 Y151.142 E.28748
G1 X99.622 Y151.142 E.01233
G1 X99.646 Y138.452 E.32402
G1 X99.907 Y137.746 E.01922
M204 S1000
;WIPE_START
G1 F8640
G1 X99.646 Y138.452 E-.1738
G1 X99.641 Y141.164 E-.6262
;WIPE_END
G1 Z.6 F720
G1 X100.415 Y136.428 F10800
G1 Z.2 F720
G1 E.8 F2100
M204 S800
G1 F1200
G1 X100.153 Y137.1 E.01842
G1 X100.153 Y141.913 E.12289
G1 X99.8 Y141.913 E.00901
M204 S1000
;WIPE_START
G1 F8640
G1 X100.153 Y141.913 E-.08151
G1 X100.153 Y138.801 E-.71849
;WIPE_END
G1 Z.6 F720
G1 X98.941 Y139.345 F10800
G1 Z.2 F720
G1 E.8 F2100
M204 S800
;TYPE:Support material
;WIDTH:0.42
G1 F1200
G1 X97.883 Y142.577 E.10663
G1 X96.986 Y145.742 E.10314
G1 X96.986 Y143.484 E.0708
G1 X97.308 Y142.401 E.03543
G1 X98.328 Y139.277 E.10304
G1 X98.959 Y139.291 E.01979
M204 S1000
;WIPE_START
G1 F8640
G1 X98.328 Y139.277 E-.14574
G1 X97.448 Y141.971 E-.65426
;WIPE_END
G1 Z.6 F720
G1 X100.66 Y135.813 F10800
G1 Z.2 F720
G1 E.8 F2100
M204 S800
;TYPE:Support material interface
;WIDTH:0.35
G1 F1200
G1 X100.66 Y141.913 E.15576
G1 X101.167 Y141.913 E.01295
G1 X101.167 Y134.587 E.18706
G1 X101.429 Y133.975 E.017
M204 S1000
G1 X101.429 Y133.975 F10800
G1 X101.826 Y133.071
M204 S800
G1 F1200
G1 X101.674 Y133.413 E.00956
G1 X101.674 Y141.913 E.21704
G1 X101.929 Y141.913 E.00651
G1 X101.929 Y134.992 E.17672
G1 X102.181 Y134.992 E.00643
G1 X102.181 Y132.286 E.06909
G1 X102.443 Y131.722 E.01588
M204 S1000
G1 X102.443 Y131.722 F10800
G1 X102.53 Y131.536
M204 S800
G1 F1200
G1 X102.689 Y131.202 E.00945
G1 X102.689 Y134.992 E.09677
G1 X103.196 Y134.992 E.01295
G1 X103.196 Y130.157 E.12346
G1 X103.461 Y129.623 E.01522
M204 S1000
G1 X103.461 Y129.623 F10800
G1 X103.522 Y129.503
M204 S800
G1 F1200
G1 X103.703 Y129.148 E.01017
G1 X103.703 Y134.992 E.14922
G1 X104.21 Y134.992 E.01295
G1 X104.21 Y128.172 E.17414
G1 X104.717 Y127.227 E.02738
G1 X104.717 Y130.378 E.08046
G1 X104.455 Y130.378 E.00669
M204 S1000
;WIPE_START
G1 F8640
G1 X104.717 Y130.378 E-.0605
G1 X104.717 Y127.227 E-.72757
G1 X104.693 Y127.273 E-.01193
;WIPE_END
G1 Z.6 F720
G1 X105.386 Y126.022 F10800
G1 Z.2 F720
G1 E.8 F2100
M204 S800
G1 F1200
G1 X105.224 Y126.31 E.00844
G1 X105.224 Y130.378 E.10387
G1 X105.731 Y130.378 E.01295
G1 X105.731 Y125.419 E.12662
G1 X106.238 Y124.553 E.02562
G1 X106.238 Y130.378 E.14873
G1 X106.543 Y130.378 E.00779
G1 X106.543 Y125.764 E.11781
G1 X106.745 Y125.764 E.00516
G1 X106.745 Y123.71 E.05245
G1 X107.171 Y123.021 E.02068
M204 S1000
G1 X107.171 Y123.021 F10800
G1 X107.415 Y122.632
M204 S800
G1 F1200
G1 X107.252 Y122.89 E.00779
G1 X107.252 Y125.764 E.07338
G1 X107.759 Y125.764 E.01295
G1 X107.759 Y122.091 E.09379
G1 X108.266 Y121.31 E.02378
G1 X108.266 Y125.764 E.11373
G1 X108.773 Y125.764 E.01295
G1 X108.773 Y120.55 E.13313
G1 X109.193 Y119.932 E.01908
M204 S1000
;WIPE_START
G1 F8640
G1 X108.773 Y120.55 E-.17253
G1 X108.773 Y123.267 E-.62747
;WIPE_END
G1 Z.6 F720
G1 X108.03 Y121.009 F10800
G1 Z.2 F720
G1 E.8 F2100
M204 S800
;TYPE:Support material
;WIDTH:0.42
G1 F1200
G1 X105.58 Y124.955 E.14563
G1 X103.147 Y129.438 E.15993
G1 X100.995 Y134.063 E.15994
G1 X99.293 Y138.359 E.14488
G1 X99.293 Y136.65 E.05358
G1 X101.09 Y132.356 E.14595
G1 X101.6 Y132.356 E.01599
G1 X101.6 Y131.247 E.03477
G1 X102.611 Y129.168 E.07248
G1 X103.346 Y127.742 E.0503
G1 X103.907 Y127.742 E.01759
G1 X103.907 Y126.697 E.03277
G1 X105.971 Y123.127 E.1293
G1 X106.214 Y123.127 E.00762
G1 X106.214 Y122.732 E.01238
G1 X107.434 Y120.82 E.07111
G1 X108.155 Y120.82 E.02261
G1 X108.061 Y120.962 E.00534
M204 S1000
;WIPE_START
G1 F8640
G1 X108.155 Y120.82 E-.03932
G1 X107.434 Y120.82 E-.16648
G1 X106.214 Y122.732 E-.5237
G1 X106.214 Y123.038 E-.0705
;WIPE_END
G1 Z.6 F720
G1 X109.019 Y123.457 F10800
G1 Z.2 F720
G1 E.8 F2100
M204 S800
;TYPE:Support material interface
;WIDTH:0.35
G1 F1200
G1 X109.281 Y123.457 E.00669
G1 X109.281 Y119.806 E.09322
G1 X109.788 Y119.08 E.02261
G1 X109.788 Y123.457 E.11176
G1 X110.295 Y123.457 E.01295
G1 X110.295 Y118.369 E.12992
G1 X110.802 Y117.674 E.02197
G1 X110.802 Y123.457 E.14766
G1 X111.158 Y123.457 E.00909
G1 X111.158 Y118.843 E.11781
G1 X111.309 Y118.843 E.00386
G1 X111.309 Y116.995 E.04719
G1 X111.816 Y116.329 E.02137
G1 X111.816 Y118.843 E.06419
G1 X112.323 Y118.843 E.01295
G1 X112.323 Y115.677 E.08084
G1 X112.83 Y115.038 E.02083
G1 X112.83 Y118.843 E.09716
G1 X113.337 Y118.843 E.01295
G1 X113.337 Y114.412 E.11314
G1 X113.746 Y113.916 E.01642
M204 S1000
;WIPE_START
G1 F8640
G1 X113.337 Y114.412 E-.14844
G1 X113.337 Y117.233 E-.65156
;WIPE_END
G1 Z.6 F720
G1 X113.583 Y116.535 F10800
G1 Z.2 F720
G1 E.8 F2100
M204 S800
G1 F1200
G1 X113.844 Y116.535 E.00666
G1 X113.844 Y113.798 E.06989
G1 X114.351 Y113.196 E.0201
G1 X114.351 Y116.535 E.08526
G1 X114.858 Y116.535 E.01295
M73 P1 R104
G1 X114.858 Y112.606 E.10032
G1 X115.365 Y112.026 E.01967
G1 X115.365 Y116.535 E.11513
G1 X115.772 Y116.535 E.01039
G1 X115.772 Y114.228 E.05891
G1 X115.873 Y114.228 E.00258
G1 X115.873 Y111.457 E.07075
G1 X116.38 Y110.899 E.01925
G1 X116.38 Y114.228 E.085
G1 X116.887 Y114.228 E.01295
G1 X116.887 Y110.35 E.09902
G1 X117.394 Y109.811 E.01889
G1 X117.394 Y114.228 E.11278
G1 X117.901 Y114.228 E.01295
G1 X117.901 Y109.282 E.12629
G1 X118.3 Y108.872 E.01461
M204 S1000
;WIPE_START
G1 F8640
G1 X117.901 Y109.282 E-.1321
G1 X117.901 Y112.175 E-.6679
;WIPE_END
G1 Z.6 F720
G1 X117.195 Y109.492 F10800
G1 Z.2 F720
G1 E.8 F2100
M204 S800
;TYPE:Support material
;WIDTH:0.42
G1 F1200
G1 X115.442 Y111.392 E.08106
G1 X115.442 Y110.495 E.02812
M73 Q1 S109
G1 X115.902 Y109.992 E.02137
G1 X116.564 Y109.285 E.03037
G1 X117.394 Y109.285 E.02602
G1 X117.234 Y109.451 E.00723
M204 S1000
;WIPE_START
G1 F8640
G1 X117.394 Y109.285 E-.05324
G1 X116.564 Y109.285 E-.19165
G1 X115.902 Y109.992 E-.22364
G1 X115.442 Y110.495 E-.15739
G1 X115.442 Y111.249 E-.17408
;WIPE_END
G1 Z.6 F720
G1 X118.147 Y111.921 F10800
G1 Z.2 F720
M73 Q1 S108
G1 E.8 F2100
M204 S800
;TYPE:Support material interface
;WIDTH:0.35
G1 F1200
G1 X118.408 Y111.921 E.00666
G1 X118.408 Y108.763 E.08064
G1 X118.915 Y108.251 E.0184
G1 X118.915 Y111.921 E.09371
G1 X119.422 Y111.921 E.01295
G1 X119.422 Y107.749 E.10653
G1 X119.929 Y107.256 E.01806
G1 X119.929 Y111.921 E.11912
G1 X120.386 Y111.921 E.01167
G1 X120.436 Y106.771 E.13151
G1 X120.943 Y106.293 E.01779
G1 X120.943 Y109.614 E.0848
G1 X121.45 Y109.614 E.01295
G1 X121.45 Y105.824 E.09677
G1 X121.958 Y105.363 E.01752
G1 X121.958 Y109.614 E.10854
G1 X122.465 Y109.614 E.01295
G1 X122.465 Y104.909 E.12014
G1 X122.856 Y104.564 E.01331
M73 P1 R103
M204 S1000
G1 X122.856 Y104.564 F10800
G1 X122.082 Y104.763
M204 S800
;TYPE:Support material
;WIDTH:0.42
G1 F1200
G1 X120.057 Y106.63 E.08636
G1 X120.057 Y105.803 E.02593
G1 X120.752 Y105.156 E.02977
G1 X121.285 Y104.671 E.02259
G1 X122.186 Y104.671 E.02825
G1 X122.124 Y104.726 E.0026
M204 S1000
;WIPE_START
G1 F8640
G1 X122.186 Y104.671 E-.01914
G1 X121.285 Y104.671 E-.20804
G1 X120.752 Y105.156 E-.1664
G1 X120.057 Y105.803 E-.21925
G1 X120.057 Y106.614 E-.18717
;WIPE_END
G1 Z.6 F720
G1 X122.71 Y107.307 F10800
G1 Z.2 F720
G1 E.8 F2100
M204 S800
;TYPE:Support material interface
;WIDTH:0.35
G1 F1200
G1 X122.972 Y107.307 E.00669
G1 X122.972 Y104.463 E.07262
G1 X123.479 Y104.024 E.01712
G1 X123.479 Y107.307 E.08383
G1 X123.986 Y107.307 E.01295
G1 X123.986 Y103.592 E.09486
G1 X124.493 Y103.167 E.01689
G1 X124.493 Y107.307 E.10571
G1 X125 Y107.307 E.01295
G1 X125 Y102.749 E.11638
G1 X125.388 Y102.434 E.01276
M204 S1000
;WIPE_START
G1 F8640
G1 X125 Y102.749 E-.1154
G1 X125 Y105.714 E-.6846
;WIPE_END
G1 Z.6 F720
G1 X125.246 Y105 F10800
G1 Z.2 F720
G1 E.8 F2100
M204 S800
G1 F1200
G1 X125.507 Y105 E.00666
G1 X125.507 Y102.337 E.068
G1 X126.014 Y101.932 E.01657
G1 X126.014 Y105 E.07834
G1 X126.521 Y105 E.01295
G1 X126.521 Y101.534 E.0885
G1 X127.028 Y101.141 E.01638
G1 X127.028 Y105 E.09853
G1 X127.307 Y105 E.00712
G1 X127.307 Y102.693 E.05891
G1 X127.535 Y102.693 E.00582
G1 X127.535 Y100.756 E.04946
G1 X128.042 Y100.376 E.01618
G1 X128.042 Y102.693 E.05916
G1 X128.55 Y102.693 E.01297
G1 X128.55 Y100.003 E.06869
G1 X129.057 Y99.635 E.016
G1 X129.057 Y102.693 E.07808
G1 X129.564 Y102.693 E.01295
G1 X129.564 Y99.273 E.08733
G1 X129.945 Y99.004 E.01191
M204 S1000
;WIPE_START
G1 F8640
G1 X129.564 Y99.273 E-.10769
G1 X129.564 Y102.271 E-.69231
;WIPE_END
G1 Z.6 F720
G1 X129.809 Y100.386 F10800
G1 Z.2 F720
G1 E.8 F2100
M204 S800
G1 F1200
G1 X130.071 Y100.386 E.00669
G1 X130.071 Y98.916 E.03753
G1 X130.578 Y98.565 E.01575
G1 X130.578 Y100.386 E.0465
G1 X131.085 Y100.386 E.01295
G1 X131.085 Y98.22 E.05531
G1 X131.592 Y97.88 E.01559
G1 X131.592 Y100.386 E.06399
G1 X132.099 Y100.386 E.01295
G1 X132.099 Y97.546 E.07252
G1 X132.606 Y97.217 E.01543
G1 X132.606 Y100.386 E.08092
G1 X133.113 Y100.386 E.01295
G1 X133.113 Y96.893 E.08919
G1 X133.62 Y96.575 E.01528
G1 X133.62 Y100.386 E.09731
G1 X134.127 Y100.386 E.01295
G1 X134.127 Y96.261 E.10533
G1 X134.503 Y96.032 E.01124
M204 S1000
G1 X134.503 Y96.032 F10800
G1 X134.777 Y95.443
M204 S800
;TYPE:Support material
;WIDTH:0.42
G1 F1200
G1 X131.592 Y97.444 E.11794
G1 X131.592 Y96.725 E.02254
G1 X132.033 Y96.439 E.01648
G1 X133.617 Y95.442 E.05868
G1 X134.72 Y95.443 E.03458
M204 S1000
;WIPE_START
G1 F8640
G1 X133.617 Y95.442 E-.25469
G1 X132.033 Y96.439 E-.43217
G1 X131.622 Y96.706 E-.11314
;WIPE_END
G1 Z.6 F720
G1 X134.373 Y98.079 F10800
G1 Z.2 F720
G1 E.8 F2100
M204 S800
;TYPE:Support material interface
;WIDTH:0.35
G1 F1200
G1 X134.635 Y98.079 E.00669
G1 X134.635 Y95.953 E.05428
G1 X135.142 Y95.649 E.01509
G1 X135.142 Y98.079 E.06205
G1 X135.649 Y98.079 E.01295
G1 X135.649 Y95.35 E.06968
G1 X136.156 Y95.056 E.01496
G1 X136.156 Y98.079 E.07719
G1 X136.663 Y98.079 E.01295
G1 X136.663 Y94.767 E.08457
G1 X137.17 Y94.483 E.01484
G1 X137.17 Y98.079 E.09182
G1 X137.677 Y98.079 E.01295
G1 X137.677 Y94.203 E.09897
G1 X138.184 Y93.928 E.01473
