; generated by PrusaSlicer 2.7.3+win64 on 2024-04-22 at 11:14:19 UTC


;
;
; 

; external perimeters extrusion width = 0.45mm
; perimeters extrusion width = 0.45mm
; infill extrusion width = 0.45mm
; solid infill extrusion width = 0.45mm
; top infill extrusion width = 0.40mm
; support material extrusion width = 0.35mm
; first layer extrusion width = 0.42mm

M73 P0 R106
M73 Q0 S110
M201 X1000 Y1000 Z200 E5000 ; sets maximum accelerations, mm/sec^2
M203 X200 Y200 Z12 E120 ; sets maximum feedrates, mm / sec
M204 S1250 T1250 ; sets acceleration (S) and retract acceleration (R), mm/sec^2
M205 X8.00 Y8.00 Z0.40 E4.50 ; sets the jerk limits, mm/sec
M205 S0 T0 ; sets the minimum extruding and travel feed rate, mm/sec

; printing object 4d_glas_front_cover.stl id:0 copy 0
; stop printing object 4d_glas_front_cover.stl id:0 copy 0

;TYPE:Custom
M862.3 P "MK3S" ; printer model check
M862.1 P0.4 ; nozzle diameter check
M115 U3.12.2 ; tell printer latest fw version
G90 ; use absolute coordinates
M83 ; extruder relative mode
M104 S215 ; set extruder temp
M140 S60 ; set bed temp
M190 S60 ; wait for bed temp
M109 S215 ; wait for extruder temp
G28 W ; home all without mesh bed level
G80 ; mesh bed leveling

G1 Z0.2 F720
G1 Y-3 F1000 ; go outside print area
G92 E0
G1 X60 E9 F1000 ; intro line
G1 X100 E12.5 F1000 ; intro line

G92 E0
M221 S95

; Don't change E values below. Excessive value can damage the printer.

M907 E538 ; set extruder motor current
G21 ; set units to millimeters
G90 ; use absolute coordinates
M83 ; use relative distances for extrusion
M900 K0.05 ; Filament gcode LA 1.5
M900 K30 ; Filament gcode LA 1.0
M107
;LAYER_CHANGE
;Z:0.2
;HEIGHT:0.2
G1 E-.8 F2100
G1 Z.6 F720
G1 X39.323 Y29.23 F10800
G1 Z.2 F720
G1 E.8 F2100
M204 S800
;TYPE:Skirt/Brim
;WIDTH:0.42
G1 F1200
G1 X40.369 Y28.354 E.04278
G1 X41.309 Y28.16 E.03009
G1 X91.421 Y28.192 E1.57123
G1 X105.449 Y30.538 E.44595
G1 X114.853 Y32.896 E.30398
G1 X128.695 Y37.51 E.45748
G1 X147.719 Y47.016 E.66681
G1 X161.923 Y56.541 E.53622
G1 X184.994 Y79.612 E1.02301
G1 X194.52 Y93.817 E.53627
G1 X204.025 Y112.84 E.66676
G1 X210.946 Y133.604 E.68625
G1 X211.068 Y134.356 E.02389
G1 X211.068 Y144.857 E.32925
G1 X210.432 Y146.476 E.05454
G1 X182.393 Y176.619 E1.29079
G1 X180.652 Y177.377 E.05954
G1 X161.04 Y177.377 E.61492
G1 X147.408 Y177.226 E.42745
G1 X145.969 Y176.721 E.04782
G1 X39.844 Y93.666 E4.22535
G1 X39.056 Y92.552 E.04278
G1 X38.932 Y91.794 E.02408
G1 X38.932 Y30.537 E1.92067
G1 X39.306 Y29.288 E.04088
M204 S1000
;WIPE_START
G1 F8640
G1 X39.323 Y29.23 E-.01396
G1 X40.369 Y28.354 E-.31504
G1 X41.309 Y28.16 E-.22162
G1 X42.389 Y28.161 E-.24938
;WIPE_END
G1 Z.6 F720
; printing object 4d_glas_front_cover.stl id:0 copy 0
G1 X156.085 Y174.212 F10800
G1 Z.2 F720
M73 P0 R105
G1 E.8 F2100
M204 S800
;TYPE:Support material interface
;WIDTH:0.35
G1 F1200
G1 X156.184 Y174.212 E.00253
G1 X155.932 Y174.074 E.00734
G1 X155.932 Y174.212 E.00352
G1 X155.425 Y174.212 E.01295
G1 X155.425 Y173.768 E.01134
G1 X155.163 Y173.539 E.00889
M204 S1000
;WIPE_START
G1 F8640
G1 X155.425 Y173.768 E-.08035
G1 X155.425 Y174.212 E-.10252
G1 X155.932 Y174.212 E-.11707
G1 X155.932 Y174.074 E-.03186
G1 X156.184 Y174.212 E-.06634
G1 X156.085 Y174.212 E-.02286
;WIPE_END
G1 E-.379 F2100
G1 Z.6 F720
G1 X152.685 Y173.827 F10800
G1 Z.2 F720
G1 E.8 F2100
M204 S800
G1 F1200
G1 X152.685 Y174.212 E.00983
G1 X152.889 Y174.212 E.00521
G1 X152.889 Y146.721 E.70195
G1 X152.628 Y145.704 E.02681
M204 S1000
;WIPE_START
G1 F8640
G1 X152.889 Y146.721 E-.24244
G1 X152.889 Y149.136 E-.55756
;WIPE_END
G1 Z.6 F720
G1 X152.247 Y144.307 F10800
G1 Z.2 F720
G1 E.8 F2100
M204 S800
G1 F1200
G1 X152.382 Y144.793 E.01288
G1 X152.382 Y151.142 E.16211
G1 X151.875 Y151.142 E.01295
G1 X151.875 Y143.033 E.20705
G1 X151.614 Y142.178 E.02283
M204 S1000
;WIPE_START
G1 F8640
G1 X151.875 Y143.033 E-.20642
G1 X151.875 Y145.604 E-.59358
;WIPE_END
G1 Z.6 F720
G1 X151.259 Y141.068 F10800
G1 Z.2 F720
G1 E.8 F2100
M204 S800
G1 F1200
G1 X151.368 Y141.404 E.00902
G1 X151.368 Y151.142 E.24865
G1 X150.861 Y151.142 E.01295
G1 X150.861 Y139.883 E.28748
G1 X150.6 Y139.135 E.02023
M204 S1000
;WIPE_START
G1 F8640
G1 X150.861 Y139.883 E-.18293
G1 X150.861 Y142.555 E-.61707
;WIPE_END
G1 Z.6 F720
G1 X151.813 Y139.685 F10800
G1 Z.2 F720
G1 E.8 F2100
M204 S800
;TYPE:Support material
;WIDTH:0.42
G1 F1200
G1 X153.014 Y143.484 E.12493
G1 X153.014 Y145.743 E.07083
G1 X152.117 Y142.576 E.10321
G1 X151.035 Y139.277 E.10886
G1 X151.672 Y139.277 E.01997
G1 X151.795 Y139.632 E.01178
M204 S1000
;WIPE_START
G1 F8640
G1 X151.672 Y139.277 E-.08675
G1 X151.035 Y139.277 E-.14709
G1 X151.799 Y141.607 E-.56616
M73 Q0 S109
;WIPE_END
G1 Z.6 F720
G1 X150.093 Y137.746 F10800
G1 Z.2 F720
G1 E.8 F2100
M204 S800
;TYPE:Support material interface
;WIDTH:0.35
G1 F1200
G1 X150.354 Y138.452 E.01922
G1 X150.378 Y151.142 E.32402
G1 X150.861 Y151.142 E.01233
M204 S1000
;WIPE_START
G1 F8640
G1 X150.378 Y151.142 E-.11153
G1 X150.372 Y148.16 E-.68847
;WIPE_END
G1 Z.6 F720
G1 X153.82 Y150.892 F10800
G1 Z.2 F720
G1 E.8 F2100
M204 S800
G1 F1200
G1 X153.903 Y151.325 E.01126
G1 X153.903 Y174.212 E.58439
G1 X153.396 Y174.212 E.01295
G1 X153.396 Y148.867 E.64715
G1 X153.135 Y147.729 E.02981
M204 S1000
;WIPE_START
G1 F8640
G1 X153.396 Y148.867 E-.26959
G1 X153.396 Y151.164 E-.53041
;WIPE_END
G1 Z.6 F720
G1 X154.318 Y148.569 F10800
G1 Z.2 F720
G1 E.8 F2100
M204 S800
;TYPE:Support material
;WIDTH:0.42
G1 F1200
G1 X155.321 Y153.854 E.16867
G1 X155.321 Y158.58 E.14818
G1 X154.675 Y153.612 E.15708
G1 X153.688 Y148.505 E.16309
G1 X154.306 Y148.514 E.01938
M204 S1000
;WIPE_START
G1 F8640
G1 X153.688 Y148.505 E-.14271
G1 X154.228 Y151.3 E-.65729
;WIPE_END
G1 Z.6 F720
G1 X154.149 Y152.674 F10800
G1 Z.2 F720
G1 E.8 F2100
M204 S800
;TYPE:Support material interface
;WIDTH:0.35
G1 F1200
G1 X154.411 Y154.273 E.04137
G1 X154.411 Y174.212 E.50912
G1 X154.918 Y174.212 E.01295
G1 X154.992 Y162.677 E.29454
G1 X154.918 Y162.677 E.00189
G1 X154.918 Y158.206 E.11416
G1 X154.785 Y157.023 E.0304
M204 S1000
;WIPE_START
G1 F8640
G1 X154.918 Y158.206 E-.27488
G1 X154.918 Y160.48 E-.52512
;WIPE_END
G1 Z.6 F720
G1 X156.079 Y160.318 F10800
G1 Z.2 F720
G1 E.8 F2100
M204 S800
;TYPE:Support material
;WIDTH:0.42
G1 F1200
G1 X156.321 Y165.449 E.16106
G1 X156.247 Y170.587 E.16112
G1 X156.157 Y172.235 E.05175
G1 X155.555 Y172.235 E.01888
G1 X155.706 Y168.86 E.10593
G1 X155.727 Y166.026 E.08886
G1 X155.652 Y163.193 E.08886
G1 X155.454 Y160.041 E.09902
G1 X156.056 Y160.041 E.01888
G1 X156.074 Y160.261 E.00692
M204 S1000
;WIPE_START
G1 F8640
G1 X156.056 Y160.041 E-.05097
G1 X155.454 Y160.041 E-.139
G1 X155.619 Y162.678 E-.61003
;WIPE_END
G1 Z.6 F720
G1 X149.738 Y136.818 F10800
G1 Z.2 F720
G1 E.8 F2100
M204 S800
;TYPE:Support material interface
;WIDTH:0.35
G1 F1200
G1 X149.847 Y137.1 E.00772
G1 X149.847 Y141.913 E.12289
G1 X149.34 Y141.913 E.01295
G1 X149.34 Y135.813 E.15576
G1 X149.078 Y135.174 E.01763
M204 S1000
;WIPE_START
G1 F8640
G1 X149.34 Y135.813 E-.15947
G1 X149.34 Y138.587 E-.64053
;WIPE_END
G1 Z.6 F720
G1 X148.671 Y134.206 F10800
G1 Z.2 F720
G1 E.8 F2100
M204 S800
G1 F1200
G1 X148.833 Y134.587 E.01057
G1 X148.833 Y141.913 E.18706
G1 X148.326 Y141.913 E.01295
G1 X148.326 Y133.413 E.21704
G1 X148.064 Y132.826 E.01641
M204 S1000
G1 X148.064 Y132.826 F10800
G1 X147.819 Y132.286
M204 S800
G1 F1200
G1 X147.819 Y134.992 E.06909
G1 X147.311 Y134.992 E.01297
G1 X147.311 Y131.202 E.09677
G1 X147.049 Y130.656 E.01546
M204 S1000
G1 X146.973 Y130.5 F10800
M204 S800
G1 F1200
G1 X146.804 Y130.157 E.00976
G1 X146.804 Y134.992 E.12346
G1 X146.297 Y134.992 E.01295
G1 X146.297 Y129.148 E.14922
G1 X146.023 Y128.616 E.01528
M204 S1000
;WIPE_START
G1 F8640
G1 X146.297 Y129.148 E-.13818
G1 X146.297 Y132.014 E-.66182
;WIPE_END
G1 Z.6 F720
G1 X144.346 Y125.552 F10800
G1 Z.2 F720
G1 E.8 F2100
M204 S800
G1 F1200
G1 X144.776 Y126.31 E.02225
G1 X144.776 Y130.378 E.10387
G1 X145.283 Y130.378 E.01295
G1 X145.283 Y127.227 E.08046
G1 X145.79 Y128.172 E.02738
G1 X145.79 Y134.992 E.17414
G1 X146.144 Y134.992 E.00904
M204 S1000
;WIPE_START
G1 F8640
G1 X145.79 Y134.992 E-.08174
G1 X145.79 Y131.881 E-.71826
;WIPE_END
G1 Z.6 F720
G1 X144.106 Y125.138 F10800
G1 Z.2 F720
G1 E.8 F2100
M204 S800
G1 F1200
G1 X144.269 Y125.419 E.00829
G1 X144.269 Y130.378 E.12662
G1 X143.762 Y130.378 E.01295
G1 X143.762 Y124.553 E.14873
G1 X143.255 Y123.71 E.02512
G1 X143.255 Y125.764 E.05245
G1 X142.748 Y125.764 E.01295
G1 X142.748 Y122.89 E.07338
G1 X142.241 Y122.091 E.02416
G1 X142.241 Y125.764 E.09379
G1 X141.734 Y125.764 E.01295
G1 X141.734 Y121.31 E.11373
G1 X141.227 Y120.55 E.02333
G1 X141.227 Y125.764 E.13313
M204 S1000
;WIPE_START
G1 F8640
G1 X141.227 Y122.299 E-.8
;WIPE_END
G1 Z.6 F720
G1 X138.842 Y123.457 F10800
G1 Z.2 F720
G1 E.8 F2100
M204 S800
G1 F1200
G1 X138.842 Y118.843 E.11781
G1 X138.691 Y118.843 E.00386
G1 X138.691 Y116.995 E.04719
G1 X139.198 Y117.674 E.02164
G1 X139.198 Y123.457 E.14766
G1 X139.705 Y123.457 E.01295
G1 X139.705 Y118.369 E.12992
G1 X140.212 Y119.08 E.0223
G1 X140.212 Y123.457 E.11176
G1 X140.719 Y123.457 E.01295
G1 X140.719 Y119.806 E.09322
G1 X141.141 Y120.422 E.01907
M204 S1000
;WIPE_START
G1 F8640
G1 X140.719 Y119.806 E-.17241
G1 X140.719 Y122.524 E-.62759
;WIPE_END
G1 Z.6 F720
G1 X142.588 Y120.854 F10800
G1 Z.2 F720
G1 E.8 F2100
M204 S800
;TYPE:Support material
;WIDTH:0.42
G1 F1200
G1 X143.786 Y122.733 E.06987
G1 X143.786 Y123.127 E.01235
G1 X144.029 Y123.127 E.00762
G1 X146.093 Y126.697 E.1293
G1 X146.093 Y127.742 E.03277
G1 X146.654 Y127.742 E.01759
G1 X148.4 Y131.247 E.12278
G1 X148.4 Y132.356 E.03477
G1 X148.91 Y132.356 E.01599
G1 X150.707 Y136.65 E.14595
G1 X150.707 Y138.359 E.05358
G1 X149.005 Y134.063 E.14488
G1 X146.853 Y129.438 E.15994
G1 X144.421 Y124.955 E.15991
G1 X141.845 Y120.82 E.15275
G1 X142.549 Y120.82 E.02207
M204 S1000
;WIPE_START
G1 F8640
G1 X141.845 Y120.82 E-.16256
G1 X143.304 Y123.163 E-.63744
;WIPE_END
G1 Z.6 F720
G1 X138.599 Y116.872 F10800
G1 Z.2 F720
G1 E.8 F2100
M204 S800
;TYPE:Support material interface
;WIDTH:0.35
G1 F1200
G1 X138.184 Y116.329 E.01745
G1 X138.184 Y118.843 E.06419
G1 X137.677 Y118.843 E.01295
G1 X137.677 Y115.677 E.08084
G1 X137.17 Y115.038 E.02083
G1 X137.17 Y118.843 E.09716
G1 X136.663 Y118.843 E.01295
G1 X136.663 Y114.412 E.11314
G1 X136.156 Y113.798 E.02033
G1 X136.156 Y116.535 E.06989
G1 X135.649 Y116.535 E.01295
G1 X135.649 Y113.196 E.08526
G1 X135.142 Y112.606 E.01986
G1 X135.142 Y116.535 E.10032
G1 X134.635 Y116.535 E.01295
G1 X134.635 Y112.026 E.11513
G1 X134.127 Y111.457 E.01948
M73 P1 R105
G1 X134.127 Y114.228 E.07075
G1 X134.228 Y114.228 E.00258
G1 X134.228 Y116.535 E.05891
M204 S1000
;WIPE_START
G1 F8640
G1 X134.228 Y114.228 E-.53269
G1 X134.127 Y114.228 E-.02332
G1 X134.127 Y113.171 E-.24399
;WIPE_END
G1 Z.6 F720
G1 X135.624 Y111.69 F10800
G1 Z.2 F720
G1 E.8 F2100
M204 S800
;TYPE:Support material
;WIDTH:0.42
G1 F1200
G1 X136.865 Y113.143 E.05991
G1 X136.865 Y113.899 E.0237
G1 X137.489 Y113.899 E.01957
G1 X139.172 Y116.032 E.08519
G1 X139.172 Y116.206 E.00546
G1 X139.304 Y116.206 E.00414
G1 X139.578 Y116.568 E.01423
G1 X141.479 Y119.209 E.10203
G1 X141.479 Y120.273 E.03336
G1 X138.411 Y116.027 E.16425
G1 X134.736 Y111.592 E.18059
G1 X135.538 Y111.592 E.02515
M73 Q1 S109
G1 X135.587 Y111.648 E.00233
M204 S1000
;WIPE_START
G1 F8640
G1 X135.538 Y111.592 E-.01718
G1 X134.736 Y111.592 E-.18518
G1 X136.387 Y113.585 E-.59764
;WIPE_END
G1 Z.6 F720
G1 X134.024 Y111.343 F10800
G1 Z.2 F720
G1 E.8 F2100
M204 S800
;TYPE:Support material interface
;WIDTH:0.35
G1 F1200
G1 X133.62 Y110.899 E.01533
G1 X133.62 Y114.228 E.085
G1 X133.113 Y114.228 E.01295
G1 X133.113 Y110.35 E.09902
G1 X132.606 Y109.811 E.01889
G1 X132.606 Y114.228 E.11278
G1 X132.099 Y114.228 E.01295
G1 X132.099 Y109.282 E.12629
G1 X131.592 Y108.763 E.01853
G1 X131.592 Y111.921 E.08064
G1 X131.085 Y111.921 E.01295
G1 X131.085 Y108.251 E.09371
G1 X130.578 Y107.749 E.01822
G1 X130.578 Y111.921 E.10653
G1 X130.071 Y111.921 E.01295
G1 X130.071 Y107.256 E.11912
G1 X129.564 Y106.771 E.01792
G1 X129.614 Y111.921 E.13151
M204 S1000
;WIPE_START
G1 F8640
G1 X129.58 Y108.456 E-.8
;WIPE_END
G1 Z.6 F720
G1 X133.709 Y109.574 F10800
G1 Z.2 F720
G1 E.8 F2100
M204 S800
;TYPE:Support material
;WIDTH:0.42
G1 F1200
G1 X134.558 Y110.495 E.03927
G1 X134.558 Y111.392 E.02812
G1 X132.606 Y109.285 E.09006
G1 X133.436 Y109.285 E.02602
G1 X133.67 Y109.533 E.01069
M204 S1000
;WIPE_START
G1 F8640
G1 X133.436 Y109.285 E-.07873
G1 X132.606 Y109.285 E-.19165
G1 X134.164 Y110.968 E-.52962
;WIPE_END
G1 Z.6 F720
G1 X131.316 Y107.122 F10800
G1 Z.2 F720
G1 E.8 F2100
M204 S800
G1 F1200
G1 X132.251 Y108.057 E.04146
G1 X132.251 Y108.916 E.02693
G1 X130.306 Y106.978 E.08609
G1 X131.168 Y106.978 E.02703
G1 X131.276 Y107.083 E.00472
M204 S1000
;WIPE_START
G1 F8640
G1 X131.168 Y106.978 E-.03478
G1 X130.306 Y106.978 E-.19904
G1 X132.043 Y108.709 E-.56618
;WIPE_END
G1 Z.6 F720
G1 X129.452 Y106.665 F10800
G1 Z.2 F720
G1 E.8 F2100
M204 S800
;TYPE:Support material interface
;WIDTH:0.35
G1 F1200
G1 X129.057 Y106.293 E.01385
G1 X129.057 Y109.614 E.0848
G1 X128.55 Y109.614 E.01295
G1 X128.55 Y105.824 E.09677
G1 X128.042 Y105.363 E.01752
G1 X128.042 Y109.614 E.10854
G1 X127.535 Y109.614 E.01295
G1 X127.535 Y104.909 E.12014
G1 X127.028 Y104.463 E.01724
G1 X127.028 Y107.307 E.07262
G1 X126.521 Y107.307 E.01295
G1 X126.521 Y104.024 E.08383
G1 X126.014 Y103.592 E.01701
G1 X126.014 Y107.307 E.09486
G1 X125.507 Y107.307 E.01295
G1 X125.507 Y103.167 E.10571
G1 X125 Y102.749 E.01678
G1 X125 Y107.307 E.11638
M204 S1000
;WIPE_START
G1 F8640
G1 X125 Y103.842 E-.8
;WIPE_END
G1 Z.6 F720
G1 X128.826 Y104.771 F10800
G1 Z.2 F720
G1 E.8 F2100
M204 S800
;TYPE:Support material
;WIDTH:0.42
G1 F1200
G1 X129.943 Y105.803 E.04768
G1 X129.943 Y106.63 E.02593
G1 X127.814 Y104.671 E.09071
G1 X128.715 Y104.671 E.02825
G1 X128.784 Y104.733 E.00291
M204 S1000
;WIPE_START
G1 F8640
G1 X128.715 Y104.671 E-.02142
G1 X127.814 Y104.671 E-.20804
G1 X129.633 Y106.344 E-.57054
;WIPE_END
G1 Z.6 F720
G1 X124.881 Y102.652 F10800
G1 Z.2 F720
G1 E.8 F2100
M204 S800
;TYPE:Support material interface
;WIDTH:0.35
G1 F1200
G1 X124.493 Y102.337 E.01276
G1 X124.493 Y105 E.068
G1 X123.986 Y105 E.01295
G1 X123.986 Y101.932 E.07834
G1 X123.479 Y101.534 E.01646
G1 X123.479 Y105 E.0885
G1 X122.972 Y105 E.01295
G1 X122.972 Y101.141 E.09853
G1 X122.465 Y100.756 E.01626
G1 X122.465 Y102.693 E.04946
G1 X121.958 Y102.693 E.01295
G1 X121.958 Y100.376 E.05916
G1 X121.45 Y100.003 E.01609
G1 X121.45 Y102.693 E.06869
G1 X120.943 Y102.693 E.01295
G1 X120.943 Y99.635 E.07808
G1 X120.436 Y99.273 E.01591
G1 X120.436 Y102.693 E.08733
M204 S1000
;WIPE_START
G1 F8640
G1 X120.436 Y99.273 E-.78969
G1 X120.472 Y99.299 E-.01031
;WIPE_END
G1 Z.6 F720
G1 X120.311 Y99.184 F10800
G1 Z.2 F720
G1 E.8 F2100
M204 S800
G1 F1200
G1 X119.929 Y98.916 E.01191
G1 X119.929 Y100.386 E.03753
G1 X119.422 Y100.386 E.01295
G1 X119.422 Y98.565 E.0465
G1 X118.915 Y98.22 E.01566
G1 X118.915 Y100.386 E.05531
G1 X118.408 Y100.386 E.01295
G1 X118.408 Y97.88 E.06399
G1 X117.901 Y97.546 E.0155
G1 X117.901 Y100.386 E.07252
G1 X117.394 Y100.386 E.01295
G1 X117.394 Y97.217 E.08092
G1 X116.887 Y96.893 E.01536
G1 X116.887 Y100.386 E.08919
G1 X116.38 Y100.386 E.01295
G1 X116.38 Y96.575 E.09731
G1 X115.873 Y96.261 E.01523
G1 X115.873 Y100.386 E.10533
M204 S1000
;WIPE_START
G1 F8640
G1 X115.873 Y96.921 E-.8
;WIPE_END
G1 Z.6 F720
G1 X115.742 Y96.181 F10800
G1 Z.2 F720
G1 E.8 F2100
M204 S800
G1 F1200
G1 X115.366 Y95.953 E.01123
G1 X115.366 Y98.079 E.05428
G1 X114.858 Y98.079 E.01297
G1 X114.858 Y95.649 E.06205
G1 X114.351 Y95.35 E.01503
G1 X114.351 Y98.079 E.06968
G1 X113.844 Y98.079 E.01295
G1 X113.844 Y95.056 E.07719
G1 X113.337 Y94.767 E.0149
G1 X113.337 Y98.079 E.08457
G1 X112.83 Y98.079 E.01295
G1 X112.83 Y94.483 E.09182
G1 X112.323 Y94.203 E.01479
G1 X112.323 Y98.079 E.09897
G1 X111.816 Y98.079 E.01295
G1 X111.816 Y93.928 E.10599
G1 X111.309 Y93.657 E.01468
G1 X111.309 Y98.079 E.11291
M204 S1000
;WIPE_START
G1 F8640
G1 X111.309 Y94.615 E-.8
;WIPE_END
G1 Z.6 F720
