; generated by PrusaSlicer 2.6.0+win64 on 2023-10-11 at 06:43:59 UTC


;
;
; 

; external perimeters extrusion width = 0.45mm
; perimeters extrusion width = 0.45mm
; infill extrusion width = 0.45mm
; solid infill extrusion width = 0.45mm
; top infill extrusion width = 0.40mm
; support material extrusion width = 0.35mm
; first layer extrusion width = 0.42mm

M73 P0 R241
M73 Q0 S250
M201 X1000 Y1000 Z200 E5000 ; sets maximum accelerations, mm/sec^2
M203 X200 Y200 Z12 E120 ; sets maximum feedrates, mm / sec
M204 S1250 T1250 ; sets acceleration (S) and retract acceleration (R), mm/sec^2
M205 X8.00 Y8.00 Z0.40 E4.50 ; sets the jerk limits, mm/sec
M205 S0 T0 ; sets the minimum extruding and travel feed rate, mm/sec
;TYPE:Custom
M862.3 P "MK3S" ; printer model check
M862.1 P0.4 ; nozzle diameter check
M115 U3.12.2 ; tell printer latest fw version
G90 ; use absolute coordinates
M83 ; extruder relative mode
M104 S215 ; set extruder temp
M140 S60 ; set bed temp
M190 S60 ; wait for bed temp
M109 S215 ; wait for extruder temp
G28 W ; home all without mesh bed level
G80 ; mesh bed leveling

G1 Z0.2 F720
G1 Y-3 F1000 ; go outside print area
G92 E0
G1 X60 E9 F1000 ; intro line
G1 X100 E12.5 F1000 ; intro line

G92 E0
M221 S95

; Don't change E values below. Excessive value can damage the printer.

M907 E538 ; set extruder motor current
G21 ; set units to millimeters
G90 ; use absolute coordinates
M83 ; use relative distances for extrusion
M900 K0.05 ; Filament gcode LA 1.5
M900 K30 ; Filament gcode LA 1.0
M107
;LAYER_CHANGE
;Z:0.2
;HEIGHT:0.2
;BEFORE_LAYER_CHANGE
G92 E0.0
;0.2


G1 E-.8 F2100
G1 Z.4 F720
;AFTER_LAYER_CHANGE
;0.2
G1 X49.786 Y63.675 F10800
G1 Z.2 F720
G1 E.8 F2100
M204 S800
;TYPE:Skirt/Brim
;WIDTH:0.42
G1 F1200
G1 X51.424 Y62.946 E.05622
G1 X200.421 Y58.153 E4.67411
G1 X227.148 Y58.152 E.83801
M73 P0 R240
G1 X228.455 Y58.544 E.04278
G1 X229.331 Y59.589 E.04275
G1 X229.525 Y60.529 E.03009
G1 X229.522 Y68.836 E.26046
G1 X225.874 Y145.356 E2.40196
G1 X225.421 Y146.643 E.04278
G1 X224.335 Y147.468 E.04276
G1 X223.5 Y147.62 E.02661
G1 X51.499 Y147.57 E5.39297
G1 X49.772 Y146.825 E.05897
G1 X21.124 Y116.497 E1.30808
G1 X20.475 Y114.865 E.05507
G1 X20.475 Y95.135 E.61862
G1 X21.138 Y93.488 E.05567
G1 X49.744 Y63.718 E1.2945
M204 S1000
; printing object 1_feet_front.stl id:0 copy 0
;WIPE_START
G1 F8640
G1 X51.424 Y62.946 E-.42691
G1 X53.039 Y62.894 E-.37309
;WIPE_END
G1 Z.6 F720
G1 X51.02 Y114.865 F10800
G1 Z.2 F720
G1 E.8 F2100
M204 S800
;TYPE:Support material
G1 F1200
G1 X22.852 Y114.865 E.88319
G1 X22.852 Y95.135 E.61862
G1 X51.02 Y95.135 E.88319
G1 X51.02 Y114.808 E.61683
M204 S1000
G1 X50.422 Y114.695 F10800
M204 S800
G1 F1200
G1 X50.422 Y95.475 E.60263
G1 X50.003 Y95.475 E.01314
G1 X50.003 Y114.525 E.5973
G1 X49.584 Y114.525 E.01314
G1 X49.584 Y95.475 E.5973
G1 X49.165 Y95.475 E.01314
G1 X49.165 Y114.525 E.5973
G1 X48.746 Y114.525 E.01314
G1 X48.746 Y95.475 E.5973
G1 X48.327 Y95.475 E.01314
G1 X48.327 Y114.525 E.5973
G1 X47.908 Y114.525 E.01314
G1 X47.908 Y95.475 E.5973
G1 X47.489 Y95.475 E.01314
G1 X47.489 Y114.525 E.5973
G1 X47.07 Y114.525 E.01314
G1 X47.07 Y95.475 E.5973
G1 X46.651 Y95.475 E.01314
G1 X46.651 Y114.525 E.5973
G1 X46.232 Y114.525 E.01314
G1 X46.232 Y95.475 E.5973
G1 X45.813 Y95.475 E.01314
G1 X45.813 Y114.525 E.5973
G1 X45.394 Y114.525 E.01314
G1 X45.394 Y95.475 E.5973
G1 X44.975 Y95.475 E.01314
M73 Q0 S249
G1 X44.975 Y114.525 E.5973
G1 X44.556 Y114.525 E.01314
G1 X44.556 Y95.475 E.5973
G1 X44.137 Y95.475 E.01314
G1 X44.137 Y114.525 E.5973
G1 X43.718 Y114.525 E.01314
G1 X43.718 Y95.475 E.5973
G1 X43.299 Y95.475 E.01314
G1 X43.299 Y114.525 E.5973
G1 X42.881 Y114.525 E.01311
G1 X42.881 Y95.475 E.5973
G1 X42.462 Y95.475 E.01314
G1 X42.462 Y114.525 E.5973
G1 X42.043 Y114.525 E.01314
G1 X42.043 Y95.475 E.5973
G1 X41.624 Y95.475 E.01314
G1 X41.624 Y114.525 E.5973
G1 X41.205 Y114.525 E.01314
G1 X41.205 Y95.475 E.5973
G1 X40.786 Y95.475 E.01314
G1 X40.786 Y114.525 E.5973
G1 X40.367 Y114.525 E.01314
G1 X40.367 Y95.475 E.5973
G1 X39.948 Y95.475 E.01314
G1 X39.948 Y114.525 E.5973
G1 X39.529 Y114.525 E.01314
G1 X39.529 Y95.475 E.5973
G1 X39.11 Y95.475 E.01314
G1 X39.11 Y114.525 E.5973
G1 X38.691 Y114.525 E.01314
G1 X38.691 Y95.475 E.5973
G1 X38.272 Y95.475 E.01314
G1 X38.272 Y114.525 E.5973
G1 X37.853 Y114.525 E.01314
G1 X37.853 Y95.475 E.5973
G1 X37.434 Y95.475 E.01314
G1 X37.434 Y114.525 E.5973
G1 X37.015 Y114.525 E.01314
G1 X37.015 Y95.475 E.5973
G1 X36.596 Y95.475 E.01314
G1 X36.596 Y114.525 E.5973
G1 X36.177 Y114.525 E.01314
G1 X36.177 Y95.475 E.5973
G1 X35.758 Y95.475 E.01314
M73 P0 R239
G1 X35.758 Y114.525 E.5973
G1 X35.339 Y114.525 E.01314
G1 X35.339 Y95.475 E.5973
G1 X34.92 Y95.475 E.01314
G1 X34.92 Y114.525 E.5973
G1 X34.501 Y114.525 E.01314
G1 X34.501 Y95.475 E.5973
G1 X34.082 Y95.475 E.01314
G1 X34.082 Y114.525 E.5973
G1 X33.663 Y114.525 E.01314
G1 X33.663 Y95.475 E.5973
G1 X33.244 Y95.475 E.01314
G1 X33.244 Y114.525 E.5973
G1 X32.825 Y114.525 E.01314
G1 X32.825 Y95.475 E.5973
G1 X32.406 Y95.475 E.01314
G1 X32.406 Y114.525 E.5973
G1 X31.987 Y114.525 E.01314
G1 X31.987 Y95.475 E.5973
G1 X31.568 Y95.475 E.01314
G1 X31.568 Y114.525 E.5973
G1 X31.149 Y114.525 E.01314
G1 X31.149 Y95.475 E.5973
G1 X30.73 Y95.475 E.01314
G1 X30.73 Y114.525 E.5973
G1 X30.311 Y114.525 E.01314
G1 X30.311 Y95.475 E.5973
G1 X29.892 Y95.475 E.01314
G1 X29.892 Y114.525 E.5973
G1 X29.473 Y114.525 E.01314
G1 X29.473 Y95.475 E.5973
G1 X29.054 Y95.475 E.01314
G1 X29.054 Y114.525 E.5973
G1 X28.635 Y114.525 E.01314
G1 X28.635 Y95.475 E.5973
G1 X28.216 Y95.475 E.01314
G1 X28.216 Y114.525 E.5973
G1 X27.797 Y114.525 E.01314
G1 X27.797 Y95.475 E.5973
G1 X27.378 Y95.475 E.01314
G1 X27.378 Y114.525 E.5973
G1 X26.959 Y114.525 E.01314
G1 X26.959 Y95.475 E.5973
G1 X26.54 Y95.475 E.01314
G1 X26.54 Y114.525 E.5973
G1 X26.121 Y114.525 E.01314
G1 X26.121 Y95.475 E.5973
G1 X25.702 Y95.475 E.01314
G1 X25.702 Y114.525 E.5973
G1 X25.283 Y114.525 E.01314
G1 X25.283 Y95.475 E.5973
G1 X24.864 Y95.475 E.01314
G1 X24.864 Y114.525 E.5973
G1 X24.446 Y114.525 E.01311
G1 X24.446 Y95.475 E.5973
G1 X24.027 Y95.475 E.01314
G1 X24.027 Y114.525 E.5973
G1 X23.608 Y114.525 E.01314
G1 X23.608 Y95.305 E.60263
M204 S1000
;WIPE_START
G1 F8640
G1 X23.608 Y98.77 E-.8
;WIPE_END
G1 Z.6 F720
G1 X227.148 Y68.723 F10800
G1 Z.2 F720
G1 E.8 F2100
M204 S800
G1 F1200
G1 X223.98 Y68.723 E.09933
G1 X223.98 Y65.074 E.11441
G1 X223.699 Y64.793 E.01246
G1 X200.497 Y64.793 E.72748
G1 X200.497 Y60.529 E.13369
G1 X227.148 Y60.529 E.83562
G1 X227.148 Y68.667 E.25516
M204 S1000
G1 X226.392 Y68.553 F10800
M204 S800
G1 F1200
G1 X226.392 Y60.869 E.24093
G1 X225.973 Y60.869 E.01314
G1 X225.973 Y68.384 E.23563
G1 X225.554 Y68.384 E.01314
G1 X225.554 Y60.869 E.23563
G1 X225.136 Y60.869 E.01311
G1 X225.136 Y68.384 E.23563
G1 X224.717 Y68.384 E.01314
G1 X224.717 Y60.869 E.23563
G1 X224.298 Y60.869 E.01314
G1 X224.298 Y64.911 E.12673
G1 X223.879 Y64.492 E.01858
M73 Q0 S248
G1 X223.879 Y60.869 E.1136
G1 X223.46 Y60.869 E.01314
G1 X223.46 Y64.453 E.11237
G1 X223.041 Y64.453 E.01314
G1 X223.041 Y60.869 E.11237
G1 X222.622 Y60.869 E.01314
G1 X222.622 Y64.453 E.11237
G1 X222.203 Y64.453 E.01314
G1 X222.203 Y60.868 E.11241
G1 X221.784 Y60.868 E.01314
G1 X221.784 Y64.453 E.11241
G1 X221.365 Y64.453 E.01314
G1 X221.365 Y60.868 E.11241
G1 X220.946 Y60.868 E.01314
G1 X220.946 Y64.453 E.11241
G1 X220.527 Y64.453 E.01314
G1 X220.527 Y60.868 E.11241
G1 X220.108 Y60.869 E.01314
G1 X220.108 Y64.453 E.11237
G1 X219.689 Y64.453 E.01314
G1 X219.689 Y60.869 E.11237
G1 X219.27 Y60.869 E.01314
G1 X219.27 Y64.453 E.11237
G1 X218.851 Y64.453 E.01314
G1 X218.851 Y60.869 E.11237
G1 X218.432 Y60.869 E.01314
G1 X218.432 Y64.453 E.11237
G1 X218.013 Y64.453 E.01314
G1 X218.013 Y60.869 E.11237
G1 X217.594 Y60.869 E.01314
G1 X217.594 Y64.453 E.11237
G1 X217.175 Y64.453 E.01314
G1 X217.175 Y60.869 E.11237
G1 X216.756 Y60.869 E.01314
G1 X216.756 Y64.453 E.11237
G1 X216.337 Y64.453 E.01314
G1 X216.337 Y60.869 E.11237
G1 X215.918 Y60.869 E.01314
G1 X215.918 Y64.453 E.11237
G1 X215.499 Y64.453 E.01314
G1 X215.499 Y60.869 E.11237
G1 X215.08 Y60.869 E.01314
G1 X215.08 Y64.453 E.11237
G1 X214.661 Y64.453 E.01314
G1 X214.661 Y60.869 E.11237
G1 X214.242 Y60.869 E.01314
G1 X214.242 Y64.453 E.11237
G1 X213.823 Y64.453 E.01314
G1 X213.823 Y60.869 E.11237
G1 X213.404 Y60.869 E.01314
G1 X213.404 Y64.453 E.11237
G1 X212.985 Y64.453 E.01314
G1 X212.985 Y60.869 E.11237
G1 X212.566 Y60.869 E.01314
G1 X212.566 Y64.453 E.11237
G1 X212.147 Y64.453 E.01314
G1 X212.147 Y60.869 E.11237
G1 X211.728 Y60.869 E.01314
G1 X211.728 Y64.453 E.11237
G1 X211.309 Y64.453 E.01314
G1 X211.309 Y60.869 E.11237
G1 X210.89 Y60.869 E.01314
G1 X210.89 Y64.453 E.11237
G1 X210.471 Y64.453 E.01314
G1 X210.471 Y60.868 E.11241
G1 X210.052 Y60.868 E.01314
G1 X210.052 Y64.453 E.11241
G1 X209.633 Y64.453 E.01314
G1 X209.633 Y60.868 E.11241
G1 X209.214 Y60.868 E.01314
G1 X209.214 Y64.453 E.11241
G1 X208.795 Y64.453 E.01314
G1 X208.795 Y60.868 E.11241
G1 X208.376 Y60.868 E.01314
G1 X208.376 Y64.453 E.11241
G1 X207.957 Y64.453 E.01314
G1 X207.957 Y60.868 E.11241
G1 X207.538 Y60.868 E.01314
G1 X207.538 Y64.453 E.11241
G1 X207.119 Y64.453 E.01314
G1 X207.119 Y60.869 E.11237
G1 X206.701 Y60.869 E.01311
G1 X206.701 Y64.453 E.11237
G1 X206.282 Y64.453 E.01314
G1 X206.282 Y60.869 E.11237
G1 X205.863 Y60.869 E.01314
G1 X205.863 Y64.453 E.11237
G1 X205.444 Y64.453 E.01314
G1 X205.444 Y60.869 E.11237
G1 X205.025 Y60.869 E.01314
G1 X205.025 Y64.453 E.11237
G1 X204.606 Y64.453 E.01314
G1 X204.606 Y60.869 E.11237
G1 X204.187 Y60.869 E.01314
G1 X204.187 Y64.453 E.11237
G1 X203.768 Y64.453 E.01314
G1 X203.768 Y60.869 E.11237
G1 X203.349 Y60.869 E.01314
G1 X203.349 Y64.453 E.11237
G1 X202.93 Y64.453 E.01314
G1 X202.93 Y60.869 E.11237
G1 X202.511 Y60.869 E.01314
G1 X202.511 Y64.453 E.11237
G1 X202.092 Y64.453 E.01314
G1 X202.092 Y60.869 E.11237
G1 X201.673 Y60.869 E.01314
G1 X201.673 Y64.453 E.11237
G1 X201.254 Y64.453 E.01314
G1 X201.254 Y60.699 E.1177
M204 S1000
;WIPE_START
G1 F8640
G1 X201.254 Y64.164 E-.8
;WIPE_END
G1 Z.6 F720
G1 X197.736 Y99.946 F10800
G1 Z.2 F720
G1 E.8 F2100
M204 S800
;TYPE:Perimeter
;WIDTH:0.419999
G1 F1200
G1 X197.713 Y100.036 E.00291
G1 X197.721 Y110.572 E.33035
G1 X197.835 Y110.829 E.00882
G1 X198.004 Y110.973 E.00696
G1 X198.279 Y111.045 E.00891
G1 X222.713 Y111.045 E.76611
G1 X222.713 Y144.455 E1.04755
G1 X173.813 Y144.455 E1.53322
G1 X173.721 Y144.406 E.00327
G1 X52.287 Y144.406 E3.80747
G1 X52.287 Y66.109 E2.45494
M73 P0 R238
G1 X173.739 Y66.109 E3.80804
G1 X173.831 Y66.06 E.00327
M73 P1 R238
G1 X222.713 Y66.06 E1.53266
G1 X222.713 Y99.47 E1.04755
G1 X198.279 Y99.47 E.76611
M73 Q1 S248
G1 X198.227 Y99.473 E.00163
G1 X197.969 Y99.563 E.00857
G1 X197.781 Y99.767 E.0087
G1 X197.75 Y99.888 E.00392
M204 S1000
G1 X198.09 Y100.033 F10800
M204 S800
;TYPE:External perimeter
G1 F1200
G1 X198.09 Y110.479 E.32753
G1 X198.131 Y110.596 E.00389
G1 X198.279 Y110.667 E.00515
G1 X223.09 Y110.667 E.77793
G1 X223.09 Y144.833 E1.07125
G1 X173.782 Y144.833 E1.54602
G1 X173.721 Y144.783 E.00247
G1 X51.91 Y144.783 E3.81929
G1 X51.91 Y65.732 E2.47858
G1 X173.721 Y65.732 E3.81929
G1 X173.787 Y65.683 E.00258
M73 Q1 S247
G1 X223.09 Y65.683 E1.54586
G1 X223.09 Y99.848 E1.07122
G1 X198.279 Y99.848 E.77793
G1 X198.163 Y99.887 E.00384
G1 X198.117 Y99.979 E.00323
M204 S1000
G1 X197.703 Y100.135 F10800
;WIPE_START
G1 F8640
G1 X198.108 Y103.444 E-.8
;WIPE_END
G1 Z.6 F720
G1 X186.903 Y124.433 F10800
G1 Z.2 F720
G1 E.8 F2100
M204 S800
;TYPE:Perimeter
G1 F1200
G1 X186.719 Y123.717 E.02318
G1 X186.606 Y122.954 E.02418
G1 X186.571 Y122.3 E.02054
G1 X186.605 Y121.534 E.02404
G1 X186.697 Y120.881 E.02068
G1 X186.876 Y120.135 E.02405
G1 X187.133 Y119.409 E.02415
G1 X187.41 Y118.814 E.02058
G1 X187.8 Y118.15 E.02414
G1 X188.174 Y117.643 E.01975
G1 X188.696 Y117.041 E.02498
G1 X189.259 Y116.523 E.02399
G1 X189.786 Y116.125 E.02071
G1 X190.439 Y115.723 E.02404
G1 X191.137 Y115.388 E.02428
G1 X191.753 Y115.162 E.02057
G1 X192.494 Y114.968 E.02402
G1 X193.26 Y114.851 E.0243
G1 X193.91 Y114.814 E.02041
G1 X194.681 Y114.845 E.02419
G1 X195.443 Y114.955 E.02414
G1 X196.08 Y115.111 E.02056
G1 X196.582 Y115.285 E.01666
G1 X197.275 Y115.579 E.0236
G1 X198.066 Y116.025 E.02847
G1 X198.691 Y116.483 E.02429
G1 X199.178 Y116.916 E.02043
G1 X199.702 Y117.481 E.02416
G1 X200.167 Y118.101 E.0243
G1 X200.509 Y118.661 E.02057
G1 X200.843 Y119.35 E.02401
G1 X201.105 Y120.075 E.02417
G1 X201.27 Y120.714 E.02069
G1 X201.389 Y121.471 E.02403
G1 X201.427 Y122.206 E.02308
G1 X201.4 Y122.9 E.02178
G1 X201.292 Y123.659 E.02404
G1 X201.106 Y124.407 E.02417
G1 X200.886 Y125.029 E.02069
G1 X200.563 Y125.724 E.02403
G1 X200.166 Y126.385 E.02418
G1 X199.777 Y126.913 E.02056
G1 X199.262 Y127.486 E.02416
G1 X198.691 Y128.003 E.02415
G1 X198.165 Y128.394 E.02055
G1 X197.509 Y128.79 E.02403
G1 X196.914 Y129.076 E.0207
G1 X196.194 Y129.34 E.02404
G1 X195.447 Y129.529 E.02416
G1 X194.799 Y129.628 E.02055
G1 X194.03 Y129.671 E.02415
G1 X193.26 Y129.634 E.02417
G1 X192.606 Y129.539 E.02072
G1 X191.862 Y129.357 E.02402
G1 X191.136 Y129.097 E.02418
G1 X190.539 Y128.816 E.02069
G1 X189.88 Y128.424 E.02404
G1 X189.262 Y127.964 E.02416
G1 X188.776 Y127.524 E.02056
G1 X188.26 Y126.958 E.02401
G1 X187.866 Y126.434 E.02056
G1 X187.451 Y125.75 E.02508
G1 X187.163 Y125.14 E.02115
G1 X186.921 Y124.49 E.02175
M204 S1000
G1 X187.3 Y124.428 F10800
M204 S800
;TYPE:External perimeter
G1 F1200
G1 X187.085 Y123.624 E.02609
G1 X186.979 Y122.9 E.02294
G1 X186.948 Y122.281 E.01943
G1 X186.982 Y121.552 E.02288
G1 X187.07 Y120.935 E.01954
G1 X187.243 Y120.225 E.02291
G1 X187.488 Y119.536 E.02293
G1 X187.751 Y118.974 E.01946
G1 X188.125 Y118.342 E.02303
G1 X188.476 Y117.868 E.01849
G1 X188.975 Y117.294 E.02385
G1 X189.514 Y116.802 E.02288
G1 X190.012 Y116.426 E.01957
G1 X190.635 Y116.045 E.0229
G1 X191.299 Y115.728 E.02307
G1 X191.882 Y115.516 E.01945
G1 X192.588 Y115.333 E.02287
G1 X193.316 Y115.224 E.02308
G1 X193.93 Y115.191 E.01928
G1 X194.664 Y115.222 E.02303
G1 X195.388 Y115.328 E.02294
G1 X195.99 Y115.477 E.01944
G1 X196.682 Y115.721 E.02301
G1 X197.245 Y115.981 E.01944
G1 X197.875 Y116.35 E.02289
G1 X198.468 Y116.786 E.02308
G1 X198.926 Y117.196 E.01927
G1 X199.424 Y117.736 E.02303
G1 X199.864 Y118.326 E.02308
G1 X200.186 Y118.856 E.01944
G1 X200.503 Y119.513 E.02287
G1 X200.75 Y120.202 E.02295
G1 X200.904 Y120.807 E.01957
G1 X201.016 Y121.528 E.02288
G1 X201.05 Y122.224 E.02185
G1 X201.023 Y122.882 E.02065
G1 X200.919 Y123.605 E.0229
G1 X200.741 Y124.314 E.02292
G1 X200.531 Y124.902 E.01958
G1 X200.221 Y125.563 E.02289
G1 X199.844 Y126.19 E.02294
G1 X199.475 Y126.688 E.01943
G1 X198.983 Y127.233 E.02302
G1 X198.439 Y127.722 E.02293
G1 X197.941 Y128.091 E.01943
G1 X197.315 Y128.467 E.0229
G1 X196.752 Y128.736 E.01956
G1 X196.066 Y128.985 E.02288
G1 X195.356 Y129.163 E.02295
G1 X194.743 Y129.255 E.01944
G1 X194.01 Y129.295 E.02302
G1 X193.279 Y129.258 E.02295
G1 X192.662 Y129.166 E.01956
G1 X191.953 Y128.991 E.0229
G1 X191.265 Y128.743 E.02293
G1 X190.701 Y128.475 E.01958
G1 X190.074 Y128.101 E.02289
G1 X189.489 Y127.663 E.02291
G1 X189.03 Y127.246 E.01944
G1 X188.54 Y126.705 E.02289
G1 X188.169 Y126.209 E.01942
G1 X187.783 Y125.572 E.02335
G1 X187.504 Y124.98 E.02052
G1 X187.321 Y124.484 E.01658
M204 S1000
G1 X186.909 Y124.342 F10800
;WIPE_START
G1 F8640
G1 X187.085 Y123.624 E-.20592
G1 X186.979 Y122.9 E-.16896
G1 X186.948 Y122.281 E-.14311
G1 X186.982 Y121.552 E-.16851
G1 X187.051 Y121.065 E-.1135
;WIPE_END
G1 Z.6 F720
G1 X156.469 Y117.576 F10800
G1 Z.2 F720
G1 E.8 F2100
M204 S800
;TYPE:Perimeter
G1 F1200
G1 X157.047 Y117.616 E.01817
G1 X157.657 Y117.779 E.0198
G1 X158.224 Y118.056 E.01979
G1 X158.765 Y118.47 E.02136
G1 X159.185 Y118.95 E.02
G1 X159.502 Y119.496 E.0198
G1 X159.721 Y120.145 E.02148
G1 X159.801 Y120.775 E.01991
G1 X159.75 Y121.457 E.02144
G1 X159.578 Y122.069 E.01993
G1 X159.294 Y122.633 E.0198
G1 X158.908 Y123.133 E.01981
G1 X158.434 Y123.549 E.01977
G1 X157.889 Y123.868 E.0198
G1 X157.242 Y124.09 E.02145
