; generated by PrusaSlicer 2.6.0+win64 on 2024-01-07 at 20:48:45 UTC


;
;
; 

; external perimeters extrusion width = 0.45mm
; perimeters extrusion width = 0.45mm
; infill extrusion width = 0.45mm
; solid infill extrusion width = 0.45mm
; top infill extrusion width = 0.40mm
; support material extrusion width = 0.35mm
; first layer extrusion width = 0.42mm

M73 P0 R344
M73 Q0 S360
M201 X1000 Y1000 Z200 E5000 ; sets maximum accelerations, mm/sec^2
M203 X200 Y200 Z12 E120 ; sets maximum feedrates, mm / sec
M204 S1250 T1250 ; sets acceleration (S) and retract acceleration (R), mm/sec^2
M205 X8.00 Y8.00 Z0.40 E4.50 ; sets the jerk limits, mm/sec
M205 S0 T0 ; sets the minimum extruding and travel feed rate, mm/sec
;TYPE:Custom
M862.3 P "MK3S" ; printer model check
M862.1 P0.4 ; nozzle diameter check
M115 U3.12.2 ; tell printer latest fw version
G90 ; use absolute coordinates
M83 ; extruder relative mode
M104 S215 ; set extruder temp
M140 S60 ; set bed temp
M190 S60 ; wait for bed temp
M109 S215 ; wait for extruder temp
G28 W ; home all without mesh bed level
G80 ; mesh bed leveling

G1 Z0.2 F720
G1 Y-3 F1000 ; go outside print area
G92 E0
G1 X60 E9 F1000 ; intro line
G1 X100 E12.5 F1000 ; intro line

G92 E0
M221 S95

; Don't change E values below. Excessive value can damage the printer.

M907 E538 ; set extruder motor current
G21 ; set units to millimeters
G90 ; use absolute coordinates
M83 ; use relative distances for extrusion
M900 K0.05 ; Filament gcode LA 1.5
M900 K30 ; Filament gcode LA 1.0
M107
;LAYER_CHANGE
;Z:0.2
;HEIGHT:0.2
;BEFORE_LAYER_CHANGE
G92 E0.0
;0.2


G1 E-.8 F2100
G1 Z.4 F720
;AFTER_LAYER_CHANGE
;0.2
G1 X10.539 Y5.157 F10800
G1 Z.2 F720
G1 E.8 F2100
M204 S800
;TYPE:Skirt/Brim
;WIDTH:0.42
G1 F1200
G1 X11.6 Y4.3 E.04276
G1 X12.5 Y4.123 E.02876
G1 X237.5 Y4.123 E7.05472
G1 X238.807 Y4.515 E.04278
M73 P0 R343
G1 X239.683 Y5.56 E.04275
G1 X239.877 Y6.5 E.03009
G1 X239.877 Y200.5 E6.08273
G1 X239.485 Y201.807 E.04278
G1 X237.778 Y202.861 E.0629
G1 X181.006 Y209.525 E1.79227
G1 X9.01 Y209.525 E5.39281
G1 X7.703 Y209.133 E.04278
G1 X6.826 Y208.088 E.04277
G1 X6.633 Y207.148 E.03009
G1 X6.633 Y196.603 E.33063
G1 X10.123 Y6.456 E5.96293
M73 Q0 S359
G1 X10.521 Y5.214 E.04089
M204 S1000
; printing object 1_cover_octagon.stl id:0 copy 0
;WIPE_START
G1 F8640
G1 X11.6 Y4.3 E-.32652
G1 X12.5 Y4.123 E-.21179
G1 X13.633 Y4.123 E-.26169
;WIPE_END
G1 Z.6 F720
G1 X52.527 Y26.83 F10800
G1 Z.2 F720
G1 E.8 F2100
M204 S800
;TYPE:Support material
G1 F1200
G1 X52.94 Y26.875 E.01303
G1 X53.338 Y26.998 E.01306
G1 X53.703 Y27.194 E.01299
G1 X54.05 Y27.482 E.01414
G1 X54.311 Y27.804 E.013
G1 X54.506 Y28.172 E.01306
G1 X54.634 Y28.605 E.01416
G1 X54.67 Y29.019 E.01303
G1 X54.619 Y29.468 E.01417
G1 X54.491 Y29.863 E.01302
G1 X54.291 Y30.225 E.01297
G1 X54.024 Y30.544 E.01304
G1 X53.703 Y30.806 E.01299
G1 X53.336 Y31.002 E.01305
G1 X52.904 Y31.132 E.01415
G1 X52.492 Y31.17 E.01297
G1 X52.078 Y31.129 E.01304
G1 X51.681 Y31.01 E.01299
G1 X51.314 Y30.817 E.013
G1 X50.963 Y30.532 E.01418
G1 X50.7 Y30.211 E.01301
G1 X50.501 Y29.845 E.01306
G1 X50.37 Y29.413 E.01415
G1 X50.33 Y29.001 E.01298
G1 X50.37 Y28.587 E.01304
G1 X50.488 Y28.188 E.01305
G1 X50.679 Y27.82 E.013
G1 X50.962 Y27.469 E.01414
G1 X51.281 Y27.205 E.01298
G1 X51.645 Y27.006 E.01301
G1 X52.041 Y26.879 E.01304
G1 X52.471 Y26.83 E.01357
M204 S1000
G1 X54.193 Y30.065 F10800
M204 S800
G1 F1200
G1 X54.193 Y28.303 E.05525
G1 X54.01 Y27.965 E.01205
G1 X53.774 Y27.685 E.01148
G1 X53.774 Y30.315 E.08246
G1 X53.566 Y30.488 E.00848
G1 X53.355 Y30.619 E.00779
G1 X53.355 Y27.381 E.10153
G1 X53.148 Y27.288 E.00712
G1 X52.936 Y27.222 E.00696
G1 X52.936 Y30.778 E.1115
G1 X52.517 Y30.83 E.01324
G1 X52.517 Y27.17 E.11476
G1 X52.098 Y27.214 E.01321
G1 X52.098 Y30.786 E.112
G1 X51.899 Y30.729 E.00649
G1 X51.679 Y30.636 E.00749
G1 X51.679 Y27.364 E.10259
G1 X51.471 Y27.486 E.00756
G1 X51.26 Y27.653 E.00844
G1 X51.26 Y30.347 E.08447
G1 X51.018 Y30.074 E.01144
G1 X50.841 Y29.774 E.01092
G1 X50.841 Y27.882 E.05932
M204 S1000
;WIPE_START
G1 F8640
G1 X50.841 Y29.774 E-.43687
G1 X51.018 Y30.074 E-.08043
G1 X51.26 Y30.347 E-.08424
G1 X51.26 Y29.488 E-.19846
;WIPE_END
G1 Z.6 F720
G1 X28.023 Y73.08 F10800
G1 Z.2 F720
G1 E.8 F2100
M204 S800
G1 F1200
G1 X28.389 Y73.12 E.01154
G1 X28.74 Y73.228 E.01151
G1 X29.065 Y73.402 E.01156
G1 X29.372 Y73.657 E.01251
G1 X29.602 Y73.942 E.01148
G1 X29.775 Y74.267 E.01154
G1 X29.888 Y74.65 E.01252
G1 X29.92 Y75.017 E.01155
G1 X29.875 Y75.415 E.01256
G1 X29.761 Y75.764 E.01151
G1 X29.584 Y76.084 E.01147
G1 X29.349 Y76.366 E.01151
G1 X29.064 Y76.598 E.01152
G1 X28.71 Y76.784 E.01254
G1 X28.357 Y76.886 E.01152
G1 X27.991 Y76.92 E.01153
G1 X27.594 Y76.876 E.01252
G1 X27.244 Y76.765 E.01151
G1 X26.922 Y76.589 E.01151
G1 X26.64 Y76.355 E.01149
G1 X26.406 Y76.071 E.01154
G1 X26.232 Y75.748 E.0115
G1 X26.122 Y75.399 E.01147
G1 X26.08 Y75.001 E.01255
G1 X26.115 Y74.634 E.01156
G1 X26.219 Y74.283 E.01148
G1 X26.388 Y73.956 E.01154
G1 X26.639 Y73.646 E.01251
G1 X26.921 Y73.412 E.01149
G1 X27.243 Y73.235 E.01152
G1 X27.594 Y73.123 E.01155
G1 X27.967 Y73.08 E.01177
M204 S1000
G1 X29.473 Y75.945 F10800
M204 S800
G1 F1200
G1 X29.473 Y74.428 E.04756
G1 X29.305 Y74.108 E.01133
G1 X29.054 Y73.822 E.01193
G1 X29.054 Y76.178 E.07387
G1 X28.854 Y76.33 E.00788
G1 X28.635 Y76.447 E.00779
G1 X28.635 Y73.553 E.09074
G1 X28.428 Y73.478 E.0069
G1 X28.216 Y73.434 E.00679
G1 X28.216 Y76.566 E.0982
G1 X27.993 Y76.581 E.00701
G1 X27.797 Y76.568 E.00616
G1 X27.797 Y73.432 E.09833
G1 X27.586 Y73.475 E.00675
G1 X27.378 Y73.547 E.0069
G1 X27.378 Y76.453 E.09112
G1 X27.159 Y76.339 E.00774
G1 X26.959 Y76.19 E.00782
G1 X26.959 Y73.81 E.07462
G1 X26.719 Y74.073 E.01116
G1 X26.54 Y74.394 E.01152
G1 X26.54 Y75.966 E.04929
M204 S1000
;WIPE_START
G1 F8640
G1 X26.54 Y74.394 E-.36298
G1 X26.719 Y74.073 E-.08486
G1 X26.959 Y73.81 E-.08221
G1 X26.959 Y74.979 E-.26995
;WIPE_END
G1 Z.6 F720
G1 X28.024 Y104.08 F10800
G1 Z.2 F720
G1 E.8 F2100
M204 S800
G1 F1200
G1 X28.39 Y104.12 E.01154
G1 X28.741 Y104.229 E.01152
G1 X29.091 Y104.42 E.0125
G1 X29.373 Y104.657 E.01155
G1 X29.621 Y104.971 E.01255
G1 X29.787 Y105.298 E.0115
G1 X29.888 Y105.65 E.01148
G1 X29.92 Y106.016 E.01152
G1 X29.875 Y106.415 E.01259
G1 X29.762 Y106.764 E.0115
G1 X29.584 Y107.085 E.01151
G1 X29.349 Y107.367 E.01151
G1 X29.036 Y107.617 E.01256
G1 X28.71 Y107.784 E.01148
G1 X28.357 Y107.887 E.01153
G1 X27.991 Y107.92 E.01152
G1 X27.594 Y107.877 E.01252
G1 X27.244 Y107.765 E.01152
G1 X26.922 Y107.589 E.01151
G1 X26.639 Y107.355 E.01151
G1 X26.407 Y107.072 E.01147
G1 X26.232 Y106.748 E.01155
G1 X26.122 Y106.398 E.0115
G1 X26.08 Y106.001 E.01252
G1 X26.115 Y105.636 E.0115
G1 X26.219 Y105.283 E.01154
G1 X26.406 Y104.929 E.01255
G1 X26.64 Y104.645 E.01154
G1 X26.921 Y104.412 E.01145
G1 X27.245 Y104.235 E.01158
G1 X27.594 Y104.123 E.01149
G1 X27.967 Y104.08 E.01177
M204 S1000
G1 X29.473 Y106.945 F10800
M204 S800
G1 F1200
G1 X29.473 Y105.427 E.0476
G1 X29.303 Y105.106 E.01139
G1 X29.054 Y104.822 E.01184
G1 X29.054 Y107.178 E.07387
G1 X28.853 Y107.331 E.00792
G1 X28.635 Y107.447 E.00774
G1 X28.635 Y104.553 E.09074
G1 X28.427 Y104.478 E.00693
G1 X28.216 Y104.434 E.00676
G1 X28.216 Y107.566 E.0982
G1 X28.021 Y107.58 E.00613
G1 X27.797 Y107.568 E.00703
G1 X27.797 Y104.432 E.09833
G1 X27.585 Y104.475 E.00678
G1 X27.378 Y104.547 E.00687
G1 X27.378 Y107.453 E.09112
G1 X27.159 Y107.338 E.00776
G1 X26.959 Y107.19 E.0078
G1 X26.959 Y104.81 E.07462
G1 X26.72 Y105.073 E.01114
G1 X26.54 Y105.394 E.01154
G1 X26.54 Y106.966 E.04929
M204 S1000
;WIPE_START
G1 F8640
G1 X26.54 Y105.394 E-.36298
G1 X26.72 Y105.073 E-.08498
G1 X26.959 Y104.81 E-.08206
G1 X26.959 Y105.979 E-.26998
;WIPE_END
G1 Z.6 F720
G1 X52.527 Y149.83 F10800
G1 Z.2 F720
G1 E.8 F2100
M204 S800
G1 F1200
G1 X52.94 Y149.875 E.01303
G1 X53.371 Y150.012 E.01418
G1 X53.733 Y150.214 E.013
G1 X54.051 Y150.482 E.01304
G1 X54.332 Y150.837 E.0142
G1 X54.519 Y151.206 E.01297
G1 X54.634 Y151.605 E.01302
G1 X54.67 Y152.019 E.01303
G1 X54.619 Y152.468 E.01417
G1 X54.491 Y152.863 E.01302
G1 X54.291 Y153.225 E.01297
G1 X54.025 Y153.544 E.01302
G1 X53.703 Y153.806 E.01302
G1 X53.336 Y154.002 E.01305
G1 X52.94 Y154.125 E.013
G1 X52.492 Y154.17 E.01412
G1 X52.078 Y154.129 E.01304
G1 X51.681 Y154.01 E.01299
G1 X51.314 Y153.817 E.013
G1 X50.963 Y153.532 E.01418
G1 X50.7 Y153.211 E.01301
G1 X50.501 Y152.845 E.01306
G1 X50.37 Y152.413 E.01415
G1 X50.33 Y152.001 E.01298
G1 X50.37 Y151.587 E.01304
G1 X50.487 Y151.189 E.01301
G1 X50.679 Y150.82 E.01304
G1 X50.962 Y150.47 E.01411
G1 X51.281 Y150.205 E.013
G1 X51.645 Y150.006 E.01301
G1 X52.041 Y149.879 E.01304
G1 X52.471 Y149.83 E.01357
M204 S1000
G1 X54.193 Y153.065 F10800
M204 S800
G1 F1200
G1 X54.193 Y151.303 E.05525
G1 X54.01 Y150.965 E.01205
G1 X53.774 Y150.685 E.01148
G1 X53.774 Y153.315 E.08246
G1 X53.568 Y153.487 E.00841
G1 X53.355 Y153.619 E.00786
G1 X53.355 Y150.381 E.10153
G1 X53.146 Y150.287 E.00719
G1 X52.936 Y150.222 E.00689
G1 X52.936 Y153.778 E.1115
G1 X52.517 Y153.83 E.01324
G1 X52.517 Y150.17 E.11476
G1 X52.098 Y150.214 E.01321
G1 X52.098 Y153.786 E.112
G1 X51.899 Y153.729 E.00649
G1 X51.679 Y153.636 E.00749
G1 X51.679 Y150.364 E.10259
G1 X51.471 Y150.486 E.00756
G1 X51.26 Y150.653 E.00844
G1 X51.26 Y153.347 E.08447
G1 X51.018 Y153.074 E.01144
G1 X50.841 Y152.774 E.01092
G1 X50.841 Y150.882 E.05932
M204 S1000
;WIPE_START
G1 F8640
G1 X50.841 Y152.774 E-.43687
G1 X51.018 Y153.074 E-.08043
G1 X51.26 Y153.347 E-.08424
G1 X51.26 Y152.488 E-.19846
;WIPE_END
G1 Z.6 F720
G1 X82.504 Y196.648 F10800
G1 Z.2 F720
G1 E.8 F2100
M204 S800
G1 F1200
G1 X82.702 Y197.218 E.01892
G1 X82.982 Y197.885 E.02268
G1 X83.305 Y198.528 E.02256
G1 X83.674 Y199.15 E.02268
G1 X84.085 Y199.746 E.0227
G1 X84.538 Y200.315 E.0228
G1 X85.081 Y200.904 E.02512
G1 X85.261 Y200.98 E.00613
G1 X181.006 Y200.98 E3.00202
G1 X181.006 Y207.148 E.19339
G1 X82.836 Y207.148 E3.07805
G1 X82.836 Y204.841 E.07233
G1 X80.529 Y204.841 E.07233
G1 X80.529 Y196.647 E.25692
G1 X82.448 Y196.648 E.06017
M204 S1000
;WIPE_START
G1 F8640
G1 X80.529 Y196.647 E-.4431
G1 X80.529 Y198.193 E-.3569
;WIPE_END
G1 Z.6 F720
G1 X180.305 Y206.978 F10800
G1 Z.2 F720
G1 E.8 F2100
M204 S800
G1 F1200
G1 X180.305 Y201.319 E.17743
G1 X179.886 Y201.319 E.01314
G1 X179.886 Y206.809 E.17214
G1 X179.467 Y206.809 E.01314
G1 X179.467 Y201.319 E.17214
G1 X179.048 Y201.319 E.01314
G1 X179.048 Y206.809 E.17214
G1 X178.629 Y206.809 E.01314
M73 P0 R342
G1 X178.629 Y201.319 E.17214
G1 X178.21 Y201.319 E.01314
G1 X178.21 Y206.809 E.17214
G1 X177.791 Y206.809 E.01314
G1 X177.791 Y201.319 E.17214
G1 X177.372 Y201.319 E.01314
G1 X177.372 Y206.809 E.17214
G1 X176.953 Y206.809 E.01314
G1 X176.953 Y201.319 E.17214
G1 X176.534 Y201.319 E.01314
G1 X176.534 Y206.809 E.17214
G1 X176.115 Y206.809 E.01314
G1 X176.115 Y201.319 E.17214
G1 X175.696 Y201.319 E.01314
G1 X175.696 Y206.809 E.17214
G1 X175.277 Y206.809 E.01314
G1 X175.277 Y201.319 E.17214
G1 X174.858 Y201.319 E.01314
G1 X174.858 Y206.809 E.17214
G1 X174.439 Y206.809 E.01314
G1 X174.439 Y201.319 E.17214
G1 X174.02 Y201.319 E.01314
G1 X174.02 Y206.809 E.17214
G1 X173.601 Y206.809 E.01314
G1 X173.601 Y201.319 E.17214
G1 X173.182 Y201.319 E.01314
G1 X173.182 Y206.809 E.17214
G1 X172.763 Y206.809 E.01314
G1 X172.763 Y201.319 E.17214
G1 X172.344 Y201.319 E.01314
G1 X172.344 Y206.809 E.17214
G1 X171.925 Y206.809 E.01314
G1 X171.925 Y201.319 E.17214
G1 X171.506 Y201.319 E.01314
G1 X171.506 Y206.809 E.17214
G1 X171.087 Y206.809 E.01314
G1 X171.087 Y201.319 E.17214
G1 X170.668 Y201.319 E.01314
G1 X170.668 Y206.809 E.17214
G1 X170.25 Y206.809 E.01311
G1 X170.25 Y201.319 E.17214
G1 X169.831 Y201.319 E.01314
G1 X169.831 Y206.809 E.17214
G1 X169.412 Y206.809 E.01314
G1 X169.412 Y201.319 E.17214
G1 X168.993 Y201.319 E.01314
G1 X168.993 Y206.809 E.17214
G1 X168.574 Y206.809 E.01314
G1 X168.574 Y201.319 E.17214
G1 X168.155 Y201.319 E.01314
G1 X168.155 Y206.809 E.17214
G1 X167.736 Y206.809 E.01314
G1 X167.736 Y201.319 E.17214
G1 X167.317 Y201.319 E.01314
G1 X167.317 Y206.809 E.17214
G1 X166.898 Y206.809 E.01314
G1 X166.898 Y201.319 E.17214
G1 X166.479 Y201.319 E.01314
G1 X166.479 Y206.809 E.17214
G1 X166.06 Y206.809 E.01314
G1 X166.06 Y201.319 E.17214
G1 X165.641 Y201.319 E.01314
G1 X165.641 Y206.809 E.17214
G1 X165.222 Y206.809 E.01314
G1 X165.222 Y201.319 E.17214
G1 X164.803 Y201.319 E.01314
G1 X164.803 Y206.809 E.17214
G1 X164.384 Y206.809 E.01314
G1 X164.384 Y201.319 E.17214
G1 X163.965 Y201.319 E.01314
G1 X163.965 Y206.809 E.17214
G1 X163.546 Y206.809 E.01314
G1 X163.546 Y201.319 E.17214
G1 X163.127 Y201.319 E.01314
G1 X163.127 Y206.809 E.17214
G1 X162.708 Y206.809 E.01314
G1 X162.708 Y201.319 E.17214
G1 X162.289 Y201.319 E.01314
G1 X162.289 Y206.809 E.17214
G1 X161.87 Y206.809 E.01314
G1 X161.87 Y201.319 E.17214
G1 X161.451 Y201.319 E.01314
G1 X161.451 Y206.809 E.17214
G1 X161.032 Y206.809 E.01314
G1 X161.032 Y201.319 E.17214
G1 X160.613 Y201.319 E.01314
G1 X160.613 Y206.809 E.17214
G1 X160.194 Y206.809 E.01314
G1 X160.194 Y201.319 E.17214
G1 X159.775 Y201.319 E.01314
G1 X159.775 Y206.809 E.17214
G1 X159.356 Y206.809 E.01314
G1 X159.356 Y201.319 E.17214
G1 X158.937 Y201.319 E.01314
G1 X158.937 Y206.809 E.17214
G1 X158.518 Y206.809 E.01314
G1 X158.518 Y201.319 E.17214
G1 X158.099 Y201.319 E.01314
G1 X158.099 Y206.809 E.17214
G1 X157.68 Y206.809 E.01314
G1 X157.68 Y201.319 E.17214
G1 X157.261 Y201.319 E.01314
G1 X157.261 Y206.809 E.17214
G1 X156.842 Y206.809 E.01314
G1 X156.842 Y201.319 E.17214
G1 X156.423 Y201.319 E.01314
G1 X156.423 Y206.809 E.17214
G1 X156.004 Y206.809 E.01314
G1 X156.004 Y201.319 E.17214
G1 X155.585 Y201.319 E.01314
G1 X155.585 Y206.809 E.17214
G1 X155.166 Y206.809 E.01314
G1 X155.166 Y201.319 E.17214
G1 X154.747 Y201.319 E.01314
G1 X154.747 Y206.809 E.17214
G1 X154.328 Y206.809 E.01314
G1 X154.328 Y201.319 E.17214
G1 X153.909 Y201.319 E.01314
G1 X153.909 Y206.809 E.17214
G1 X153.49 Y206.809 E.01314
G1 X153.49 Y201.319 E.17214
G1 X153.071 Y201.319 E.01314
G1 X153.071 Y206.809 E.17214
G1 X152.652 Y206.809 E.01314
G1 X152.652 Y201.319 E.17214
G1 X152.233 Y201.319 E.01314
G1 X152.233 Y206.809 E.17214
G1 X151.815 Y206.809 E.01311
G1 X151.815 Y201.319 E.17214
G1 X151.396 Y201.319 E.01314
G1 X151.396 Y206.809 E.17214
G1 X150.977 Y206.809 E.01314
G1 X150.977 Y201.319 E.17214
G1 X150.558 Y201.319 E.01314
G1 X150.558 Y206.809 E.17214
G1 X150.139 Y206.809 E.01314
G1 X150.139 Y201.319 E.17214
G1 X149.72 Y201.319 E.01314
G1 X149.72 Y206.809 E.17214
G1 X149.301 Y206.809 E.01314
G1 X149.301 Y201.319 E.17214
G1 X148.882 Y201.319 E.01314
G1 X148.882 Y206.809 E.17214
G1 X148.463 Y206.809 E.01314
G1 X148.463 Y201.319 E.17214
G1 X148.044 Y201.319 E.01314
G1 X148.044 Y206.809 E.17214
G1 X147.625 Y206.809 E.01314
G1 X147.625 Y201.319 E.17214
G1 X147.206 Y201.319 E.01314
M73 Q0 S358
G1 X147.206 Y206.809 E.17214
G1 X146.787 Y206.809 E.01314
G1 X146.787 Y201.319 E.17214
G1 X146.368 Y201.319 E.01314
G1 X146.368 Y206.809 E.17214
G1 X145.949 Y206.809 E.01314
G1 X145.949 Y201.319 E.17214
G1 X145.53 Y201.319 E.01314
G1 X145.53 Y206.809 E.17214
G1 X145.111 Y206.809 E.01314
G1 X145.111 Y201.319 E.17214
G1 X144.692 Y201.319 E.01314
G1 X144.692 Y206.809 E.17214
G1 X144.273 Y206.809 E.01314
G1 X144.273 Y201.319 E.17214
G1 X143.854 Y201.319 E.01314
G1 X143.854 Y206.809 E.17214
G1 X143.435 Y206.809 E.01314
G1 X143.435 Y201.319 E.17214
G1 X143.016 Y201.319 E.01314
G1 X143.016 Y206.809 E.17214
G1 X142.597 Y206.809 E.01314
G1 X142.597 Y201.319 E.17214
G1 X142.178 Y201.319 E.01314
G1 X142.178 Y206.809 E.17214
G1 X141.759 Y206.809 E.01314
G1 X141.759 Y201.319 E.17214
G1 X141.34 Y201.319 E.01314
G1 X141.34 Y206.809 E.17214
G1 X140.921 Y206.809 E.01314
G1 X140.921 Y201.319 E.17214
G1 X140.502 Y201.319 E.01314
G1 X140.502 Y206.809 E.17214
G1 X140.083 Y206.809 E.01314
G1 X140.083 Y201.319 E.17214
G1 X139.664 Y201.319 E.01314
G1 X139.664 Y206.809 E.17214
G1 X139.245 Y206.809 E.01314
G1 X139.245 Y201.319 E.17214
G1 X138.826 Y201.319 E.01314
G1 X138.826 Y206.809 E.17214
G1 X138.407 Y206.809 E.01314
G1 X138.407 Y201.319 E.17214
