; generated by PrusaSlicer 2.6.0+win64 on 2024-02-06 at 08:00:09 UTC


;
;
; 

; external perimeters extrusion width = 0.45mm
; perimeters extrusion width = 0.45mm
; infill extrusion width = 0.45mm
; solid infill extrusion width = 0.45mm
; top infill extrusion width = 0.40mm
; first layer extrusion width = 0.42mm

; external perimeters extrusion width = 0.45mm
; perimeters extrusion width = 0.45mm
; infill extrusion width = 0.45mm
; solid infill extrusion width = 0.45mm
; top infill extrusion width = 0.40mm
; first layer extrusion width = 0.42mm

M73 P0 R472
M73 Q0 S495
M201 X1000 Y1000 Z200 E5000 ; sets maximum accelerations, mm/sec^2
M203 X200 Y200 Z12 E120 ; sets maximum feedrates, mm / sec
M204 S1250 T1250 ; sets acceleration (S) and retract acceleration (R), mm/sec^2
M205 X8.00 Y8.00 Z0.40 E4.50 ; sets the jerk limits, mm/sec
M205 S0 T0 ; sets the minimum extruding and travel feed rate, mm/sec
;TYPE:Custom
M862.3 P "MK3S" ; printer model check
M862.1 P0.4 ; nozzle diameter check
M115 U3.12.2 ; tell printer latest fw version
G90 ; use absolute coordinates
M83 ; extruder relative mode
M104 S215 ; set extruder temp
M140 S60 ; set bed temp
M190 S60 ; wait for bed temp
M109 S215 ; wait for extruder temp
G28 W ; home all without mesh bed level
G80 ; mesh bed leveling

G1 Z0.2 F720
G1 Y-3 F1000 ; go outside print area
G92 E0
G1 X60 E9 F1000 ; intro line
G1 X100 E12.5 F1000 ; intro line

G92 E0
M221 S95

; Don't change E values below. Excessive value can damage the printer.

M907 E538 ; set extruder motor current
G21 ; set units to millimeters
G90 ; use absolute coordinates
M83 ; use relative distances for extrusion
M900 K0.05 ; Filament gcode LA 1.5
M900 K30 ; Filament gcode LA 1.0
M107
;LAYER_CHANGE
;Z:0.2
;HEIGHT:0.2
;BEFORE_LAYER_CHANGE
G92 E0.0
;0.2


G1 E-.8 F2100
G1 Z.4 F720
;AFTER_LAYER_CHANGE
;0.2
G1 X.684 Y.205 F10800
G1 Z.2 F720
G1 E.8 F2100
M204 S800
;TYPE:Skirt/Brim
;WIDTH:0.42
G1 F1200
G1 X1.013 Y-.893 E.03594
G1 X2.058 Y-1.77 E.04277
G1 X2.998 Y-1.963 E.03009
G1 X248.998 Y-1.963 E7.71316
G1 X250.305 Y-1.572 E.04277
M73 Q0 S494
G1 X251.182 Y-.526 E.0428
G1 X251.375 Y.414 E.03009
G1 X251.375 Y192.414 E6.02003
G1 X250.984 Y193.721 E.04277
M73 P0 R471
G1 X249.653 Y194.699 E.05179
G1 X189.644 Y211.91 E1.9574
G1 X188.989 Y212.002 E.02074
G1 X62.419 Y212.002 E3.96851
G1 X61.758 Y211.908 E.02093
G1 X2.337 Y194.697 E1.93968
G1 X1.19 Y193.957 E.0428
G1 X.621 Y192.414 E.05156
G1 X.621 Y.414 E6.02003
G1 X.666 Y.262 E.00497
M204 S1000
; printing object c2.3b_cover_octagon_right_side.stl id:0 copy 0
;WIPE_START
G1 F8640
G1 X1.013 Y-.893 E-.27847
G1 X2.058 Y-1.77 E-.31501
G1 X2.934 Y-1.95 E-.20652
;WIPE_END
G1 Z.6 F720
G1 X248.211 Y191.627 F10800
G1 Z.2 F720
G1 E.8 F2100
M204 S800
;TYPE:Perimeter
;WIDTH:0.419999
G1 F1200
G1 X3.785 Y191.627 E7.66379
G1 X3.785 Y1.201 E5.97066
G1 X248.211 Y1.201 E7.66379
M73 Q0 S493
G1 X248.211 Y191.567 E5.96878
M204 S1000
M73 P0 R470
G1 X248.588 Y192.004 F10800
M204 S800
;TYPE:External perimeter
G1 F1200
G1 X3.408 Y192.004 E7.68743
G1 X3.408 Y.824 E5.9943
G1 X248.588 Y.824 E7.68743
G1 X248.588 Y191.944 E5.99242
M204 S1000
G1 X248.198 Y191.916 F10800
;WIPE_START
M73 Q0 S492
G1 F8640
G1 X245.123 Y191.945 E-.8
;WIPE_END
G1 Z.6 F720
G1 X212.185 Y24.802 F10800
G1 Z.2 F720
M73 P0 R469
G1 E.8 F2100
M204 S800
;TYPE:Perimeter
G1 F1200
G1 X212.703 Y24.504 E.01874
G1 X213.285 Y24.309 E.01925
G1 X213.888 Y24.23 E.01907
G1 X214.547 Y24.277 E.02071
G1 X215.138 Y24.439 E.01921
G1 X215.683 Y24.711 E.0191
G1 X216.166 Y25.081 E.01908
G1 X216.57 Y25.535 E.01905
G1 X216.885 Y26.075 E.0196
G1 X217.099 Y26.687 E.02033
G1 X217.181 Y27.29 E.01908
G1 X217.146 Y27.898 E.01909
G1 X216.996 Y28.488 E.01909
G1 X216.737 Y29.039 E.01909
G1 X216.344 Y29.568 E.02066
G1 X215.887 Y29.978 E.01925
G1 X215.365 Y30.29 E.01907
G1 X214.743 Y30.51 E.02069
G1 X214.136 Y30.596 E.01922
G1 X213.477 Y30.555 E.0207
G1 X212.884 Y30.398 E.01923
G1 X212.337 Y30.131 E.01908
G1 X211.851 Y29.766 E.01906
G1 X211.348 Y29.18 E.02421
G1 X211.103 Y28.742 E.01574
G1 X210.9 Y28.156 E.01944
G1 X210.817 Y27.565 E.01871
G1 X210.846 Y26.957 E.01909
G1 X211.008 Y26.318 E.02067
G1 X211.273 Y25.765 E.01923
G1 X211.672 Y25.239 E.0207
G1 X212.133 Y24.832 E.01928
M204 S1000
G1 X212.625 Y24.98 F10800
M204 S800
;TYPE:External perimeter
G1 F1200
G1 X212.886 Y24.834 E.00938
G1 X213.398 Y24.669 E.01687
G1 X213.931 Y24.605 E.01683
G1 X214.514 Y24.652 E.01834
G1 X215.031 Y24.801 E.01687
G1 X215.509 Y25.045 E.01683
G1 X215.932 Y25.376 E.01684
G1 X216.284 Y25.781 E.01682
G1 X216.555 Y26.259 E.01723
G1 X216.74 Y26.802 E.01799
G1 X216.806 Y27.334 E.01681
G1 X216.77 Y27.87 E.01684
G1 X216.633 Y28.389 E.01683
G1 X216.399 Y28.872 E.01683
G1 X216.045 Y29.337 E.01832
G1 X215.64 Y29.693 E.01691
G1 X215.177 Y29.964 E.01682
G1 X214.623 Y30.152 E.01834
G1 X214.09 Y30.221 E.01685
G1 X213.506 Y30.179 E.01836
G1 X212.988 Y30.035 E.01686
G1 X212.508 Y29.795 E.01683
G1 X212.082 Y29.468 E.01684
G1 X211.698 Y29.027 E.01833
G1 X211.433 Y28.559 E.01686
G1 X211.26 Y28.046 E.01697
G1 X211.191 Y27.517 E.01673
G1 X211.222 Y26.982 E.0168
G1 X211.372 Y26.417 E.01833
G1 X211.61 Y25.934 E.01688
G1 X211.968 Y25.472 E.01833
G1 X212.376 Y25.12 E.0169
G1 X212.573 Y25.01 E.00707
M204 S1000
G1 X212.616 Y24.682 F10800
;WIPE_START
G1 F8640
G1 X212.886 Y24.834 E-.08291
G1 X213.398 Y24.669 E-.12421
G1 X213.931 Y24.605 E-.12396
G1 X214.514 Y24.652 E-.13505
G1 X215.031 Y24.801 E-.12424
G1 X215.509 Y25.045 E-.12392
G1 X215.801 Y25.274 E-.08571
;WIPE_END
G1 Z.6 F720
G1 X126.535 Y66.062 F10800
G1 Z.2 F720
G1 E.8 F2100
M204 S800
;TYPE:Perimeter
G1 F1200
G1 X126.026 Y66.668 E.02481
G1 X125.28 Y67.161 E.02804
G1 X124.706 Y67.365 E.0191
G1 X123.844 Y67.442 E.02713
G1 X122.968 Y67.265 E.02802
G1 X122.485 Y67.039 E.01672
G1 X121.918 Y66.623 E.02205
G1 X121.379 Y65.941 E.02726
G1 X121.047 Y65.111 E.02803
G1 X120.963 Y64.402 E.02239
G1 X121.064 Y63.648 E.02385
G1 X121.415 Y62.826 E.02802
G1 X121.782 Y62.34 E.01909
G1 X122.459 Y61.801 E.02713
G1 X123.288 Y61.466 E.02803
G1 X124.178 Y61.387 E.02801
G1 X125.053 Y61.571 E.02803
G1 X125.601 Y61.836 E.01909
G1 X126.261 Y62.396 E.02714
G1 X126.751 Y63.144 E.02804
G1 X126.953 Y63.719 E.01911
G1 X127.004 Y64.256 E.01691
G1 X127.012 Y64.747 E.0154
G1 X126.845 Y65.456 E.02284
G1 X126.574 Y66.016 E.01951
M204 S1000
G1 X126.188 Y65.901 F10800
M204 S800
;TYPE:External perimeter
G1 F1200
G1 X125.742 Y66.42 E.02146
G1 X125.081 Y66.841 E.02457
G1 X124.59 Y67.006 E.01624
G1 X123.818 Y67.066 E.02428
G1 X123.052 Y66.898 E.02459
G1 X122.588 Y66.668 E.01624
G1 X122.152 Y66.328 E.01734
G1 X121.679 Y65.713 E.02433
G1 X121.401 Y64.981 E.02455
G1 X121.339 Y64.431 E.01735
G1 X121.438 Y63.698 E.02319
G1 X121.758 Y62.983 E.02456
G1 X122.077 Y62.575 E.01624
G1 X122.688 Y62.101 E.02425
G1 X123.42 Y61.819 E.0246
G1 X124.201 Y61.763 E.02455
G1 X124.965 Y61.938 E.02458
G1 X125.428 Y62.171 E.01625
G1 X126.012 Y62.679 E.02427
G1 X126.431 Y63.341 E.02456
G1 X126.593 Y63.833 E.01624
G1 X126.649 Y64.605 E.02427
G1 X126.478 Y65.37 E.02458
G1 X126.228 Y65.856 E.01714
M204 S1000
G1 X126.366 Y66.26 F10800
;WIPE_START
G1 F8640
G1 X125.742 Y66.42 E-.17191
G1 X125.081 Y66.841 E-.18096
G1 X124.59 Y67.006 E-.1196
G1 X123.818 Y67.066 E-.17879
G1 X123.189 Y66.928 E-.14874
;WIPE_END
G1 Z.6 F720
G1 X127.008 Y104.664 F10800
G1 Z.2 F720
G1 E.8 F2100
M204 S800
;TYPE:Perimeter
G1 F1200
G1 X126.845 Y105.456 E.02535
G1 X126.582 Y106.006 E.01912
G1 X126.232 Y106.468 E.01817
G1 X125.8 Y106.856 E.01821
G1 X125.036 Y107.262 E.02713
G1 X124.161 Y107.441 E.028
G1 X123.271 Y107.357 E.02803
G1 X122.444 Y107.017 E.02804
G1 X121.752 Y106.451 E.02803
G1 X121.256 Y105.708 E.02801
G1 X120.998 Y104.852 E.02803
G1 X120.971 Y104.195 E.02062
G1 X121.16 Y103.346 E.02727
G1 X121.428 Y102.799 E.0191
G1 X121.782 Y102.34 E.01817
G1 X122.217 Y101.956 E.01819
G1 X122.687 Y101.704 E.01672
G1 X123.143 Y101.505 E.0156
G1 X123.861 Y101.385 E.02282
G1 X124.345 Y101.401 E.01518
G1 X125.053 Y101.571 E.02283
G1 X125.601 Y101.837 E.0191
G1 X126.063 Y102.189 E.01821
G1 X126.448 Y102.622 E.01817
G1 X126.744 Y103.121 E.01819
G1 X126.951 Y103.714 E.01969
G1 X127.021 Y104.605 E.02802
M204 S1000
G1 X126.637 Y104.441 F10800
M204 S800
;TYPE:External perimeter
G1 F1200
G1 X126.649 Y104.605 E.00516
G1 X126.478 Y105.37 E.02458
G1 X126.247 Y105.833 E.01622
G1 X125.935 Y106.235 E.01596
G1 X125.553 Y106.571 E.01595
G1 X124.866 Y106.926 E.02425
G1 X124.095 Y107.07 E.02459
G1 X123.316 Y106.983 E.02458
G1 X122.597 Y106.673 E.02455
G1 X121.999 Y106.166 E.02458
G1 X121.575 Y105.507 E.02457
G1 X121.362 Y104.753 E.02457
G1 X121.348 Y104.191 E.01763
G1 X121.526 Y103.436 E.02432
G1 X121.762 Y102.974 E.01627
G1 X122.077 Y102.575 E.01594
G1 X122.462 Y102.243 E.01594
G1 X123.152 Y101.894 E.02424
G1 X123.924 Y101.756 E.02459
G1 X124.257 Y101.768 E.01045
G1 X124.965 Y101.938 E.02283
G1 X125.428 Y102.171 E.01625
G1 X125.828 Y102.484 E.01593
G1 X126.162 Y102.868 E.01596
G1 X126.416 Y103.307 E.0159
G1 X126.593 Y103.832 E.01737
G1 X126.633 Y104.382 E.01729
M204 S1000
G1 X126.788 Y104.507 F10800
;WIPE_START
G1 F8640
G1 X126.649 Y104.605 E-.05162
G1 X126.478 Y105.37 E-.181
G1 X126.247 Y105.833 E-.11948
G1 X125.935 Y106.235 E-.1175
G1 X125.553 Y106.571 E-.11747
G1 X124.866 Y106.926 E-.17856
G1 X124.72 Y106.953 E-.03437
;WIPE_END
G1 Z.6 F720
G1 X216.601 Y139.586 F10800
G1 Z.2 F720
G1 E.8 F2100
M204 S800
;TYPE:Perimeter
G1 F1200
G1 X216.881 Y140.06 E.01726
G1 X217.086 Y140.633 E.01908
G1 X217.18 Y141.285 E.02065
G1 X217.138 Y141.948 E.02083
G1 X216.977 Y142.54 E.01924
G1 X216.681 Y143.129 E.02067
G1 X216.303 Y143.612 E.01923
G1 X215.843 Y144.01 E.01907
G1 X215.268 Y144.334 E.02069
G1 X214.684 Y144.524 E.01926
G1 X214.08 Y144.598 E.01908
G1 X213.473 Y144.555 E.01908
G1 X212.838 Y144.379 E.02066
G1 X212.29 Y144.102 E.01925
G1 X211.81 Y143.728 E.01908
G1 X211.381 Y143.228 E.02066
G1 X211.081 Y142.693 E.01923
G1 X210.891 Y142.113 E.01914
G1 X210.815 Y141.509 E.01909
G1 X210.854 Y140.902 E.01907
G1 X211.009 Y140.313 E.0191
G1 X211.301 Y139.721 E.0207
G1 X211.674 Y139.235 E.01921
G1 X212.195 Y138.786 E.02156
G1 X212.707 Y138.502 E.01836
G1 X213.285 Y138.309 E.01911
G1 X213.889 Y138.23 E.0191
G1 X214.496 Y138.268 E.01907
G1 X215.085 Y138.42 E.01907
G1 X215.679 Y138.709 E.02071
G1 X216.166 Y139.081 E.01921
G1 X216.57 Y139.535 E.01905
M204 S1000
G1 X216.502 Y140.158 F10800
M204 S800
;TYPE:External perimeter
G1 F1200
G1 X216.553 Y140.246 E.00319
G1 X216.729 Y140.753 E.01683
G1 X216.806 Y141.333 E.01835
G1 X216.762 Y141.917 E.01836
G1 X216.615 Y142.435 E.01688
G1 X216.347 Y142.954 E.01831
G1 X216.01 Y143.374 E.01688
G1 X215.601 Y143.721 E.01682
G1 X215.089 Y144.002 E.01831
G1 X214.574 Y144.163 E.01692
G1 X214.041 Y144.223 E.01682
G1 X213.506 Y144.179 E.01683
G1 X212.944 Y144.018 E.01833
G1 X212.466 Y143.769 E.0169
G1 X212.047 Y143.434 E.01682
G1 X211.671 Y142.987 E.01831
G1 X211.414 Y142.514 E.01688
G1 X211.251 Y142.002 E.01685
G1 X211.189 Y141.468 E.01686
G1 X211.23 Y140.933 E.01682
G1 X211.372 Y140.415 E.01684
G1 X211.636 Y139.893 E.01834
G1 X211.969 Y139.471 E.01685
G1 X212.422 Y139.087 E.01862
G1 X212.887 Y138.833 E.01661
G1 X213.398 Y138.669 E.01683
G1 X213.931 Y138.605 E.01683
G1 X214.467 Y138.644 E.01685
G1 X214.985 Y138.783 E.01682
G1 X215.508 Y139.045 E.01834
G1 X215.932 Y139.376 E.01687
G1 X216.285 Y139.781 E.01684
G1 X216.472 Y140.106 E.01176
M204 S1000
G1 X216.605 Y140.154 F10800
;WIPE_START
G1 F8640
G1 X216.553 Y140.246 E-.03735
G1 X216.729 Y140.753 E-.12392
G1 X216.806 Y141.333 E-.1351
G1 X216.762 Y141.917 E-.13523
G1 X216.615 Y142.435 E-.12433
G1 X216.347 Y142.954 E-.13487
G1 X216.051 Y143.323 E-.1092
;WIPE_END
G1 Z.6 F720
G1 X32.244 Y144.066 F10800
G1 Z.2 F720
G1 E.8 F2100
M204 S800
;TYPE:Perimeter
G1 F1200
G1 X31.81 Y143.728 E.01725
G1 X31.409 Y143.269 E.01911
G1 X31.083 Y142.696 E.02067
G1 X30.891 Y142.113 E.01925
G1 X30.815 Y141.509 E.01909
G1 X30.854 Y140.902 E.01907
G1 X31.009 Y140.313 E.0191
G1 X31.301 Y139.721 E.0207
G1 X31.674 Y139.235 E.01921
G1 X32.173 Y138.804 E.02067
G1 X32.707 Y138.502 E.01924
G1 X33.285 Y138.309 E.01911
G1 X33.889 Y138.23 E.0191
G1 X34.496 Y138.268 E.01907
G1 X35.085 Y138.42 E.01907
G1 X35.679 Y138.709 E.02071
G1 X36.166 Y139.081 E.01921
G1 X36.571 Y139.536 E.0191
G1 X36.881 Y140.059 E.01906
G1 X37.098 Y140.683 E.02071
G1 X37.181 Y141.29 E.01921
G1 X37.138 Y141.948 E.02068
G1 X36.977 Y142.54 E.01924
G1 X36.681 Y143.13 E.0207
G1 X36.303 Y143.612 E.01921
G1 X35.842 Y144.011 E.01912
G1 X35.314 Y144.314 E.01909
G1 X34.739 Y144.511 E.01906
G1 X34.084 Y144.597 E.02071
G1 X33.473 Y144.555 E.0192
G1 X32.837 Y144.379 E.02069
G1 X32.291 Y144.102 E.0192
M204 S1000
G1 X32.496 Y143.784 F10800
M204 S800
;TYPE:External perimeter
G1 F1200
G1 X32.046 Y143.434 E.01787
G1 X31.698 Y143.026 E.01681
G1 X31.414 Y142.515 E.01833
G1 X31.251 Y142.002 E.01688
G1 X31.189 Y141.468 E.01686
G1 X31.23 Y140.933 E.01682
G1 X31.372 Y140.415 E.01684
G1 X31.636 Y139.893 E.01834
G1 X31.969 Y139.471 E.01685
G1 X32.415 Y139.093 E.01833
G1 X32.887 Y138.833 E.0169
G1 X33.398 Y138.669 E.01683
G1 X33.931 Y138.605 E.01683
G1 X34.467 Y138.644 E.01685
G1 X34.985 Y138.783 E.01682
G1 X35.508 Y139.045 E.01834
G1 X35.932 Y139.376 E.01687
G1 X36.285 Y139.781 E.01684
G1 X36.553 Y140.246 E.01683
G1 X36.739 Y140.8 E.01832
G1 X36.806 Y141.334 E.01687
G1 X36.762 Y141.917 E.01833
G1 X36.615 Y142.435 E.01688
G1 X36.347 Y142.954 E.01831
G1 X36.01 Y143.374 E.01688
G1 X35.6 Y143.721 E.01684
G1 X35.132 Y143.984 E.01683
G1 X34.623 Y144.153 E.01682
G1 X34.042 Y144.222 E.01834
G1 X33.506 Y144.179 E.01686
G1 X32.944 Y144.017 E.01834
G1 X32.549 Y143.812 E.01395
M204 S1000
G1 X32.142 Y143.969 F10800
;WIPE_START
G1 F8640
G1 X32.046 Y143.434 E-.14528
G1 X31.698 Y143.026 E-.12382
G1 X31.414 Y142.515 E-.13499
G1 X31.251 Y142.002 E-.12429
G1 X31.189 Y141.468 E-.12413
G1 X31.23 Y140.933 E-.1239
G1 X31.257 Y140.834 E-.02359
;WIPE_END
G1 Z.6 F720
G1 X37.107 Y26.745 F10800
G1 Z.2 F720
G1 E.8 F2100
M204 S800
;TYPE:Perimeter
G1 F1200
G1 X37.181 Y27.29 E.01724
G1 X37.146 Y27.898 E.01909
G1 X36.996 Y28.488 E.01909
G1 X36.737 Y29.039 E.01909
G1 X36.344 Y29.568 E.02066
G1 X35.887 Y29.978 E.01925
G1 X35.365 Y30.29 E.01907
G1 X34.743 Y30.51 E.02069
G1 X34.136 Y30.596 E.01922
G1 X33.477 Y30.555 E.0207
G1 X32.884 Y30.398 E.01923
G1 X32.337 Y30.131 E.01908
G1 X31.851 Y29.766 E.01906
G1 X31.412 Y29.272 E.02072
G1 X31.103 Y28.742 E.01924
G1 X30.904 Y28.167 E.01908
G1 X30.817 Y27.565 E.01907
G1 X30.846 Y26.957 E.01909
G1 X31.008 Y26.318 E.02067
G1 X31.301 Y25.721 E.02085
G1 X31.675 Y25.235 E.01923
G1 X32.131 Y24.833 E.01906
G1 X32.703 Y24.504 E.02069
G1 X33.285 Y24.309 E.01925
G1 X33.888 Y24.23 E.01907
G1 X34.547 Y24.277 E.02071
G1 X35.138 Y24.439 E.01921
G1 X35.683 Y24.711 E.0191
G1 X36.166 Y25.081 E.01908
G1 X36.57 Y25.535 E.01905
G1 X36.902 Y26.106 E.02071
G1 X37.099 Y26.686 E.01921
M204 S1000
G1 X36.747 Y26.858 F10800
M204 S800
;TYPE:External perimeter
G1 F1200
G1 X36.806 Y27.334 E.01504
G1 X36.77 Y27.87 E.01684
G1 X36.633 Y28.389 E.01683
G1 X36.399 Y28.872 E.01683
G1 X36.045 Y29.337 E.01832
G1 X35.64 Y29.693 E.01691
G1 X35.177 Y29.964 E.01682
G1 X34.623 Y30.152 E.01834
G1 X34.09 Y30.221 E.01685
G1 X33.506 Y30.179 E.01836
G1 X32.988 Y30.035 E.01686
G1 X32.508 Y29.795 E.01683
G1 X32.082 Y29.468 E.01684
G1 X31.698 Y29.027 E.01833
G1 X31.433 Y28.559 E.01686
G1 X31.262 Y28.049 E.01687
G1 X31.191 Y27.517 E.01683
G1 X31.222 Y26.982 E.0168
G1 X31.372 Y26.417 E.01833
G1 X31.636 Y25.893 E.0184
G1 X31.969 Y25.471 E.01685
G1 X32.376 Y25.12 E.01685
G1 X32.886 Y24.834 E.01833
G1 X33.398 Y24.669 E.01687
G1 X33.931 Y24.605 E.01683
G1 X34.514 Y24.652 E.01834
G1 X35.031 Y24.801 E.01687
G1 X35.509 Y25.045 E.01683
G1 X35.932 Y25.376 E.01684
G1 X36.284 Y25.781 E.01682
G1 X36.573 Y26.29 E.01835
G1 X36.739 Y26.799 E.01679
M204 S1000
G1 X37.128 Y26.978 F10800
;WIPE_START
G1 F8640
G1 X36.806 Y27.334 E-.1245
G1 X36.77 Y27.87 E-.12404
G1 X36.633 Y28.389 E-.12394
G1 X36.399 Y28.872 E-.12393
G1 X36.045 Y29.337 E-.13494
G1 X35.64 Y29.693 E-.12451
G1 X35.475 Y29.79 E-.04414
;WIPE_END
G1 Z.6 F720
G1 X247.279 Y1.37 F10800
G1 Z.2 F720
G1 E.8 F2100
