; generated by PrusaSlicer 2.6.0+win64 on 2024-01-29 at 22:42:37 UTC


;
;
; 

; external perimeters extrusion width = 0.45mm
; perimeters extrusion width = 0.45mm
; infill extrusion width = 0.45mm
; solid infill extrusion width = 0.45mm
; top infill extrusion width = 0.40mm
; first layer extrusion width = 0.42mm

; external perimeters extrusion width = 0.45mm
; perimeters extrusion width = 0.45mm
; infill extrusion width = 0.45mm
; solid infill extrusion width = 0.45mm
; top infill extrusion width = 0.40mm
; first layer extrusion width = 0.42mm

M73 P0 R448
M73 Q0 S467
M201 X1000 Y1000 Z200 E5000 ; sets maximum accelerations, mm/sec^2
M203 X200 Y200 Z12 E120 ; sets maximum feedrates, mm / sec
M204 S1250 T1250 ; sets acceleration (S) and retract acceleration (R), mm/sec^2
M205 X8.00 Y8.00 Z0.40 E4.50 ; sets the jerk limits, mm/sec
M205 S0 T0 ; sets the minimum extruding and travel feed rate, mm/sec
;TYPE:Custom
M862.3 P "MK3S" ; printer model check
M862.1 P0.4 ; nozzle diameter check
M115 U3.12.2 ; tell printer latest fw version
G90 ; use absolute coordinates
M83 ; extruder relative mode
M104 S215 ; set extruder temp
M140 S60 ; set bed temp
M190 S60 ; wait for bed temp
M109 S215 ; wait for extruder temp
G28 W ; home all without mesh bed level
G80 ; mesh bed leveling

G1 Z0.2 F720
G1 Y-3 F1000 ; go outside print area
G92 E0
G1 X60 E9 F1000 ; intro line
G1 X100 E12.5 F1000 ; intro line

G92 E0
M221 S95

; Don't change E values below. Excessive value can damage the printer.

M907 E538 ; set extruder motor current
G21 ; set units to millimeters
G90 ; use absolute coordinates
M83 ; use relative distances for extrusion
M900 K0.05 ; Filament gcode LA 1.5
M900 K30 ; Filament gcode LA 1.0
M107
;LAYER_CHANGE
;Z:0.2
;HEIGHT:0.2
;BEFORE_LAYER_CHANGE
G92 E0.0
;0.2


G1 E-.8 F2100
G1 Z.4 F720
;AFTER_LAYER_CHANGE
;0.2
G1 X4.16 Y14.498 F10800
G1 Z.2 F720
G1 E.8 F2100
M204 S800
;TYPE:Skirt/Brim
;WIDTH:0.42
G1 F1200
G1 X60.819 Y-1.759 E1.84818
G1 X61.475 Y-1.851 E.02077
G1 X188.045 Y-1.851 E3.96851
G1 X188.706 Y-1.757 E.02093
M73 P0 R447
G1 X248.146 Y15.455 E1.94026
G1 X249.292 Y16.195 E.04277
G1 X249.862 Y17.738 E.05158
G1 X249.862 Y209.738 E6.02003
G1 X249.47 Y211.045 E.04278
G1 X248.424 Y211.922 E.0428
G1 X247.485 Y212.115 E.03006
G1 X1.485 Y212.115 E7.71316
G1 X.178 Y211.724 E.04277
M73 Q0 S466
G1 X-.699 Y210.678 E.0428
G1 X-.892 Y209.738 E.03009
G1 X-.892 Y17.738 E6.02003
G1 X-.501 Y16.431 E.04277
G1 X.829 Y15.453 E.05176
G1 X4.102 Y14.514 E.10676
M204 S1000
; printing object c2.3a_cover_octagon_left_side.stl id:0 copy 0
;WIPE_START
G1 F8640
G1 X7.432 Y13.558 E-.8
;WIPE_END
G1 Z.6 F720
G1 X187.258 Y14.739 F10800
G1 Z.2 F720
G1 E.8 F2100
M204 S800
;TYPE:Perimeter
;WIDTH:0.419999
G1 F1200
G1 X62.262 Y14.739 E3.91916
G1 X62.262 Y1.313 E.42096
G1 X187.258 Y1.313 E3.91916
G1 X187.258 Y14.679 E.41908
M204 S1000
G1 X187.635 Y15.116 F10800
M204 S800
;TYPE:External perimeter
G1 F1200
G1 X61.885 Y15.116 E3.9428
G1 X61.885 Y.936 E.4446
G1 X187.635 Y.936 E3.9428
M73 P0 R446
G1 X187.635 Y15.056 E.44272
M204 S1000
G1 X187.235 Y15.101 F10800
;WIPE_START
G1 F8640
G1 X184.17 Y15.058 E-.8
;WIPE_END
G1 Z.6 F720
G1 X186.324 Y1.483 F10800
G1 Z.2 F720
G1 E.8 F2100
M204 S800
;TYPE:Solid infill
;WIDTH:0.420642
G1 F1200
G1 X186.918 Y2.077 E.02638
G1 X186.918 Y2.611 E.01677
G1 X185.96 Y1.652 E.04257
G1 X185.426 Y1.652 E.01677
G1 X186.918 Y3.145 E.06629
G1 X186.918 Y3.679 E.01677
G1 X184.891 Y1.652 E.09003
G1 X184.357 Y1.652 E.01677
G1 X186.918 Y4.213 E.11375
G1 X186.918 Y4.748 E.0168
G1 X183.823 Y1.652 E.13749
G1 X183.289 Y1.652 E.01677
G1 X186.918 Y5.282 E.16121
G1 X186.918 Y5.816 E.01677
G1 X182.755 Y1.652 E.18493
G1 X182.22 Y1.652 E.0168
G1 X186.918 Y6.35 E.20867
G1 X186.918 Y6.884 E.01677
G1 X181.686 Y1.652 E.23239
G1 X181.152 Y1.652 E.01677
G1 X186.918 Y7.418 E.25611
G1 X186.918 Y7.953 E.0168
G1 X180.618 Y1.652 E.27985
G1 X180.084 Y1.652 E.01677
G1 X186.918 Y8.487 E.30357
G1 X186.918 Y9.021 E.01677
G1 X179.55 Y1.652 E.32729
G1 X179.015 Y1.652 E.0168
G1 X186.918 Y9.555 E.35103
G1 X186.918 Y10.089 E.01677
G1 X178.481 Y1.652 E.37475
G1 X177.947 Y1.652 E.01677
G1 X186.918 Y10.624 E.39849
G1 X186.918 Y11.158 E.01677
G1 X177.413 Y1.652 E.42221
G1 X176.879 Y1.652 E.01677
G1 X186.918 Y11.692 E.44593
G1 X186.918 Y12.226 E.01677
G1 X176.345 Y1.652 E.46965
G1 X175.81 Y1.652 E.0168
G1 X186.918 Y12.76 E.49339
G1 X186.918 Y13.294 E.01677
G1 X175.276 Y1.652 E.51711
G1 X174.742 Y1.652 E.01677
G1 X186.918 Y13.829 E.54085
G1 X186.918 Y14.363 E.01677
G1 X174.208 Y1.652 E.56456
G1 X173.674 Y1.652 E.01677
G1 X186.421 Y14.399 E.56619
G1 X185.887 Y14.399 E.01677
G1 X173.139 Y1.652 E.56621
G1 X172.605 Y1.652 E.01677
G1 X185.352 Y14.399 E.56619
G1 X184.818 Y14.399 E.01677
G1 X172.071 Y1.652 E.56619
G1 X171.537 Y1.652 E.01677
M73 Q0 S465
G1 X184.284 Y14.399 E.56619
G1 X183.75 Y14.399 E.01677
G1 X171.003 Y1.652 E.56619
G1 X170.469 Y1.652 E.01677
G1 X183.216 Y14.399 E.56619
G1 X182.681 Y14.399 E.0168
G1 X169.934 Y1.652 E.56619
G1 X169.4 Y1.652 E.01677
G1 X182.147 Y14.399 E.56619
G1 X181.613 Y14.399 E.01677
G1 X168.866 Y1.652 E.56619
G1 X168.332 Y1.652 E.01677
G1 X181.079 Y14.399 E.56619
G1 X180.545 Y14.399 E.01677
G1 X167.798 Y1.652 E.56619
G1 X167.263 Y1.652 E.0168
G1 X180.011 Y14.399 E.56621
G1 X179.476 Y14.399 E.0168
G1 X166.729 Y1.652 E.56619
G1 X166.195 Y1.652 E.01677
G1 X178.942 Y14.399 E.56619
G1 X178.408 Y14.399 E.01677
G1 X165.661 Y1.652 E.56619
G1 X165.127 Y1.652 E.01677
G1 X177.874 Y14.399 E.56619
G1 X177.34 Y14.399 E.01677
G1 X164.593 Y1.652 E.56619
G1 X164.058 Y1.652 E.0168
G1 X176.805 Y14.399 E.56619
G1 X176.271 Y14.399 E.01677
G1 X163.524 Y1.652 E.56619
G1 X162.99 Y1.652 E.01677
G1 X175.737 Y14.399 E.56619
G1 X175.203 Y14.399 E.01677
G1 X162.456 Y1.652 E.56619
G1 X161.922 Y1.652 E.01677
G1 X174.669 Y14.399 E.56619
G1 X174.135 Y14.399 E.01677
G1 X161.387 Y1.652 E.56621
G1 X160.853 Y1.652 E.01677
G1 X173.6 Y14.399 E.56619
G1 X173.066 Y14.399 E.01677
G1 X160.319 Y1.652 E.56619
G1 X159.785 Y1.652 E.01677
G1 X172.532 Y14.399 E.56619
G1 X171.998 Y14.399 E.01677
G1 X159.251 Y1.652 E.56619
G1 X158.717 Y1.652 E.01677
G1 X171.464 Y14.399 E.56619
G1 X170.93 Y14.399 E.01677
G1 X158.182 Y1.652 E.56621
G1 X157.648 Y1.652 E.01677
G1 X170.395 Y14.399 E.56619
G1 X169.861 Y14.399 E.01677
G1 X157.114 Y1.652 E.56619
G1 X156.58 Y1.652 E.01677
G1 X169.327 Y14.399 E.56619
G1 X168.793 Y14.399 E.01677
G1 X156.046 Y1.652 E.56619
G1 X155.512 Y1.652 E.01677
G1 X168.259 Y14.399 E.56619
G1 X167.724 Y14.399 E.0168
G1 X154.977 Y1.652 E.56619
G1 X154.443 Y1.652 E.01677
G1 X167.19 Y14.399 E.56619
G1 X166.656 Y14.399 E.01677
G1 X153.909 Y1.652 E.56619
G1 X153.375 Y1.652 E.01677
G1 X166.122 Y14.399 E.56619
G1 X165.588 Y14.399 E.01677
G1 X152.841 Y1.652 E.56619
G1 X152.306 Y1.652 E.0168
G1 X165.054 Y14.399 E.56621
G1 X164.519 Y14.399 E.0168
G1 X151.772 Y1.652 E.56619
G1 X151.238 Y1.652 E.01677
G1 X163.985 Y14.399 E.56619
G1 X163.451 Y14.399 E.01677
M73 P0 R445
G1 X150.704 Y1.652 E.56619
G1 X150.17 Y1.652 E.01677
G1 X162.917 Y14.399 E.56619
G1 X162.383 Y14.399 E.01677
G1 X149.636 Y1.652 E.56619
G1 X149.101 Y1.652 E.0168
G1 X161.848 Y14.399 E.56619
G1 X161.314 Y14.399 E.01677
G1 X148.567 Y1.652 E.56619
G1 X148.033 Y1.652 E.01677
G1 X160.78 Y14.399 E.56619
G1 X160.246 Y14.399 E.01677
G1 X147.499 Y1.652 E.56619
G1 X146.965 Y1.652 E.01677
G1 X159.712 Y14.399 E.56619
G1 X159.178 Y14.399 E.01677
G1 X146.43 Y1.652 E.56621
G1 X145.896 Y1.652 E.01677
G1 X158.643 Y14.399 E.56619
G1 X158.109 Y14.399 E.01677
G1 X145.362 Y1.652 E.56619
G1 X144.828 Y1.652 E.01677
G1 X157.575 Y14.399 E.56619
G1 X157.041 Y14.399 E.01677
G1 X144.294 Y1.652 E.56619
G1 X143.76 Y1.652 E.01677
G1 X156.507 Y14.399 E.56619
G1 X155.972 Y14.399 E.0168
G1 X143.225 Y1.652 E.56619
G1 X142.691 Y1.652 E.01677
G1 X155.438 Y14.399 E.56619
G1 X154.904 Y14.399 E.01677
G1 X142.157 Y1.652 E.56619
G1 X141.623 Y1.652 E.01677
G1 X154.37 Y14.399 E.56619
G1 X153.836 Y14.399 E.01677
G1 X141.089 Y1.652 E.56619
G1 X140.554 Y1.652 E.0168
G1 X153.302 Y14.399 E.56621
G1 X152.767 Y14.399 E.0168
G1 X140.02 Y1.652 E.56619
G1 X139.486 Y1.652 E.01677
G1 X152.233 Y14.399 E.56619
G1 X151.699 Y14.399 E.01677
G1 X138.952 Y1.652 E.56619
G1 X138.418 Y1.652 E.01677
G1 X151.165 Y14.399 E.56619
G1 X150.631 Y14.399 E.01677
M73 Q0 S464
G1 X137.884 Y1.652 E.56619
G1 X137.349 Y1.652 E.0168
G1 X150.097 Y14.399 E.56621
G1 X149.562 Y14.399 E.0168
G1 X136.815 Y1.652 E.56619
G1 X136.281 Y1.652 E.01677
G1 X149.028 Y14.399 E.56619
G1 X148.494 Y14.399 E.01677
G1 X135.747 Y1.652 E.56619
G1 X135.213 Y1.652 E.01677
G1 X147.96 Y14.399 E.56619
G1 X147.426 Y14.399 E.01677
G1 X134.679 Y1.652 E.56619
G1 X134.144 Y1.652 E.0168
G1 X146.891 Y14.399 E.56619
G1 X146.357 Y14.399 E.01677
G1 X133.61 Y1.652 E.56619
G1 X133.076 Y1.652 E.01677
G1 X145.823 Y14.399 E.56619
G1 X145.289 Y14.399 E.01677
G1 X132.542 Y1.652 E.56619
G1 X132.008 Y1.652 E.01677
G1 X144.755 Y14.399 E.56619
G1 X144.221 Y14.399 E.01677
G1 X131.473 Y1.652 E.56621
G1 X130.939 Y1.652 E.01677
G1 X143.686 Y14.399 E.56619
G1 X143.152 Y14.399 E.01677
G1 X130.405 Y1.652 E.56619
G1 X129.871 Y1.652 E.01677
G1 X142.618 Y14.399 E.56619
G1 X142.084 Y14.399 E.01677
G1 X129.337 Y1.652 E.56619
G1 X128.803 Y1.652 E.01677
G1 X141.55 Y14.399 E.56619
G1 X141.015 Y14.399 E.0168
G1 X128.268 Y1.652 E.56619
G1 X127.734 Y1.652 E.01677
G1 X140.481 Y14.399 E.56619
G1 X139.947 Y14.399 E.01677
G1 X127.2 Y1.652 E.56619
G1 X126.666 Y1.652 E.01677
G1 X139.413 Y14.399 E.56619
G1 X138.879 Y14.399 E.01677
G1 X126.132 Y1.652 E.56619
G1 X125.597 Y1.652 E.0168
G1 X138.345 Y14.399 E.56621
G1 X137.81 Y14.399 E.0168
G1 X125.063 Y1.652 E.56619
G1 X124.529 Y1.652 E.01677
G1 X137.276 Y14.399 E.56619
G1 X136.742 Y14.399 E.01677
G1 X123.995 Y1.652 E.56619
G1 X123.461 Y1.652 E.01677
G1 X136.208 Y14.399 E.56619
G1 X135.674 Y14.399 E.01677
G1 X122.927 Y1.652 E.56619
G1 X122.392 Y1.652 E.0168
G1 X135.139 Y14.399 E.56619
G1 X134.605 Y14.399 E.01677
G1 X121.858 Y1.652 E.56619
G1 X121.324 Y1.652 E.01677
G1 X134.071 Y14.399 E.56619
G1 X133.537 Y14.399 E.01677
G1 X120.79 Y1.652 E.56619
G1 X120.256 Y1.652 E.01677
G1 X133.003 Y14.399 E.56619
G1 X132.469 Y14.399 E.01677
G1 X119.721 Y1.652 E.56621
G1 X119.187 Y1.652 E.01677
G1 X131.934 Y14.399 E.56619
G1 X131.4 Y14.399 E.01677
G1 X118.653 Y1.652 E.56619
G1 X118.119 Y1.652 E.01677
G1 X130.866 Y14.399 E.56619
G1 X130.332 Y14.399 E.01677
G1 X117.585 Y1.652 E.56619
G1 X117.051 Y1.652 E.01677
G1 X129.798 Y14.399 E.56619
G1 X129.264 Y14.399 E.01677
M73 P0 R444
G1 X116.516 Y1.652 E.56621
G1 X115.982 Y1.652 E.01677
G1 X128.729 Y14.399 E.56619
G1 X128.195 Y14.399 E.01677
G1 X115.448 Y1.652 E.56619
G1 X114.914 Y1.652 E.01677
G1 X127.661 Y14.399 E.56619
G1 X127.127 Y14.399 E.01677
G1 X114.38 Y1.652 E.56619
G1 X113.846 Y1.652 E.01677
G1 X126.593 Y14.399 E.56619
G1 X126.058 Y14.399 E.0168
G1 X113.311 Y1.652 E.56619
G1 X112.777 Y1.652 E.01677
G1 X125.524 Y14.399 E.56619
G1 X124.99 Y14.399 E.01677
G1 X112.243 Y1.652 E.56619
G1 X111.709 Y1.652 E.01677
G1 X124.456 Y14.399 E.56619
G1 X123.922 Y14.399 E.01677
G1 X111.175 Y1.652 E.56619
G1 X110.64 Y1.652 E.0168
G1 X123.388 Y14.399 E.56621
G1 X122.853 Y14.399 E.0168
G1 X110.106 Y1.652 E.56619
G1 X109.572 Y1.652 E.01677
G1 X122.319 Y14.399 E.56619
G1 X121.785 Y14.399 E.01677
G1 X109.038 Y1.652 E.56619
G1 X108.504 Y1.652 E.01677
G1 X121.251 Y14.399 E.56619
G1 X120.717 Y14.399 E.01677
G1 X107.97 Y1.652 E.56619
G1 X107.435 Y1.652 E.0168
G1 X120.182 Y14.399 E.56619
G1 X119.648 Y14.399 E.01677
G1 X106.901 Y1.652 E.56619
G1 X106.367 Y1.652 E.01677
G1 X119.114 Y14.399 E.56619
G1 X118.58 Y14.399 E.01677
G1 X105.833 Y1.652 E.56619
G1 X105.299 Y1.652 E.01677
G1 X118.046 Y14.399 E.56619
G1 X117.512 Y14.399 E.01677
G1 X104.764 Y1.652 E.56621
G1 X104.23 Y1.652 E.01677
G1 X116.977 Y14.399 E.56619
G1 X116.443 Y14.399 E.01677
M73 Q0 S463
G1 X103.696 Y1.652 E.56619
G1 X103.162 Y1.652 E.01677
G1 X115.909 Y14.399 E.56619
G1 X115.375 Y14.399 E.01677
G1 X102.628 Y1.652 E.56619
G1 X102.094 Y1.652 E.01677
G1 X114.841 Y14.399 E.56619
G1 X114.306 Y14.399 E.0168
G1 X101.559 Y1.652 E.56619
G1 X101.025 Y1.652 E.01677
G1 X113.772 Y14.399 E.56619
G1 X113.238 Y14.399 E.01677
G1 X100.491 Y1.652 E.56619
G1 X99.957 Y1.652 E.01677
G1 X112.704 Y14.399 E.56619
G1 X112.17 Y14.399 E.01677
G1 X99.423 Y1.652 E.56619
G1 X98.888 Y1.652 E.0168
G1 X111.636 Y14.399 E.56621
G1 X111.101 Y14.399 E.0168
G1 X98.354 Y1.652 E.56619
G1 X97.82 Y1.652 E.01677
G1 X110.567 Y14.399 E.56619
G1 X110.033 Y14.399 E.01677
G1 X97.286 Y1.652 E.56619
G1 X96.752 Y1.652 E.01677
G1 X109.499 Y14.399 E.56619
G1 X108.965 Y14.399 E.01677
G1 X96.218 Y1.652 E.56619
G1 X95.683 Y1.652 E.0168
G1 X108.431 Y14.399 E.56621
G1 X107.896 Y14.399 E.0168
G1 X95.149 Y1.652 E.56619
G1 X94.615 Y1.652 E.01677
G1 X107.362 Y14.399 E.56619
G1 X106.828 Y14.399 E.01677
G1 X94.081 Y1.652 E.56619
G1 X93.547 Y1.652 E.01677
G1 X106.294 Y14.399 E.56619
G1 X105.76 Y14.399 E.01677
G1 X93.013 Y1.652 E.56619
G1 X92.478 Y1.652 E.0168
G1 X105.225 Y14.399 E.56619
G1 X104.691 Y14.399 E.01677
G1 X91.944 Y1.652 E.56619
G1 X91.41 Y1.652 E.01677
G1 X104.157 Y14.399 E.56619
G1 X103.623 Y14.399 E.01677
G1 X90.876 Y1.652 E.56619
G1 X90.342 Y1.652 E.01677
G1 X103.089 Y14.399 E.56619
G1 X102.555 Y14.399 E.01677
G1 X89.807 Y1.652 E.56621
G1 X89.273 Y1.652 E.01677
G1 X102.02 Y14.399 E.56619
G1 X101.486 Y14.399 E.01677
G1 X88.739 Y1.652 E.56619
G1 X88.205 Y1.652 E.01677
G1 X100.952 Y14.399 E.56619
G1 X100.418 Y14.399 E.01677
G1 X87.671 Y1.652 E.56619
G1 X87.137 Y1.652 E.01677
G1 X99.884 Y14.399 E.56619
G1 X99.349 Y14.399 E.0168
G1 X86.602 Y1.652 E.56619
G1 X86.068 Y1.652 E.01677
G1 X98.815 Y14.399 E.56619
G1 X98.281 Y14.399 E.01677
G1 X85.534 Y1.652 E.56619
G1 X85 Y1.652 E.01677
G1 X97.747 Y14.399 E.56619
G1 X97.213 Y14.399 E.01677
G1 X84.466 Y1.652 E.56619
G1 X83.931 Y1.652 E.0168
G1 X96.679 Y14.399 E.56621
G1 X96.144 Y14.399 E.0168
G1 X83.397 Y1.652 E.56619
G1 X82.863 Y1.652 E.01677
G1 X95.61 Y14.399 E.56619
G1 X95.076 Y14.399 E.01677
M73 P0 R443
G1 X82.329 Y1.652 E.56619
G1 X81.795 Y1.652 E.01677
G1 X94.542 Y14.399 E.56619
G1 X94.008 Y14.399 E.01677
G1 X81.261 Y1.652 E.56619
G1 X80.726 Y1.652 E.0168
G1 X93.473 Y14.399 E.56619
G1 X92.939 Y14.399 E.01677
G1 X80.192 Y1.652 E.56619
G1 X79.658 Y1.652 E.01677
G1 X92.405 Y14.399 E.56619
G1 X91.871 Y14.399 E.01677
G1 X79.124 Y1.652 E.56619
G1 X78.59 Y1.652 E.01677
G1 X91.337 Y14.399 E.56619
G1 X90.803 Y14.399 E.01677
G1 X78.055 Y1.652 E.56621
G1 X77.521 Y1.652 E.01677
G1 X90.268 Y14.399 E.56619
G1 X89.734 Y14.399 E.01677
G1 X76.987 Y1.652 E.56619
G1 X76.453 Y1.652 E.01677
G1 X89.2 Y14.399 E.56619
G1 X88.666 Y14.399 E.01677
G1 X75.919 Y1.652 E.56619
G1 X75.385 Y1.652 E.01677
G1 X88.132 Y14.399 E.56619
G1 X87.598 Y14.399 E.01677
G1 X74.85 Y1.652 E.56621
G1 X74.316 Y1.652 E.01677
M73 P1 R443
G1 X87.063 Y14.399 E.56619
G1 X86.529 Y14.399 E.01677
G1 X73.782 Y1.652 E.56619
G1 X73.248 Y1.652 E.01677
G1 X85.995 Y14.399 E.56619
G1 X85.461 Y14.399 E.01677
G1 X72.714 Y1.652 E.56619
G1 X72.18 Y1.652 E.01677
G1 X84.927 Y14.399 E.56619
G1 X84.392 Y14.399 E.0168
G1 X71.645 Y1.652 E.56619
G1 X71.111 Y1.652 E.01677
G1 X83.858 Y14.399 E.56619
G1 X83.324 Y14.399 E.01677
G1 X70.577 Y1.652 E.56619
G1 X70.043 Y1.652 E.01677
G1 X82.79 Y14.399 E.56619
G1 X82.256 Y14.399 E.01677
M73 Q0 S462
G1 X69.509 Y1.652 E.56619
G1 X68.974 Y1.652 E.0168
G1 X81.722 Y14.399 E.56621
G1 X81.187 Y14.399 E.0168
G1 X68.44 Y1.652 E.56619
M73 Q1 S462
G1 X67.906 Y1.652 E.01677
G1 X80.653 Y14.399 E.56619
G1 X80.119 Y14.399 E.01677
G1 X67.372 Y1.652 E.56619
G1 X66.838 Y1.652 E.01677
G1 X79.585 Y14.399 E.56619
G1 X79.051 Y14.399 E.01677
G1 X66.304 Y1.652 E.56619
G1 X65.769 Y1.652 E.0168
G1 X78.516 Y14.399 E.56619
G1 X77.982 Y14.399 E.01677
G1 X65.235 Y1.652 E.56619
G1 X64.701 Y1.652 E.01677
G1 X77.448 Y14.399 E.56619
G1 X76.914 Y14.399 E.01677
G1 X64.167 Y1.652 E.56619
G1 X63.633 Y1.652 E.01677
G1 X76.38 Y14.399 E.56619
G1 X75.846 Y14.399 E.01677
G1 X63.098 Y1.652 E.56621
G1 X62.601 Y1.652 E.01561
G1 X62.601 Y1.689 E.00116
G1 X75.311 Y14.399 E.56454
G1 X74.777 Y14.399 E.01677
G1 X62.601 Y2.223 E.54082
