; generated by PrusaSlicer 2.6.0+win64 on 2023-10-02 at 09:34:51 UTC


;
;
; 

; external perimeters extrusion width = 0.45mm
; perimeters extrusion width = 0.45mm
; infill extrusion width = 0.45mm
; solid infill extrusion width = 0.45mm
; top infill extrusion width = 0.40mm
; first layer extrusion width = 0.42mm

; external perimeters extrusion width = 0.45mm
; perimeters extrusion width = 0.45mm
; infill extrusion width = 0.45mm
; solid infill extrusion width = 0.45mm
; top infill extrusion width = 0.40mm
; first layer extrusion width = 0.42mm

M73 P0 R100
M73 Q0 S101
M201 X1000 Y1000 Z200 E5000 ; sets maximum accelerations, mm/sec^2
M203 X200 Y200 Z12 E120 ; sets maximum feedrates, mm / sec
M204 S1250 T1250 ; sets acceleration (S) and retract acceleration (R), mm/sec^2
M205 X8.00 Y8.00 Z0.40 E4.50 ; sets the jerk limits, mm/sec
M205 S0 T0 ; sets the minimum extruding and travel feed rate, mm/sec
;TYPE:Custom
M862.3 P "MK3S" ; printer model check
M862.1 P0.4 ; nozzle diameter check
M115 U3.12.2 ; tell printer latest fw version
G90 ; use absolute coordinates
M83 ; extruder relative mode
M104 S215 ; set extruder temp
M140 S60 ; set bed temp
M190 S60 ; wait for bed temp
M109 S215 ; wait for extruder temp
G28 W ; home all without mesh bed level
G80 ; mesh bed leveling

G1 Z0.2 F720
G1 Y-3 F1000 ; go outside print area
G92 E0
G1 X60 E9 F1000 ; intro line
G1 X100 E12.5 F1000 ; intro line

G92 E0
M221 S95

; Don't change E values below. Excessive value can damage the printer.

M907 E538 ; set extruder motor current
G21 ; set units to millimeters
G90 ; use absolute coordinates
M83 ; use relative distances for extrusion
M900 K0.05 ; Filament gcode LA 1.5
M900 K30 ; Filament gcode LA 1.0
M107
;LAYER_CHANGE
;Z:0.2
;HEIGHT:0.2
;BEFORE_LAYER_CHANGE
G92 E0.0
;0.2


M73 Q0 S100
G1 E-.8 F2100
G1 Z.4 F720
;AFTER_LAYER_CHANGE
;0.2
G1 X136.327 Y48.793 F10800
G1 Z.2 F720
G1 E.8 F2100
M204 S800
;TYPE:Skirt/Brim
;WIDTH:0.42
G1 F1200
G1 X137.511 Y45.486 E.11013
G1 X138.32 Y44.387 E.04279
G1 X139.749 Y43.91 E.04724
G1 X149.749 Y43.91 E.31354
G1 X150.716 Y44.116 E.031
G1 X171.024 Y53.165 E.6971
G1 X172.059 Y54.055 E.0428
G1 X172.434 Y55.337 E.04188
G1 X172.434 Y130.337 E2.35157
G1 X171.738 Y132.017 E.05702
G1 X129.311 Y174.444 E1.88128
G1 X128.11 Y175.091 E.04277
G1 X126.663 Y174.934 E.04564
G1 X106.355 Y165.884 E.69711
G1 X105.641 Y165.394 E.02715
G1 X98.57 Y158.323 E.31354
G1 X97.923 Y157.122 E.04277
G1 X98.013 Y155.841 E.04026
G1 X136.307 Y48.85 E3.56303
M204 S1000
; printing object 1_side_axis_end_switch_holder_long.stl id:0 copy 0
;WIPE_START
G1 F8640
G1 X137.475 Y45.588 E-.8
;WIPE_END
G1 Z.6 F720
G1 X140.521 Y117.309 F10800
G1 Z.2 F720
G1 E.8 F2100
M204 S800
;TYPE:Perimeter
;WIDTH:0.419999
G1 F1200
G1 X140.536 Y117.236 E.00234
G1 X140.536 Y47.074 E2.19988
G1 X148.962 Y47.074 E.26419
G1 X148.962 Y51.287 E.1321
G1 X148.962 Y120.961 E2.18458
G1 X129.106 Y140.816 E.88042
;WIDTH:0.463566
M73 P0 R99
G1 X128.956 Y140.936 E.00672
;WIDTH:0.507132
G1 X128.805 Y141.056 E.00744
;WIDTH:0.550699
G1 X128.654 Y141.176 E.00814
;WIDTH:0.594265
G1 X128.504 Y141.296 E.00881
G1 X127.953 Y141.878 E.03674
;WIDTH:0.583342
G1 X127.411 Y142.396 E.03369
G1 X127.323 Y142.513 E.00658
;WIDTH:0.542507
G1 X127.235 Y142.63 E.00608
;WIDTH:0.501671
G1 X127.147 Y142.746 E.00555
;WIDTH:0.460835
G1 X127.06 Y142.863 E.00507
;WIDTH:0.419999
G1 X114.957 Y154.966 E.53667
;WIDTH:0.462067
G1 X114.799 Y155.094 E.00709
;WIDTH:0.504134
G1 X114.64 Y155.222 E.00783
;WIDTH:0.546202
G1 X114.482 Y155.351 E.00854
;WIDTH:0.588269
G1 X114.324 Y155.479 E.00922
G1 X113.811 Y156.02 E.03381
;WIDTH:0.58358
G1 X113.266 Y156.54 E.03386
G1 X113.179 Y156.657 E.00655
;WIDTH:0.542685
G1 X113.091 Y156.774 E.00608
;WIDTH:0.50179
G1 X113.003 Y156.89 E.00556
;WIDTH:0.460895
G1 X112.916 Y157.007 E.00507
;WIDTH:0.419999
G1 X107.322 Y162.6 E.24802
G1 X101.364 Y156.642 E.26419
G1 X106.774 Y151.233 E.23987
;WIDTH:0.462928
G1 X106.923 Y151.114 E.00666
;WIDTH:0.505857
G1 X107.071 Y150.996 E.00729
;WIDTH:0.548786
G1 X107.22 Y150.878 E.00799
;WIDTH:0.591715
G1 X107.369 Y150.759 E.0087
G1 X107.888 Y150.211 E.03444
;WIDTH:0.586611
G1 X108.473 Y149.652 E.03658
G1 X108.56 Y149.535 E.00659
;WIDTH:0.544958
G1 X108.648 Y149.418 E.00611
;WIDTH:0.503305
G1 X108.735 Y149.301 E.00558
;WIDTH:0.461652
G1 X108.823 Y149.184 E.0051
;WIDTH:0.419999
G1 X120.917 Y137.09 E.53627
;WIDTH:0.462679
G1 X121.067 Y136.969 E.00673
;WIDTH:0.505358
G1 X121.218 Y136.849 E.00742
;WIDTH:0.548037
G1 X121.369 Y136.728 E.00813
;WIDTH:0.590716
G1 X121.519 Y136.608 E.00875
G1 X122.071 Y136.027 E.0365
;WIDTH:0.586623
G1 X122.615 Y135.509 E.03396
G1 X122.702 Y135.392 E.00659
;WIDTH:0.544967
G1 X122.79 Y135.275 E.00611
;WIDTH:0.503311
G1 X122.877 Y135.159 E.00555
;WIDTH:0.461655
G1 X122.965 Y135.042 E.0051
;WIDTH:0.419999
G1 X140.37 Y117.636 E.77179
G1 X140.493 Y117.453 E.00691
G1 X140.51 Y117.367 E.00275
M204 S1000
G1 X140.159 Y117.204 F10800
M204 S800
;TYPE:External perimeter
G1 F1200
G1 X140.159 Y46.697 E2.21069
G1 X149.339 Y46.697 E.28783
G1 X149.339 Y121.117 E2.33338
G1 X107.322 Y163.133 E1.86308
G1 X100.831 Y156.642 E.28782
G1 X140.104 Y117.37 E1.74141
G1 X140.148 Y117.262 E.00366
M204 S1000
G1 X140.545 Y117.1 F10800
;WIPE_START
G1 F8640
G1 X140.149 Y113.797 E-.8
;WIPE_END
G1 Z.6 F720
G1 X128.358 Y140.196 F10800
G1 Z.2 F720
G1 E.8 F2100
M204 S800
;TYPE:Perimeter
;WIDTH:0.456837
G1 F1200
G1 X128.29 Y140.378 E.00669
;WIDTH:0.493675
G1 X128.21 Y140.593 E.0086
;WIDTH:0.530512
G1 X128.129 Y140.809 E.00935
;WIDTH:0.562389
G1 X128.109 Y140.871 E.00281
;WIDTH:0.594265
G1 X128.09 Y140.933 E.00297
G1 X127.694 Y141.417 E.02867
;WIDTH:0.569102
G1 X127.18 Y141.894 E.03068
;WIDTH:0.583342
G1 X127.084 Y141.972 E.00556
G1 X126.948 Y142.027 E.00659
;WIDTH:0.542507
G1 X126.813 Y142.082 E.00606
;WIDTH:0.501671
G1 X126.678 Y142.137 E.00556
;WIDTH:0.460835
G1 X126.543 Y142.192 E.00507
;WIDTH:0.419999
G1 X125.847 Y142.44 E.02317
G1 X125.163 Y142.538 E.02167
G1 X124.482 Y142.504 E.02138
G1 X123.816 Y142.34 E.02151
G1 X123.195 Y142.053 E.02145
G1 X122.6 Y141.616 E.02315
G1 X122.136 Y141.107 E.0216
G1 X121.756 Y140.471 E.02323
G1 X121.527 Y139.822 E.02158
G1 X121.427 Y139.141 E.02158
G1 X121.467 Y138.405 E.02311
G1 X121.639 Y137.739 E.02157
;WIDTH:0.457441
G1 X121.722 Y137.523 E.00798
;WIDTH:0.494882
G1 X121.804 Y137.308 E.00865
;WIDTH:0.532323
G1 X121.886 Y137.093 E.00936
;WIDTH:0.56152
G1 X121.907 Y137.031 E.00282
;WIDTH:0.590716
G1 X121.929 Y136.97 E.00295
G1 X122.328 Y136.489 E.02847
;WIDTH:0.571568
G1 X122.845 Y136.015 E.03083
;WIDTH:0.586623
G1 X122.942 Y135.938 E.0056
G1 X123.078 Y135.884 E.00662
;WIDTH:0.544967
G1 X123.214 Y135.831 E.00609
;WIDTH:0.503311
G1 X123.349 Y135.777 E.00557
;WIDTH:0.461655
G1 X123.485 Y135.724 E.00508
;WIDTH:0.419999
G1 X124.13 Y135.495 E.02146
G1 X124.861 Y135.39 E.02316
G1 X125.548 Y135.43 E.02158
G1 X126.213 Y135.599 E.02151
G1 X126.832 Y135.892 E.02147
G1 X127.423 Y136.334 E.02314
G1 X127.883 Y136.846 E.02158
G1 X128.234 Y137.436 E.02153
G1 X128.466 Y138.079 E.02143
G1 X128.573 Y138.81 E.02316
G1 X128.537 Y139.497 E.02157
G1 X128.376 Y140.139 E.02075
M204 S1000
G1 X127.944 Y140.194 F10800
M204 S800
;TYPE:External perimeter
G1 F1200
G1 X127.741 Y140.619 E.01477
G1 X127.342 Y141.147 E.02075
G1 X126.882 Y141.554 E.01926
G1 X126.353 Y141.866 E.01926
G1 X125.726 Y142.082 E.02079
G1 X125.116 Y142.164 E.0193
G1 X124.507 Y142.128 E.01913
G1 X123.912 Y141.975 E.01926
G1 X123.359 Y141.713 E.01919
G1 X122.827 Y141.316 E.02081
G1 X122.419 Y140.858 E.01923
G1 X122.083 Y140.283 E.02088
G1 X121.885 Y139.702 E.01925
G1 X121.801 Y139.092 E.01931
G1 X121.843 Y138.431 E.02077
G1 X122.003 Y137.839 E.01923
G1 X122.274 Y137.286 E.01931
G1 X122.678 Y136.761 E.02077
G1 X123.14 Y136.358 E.01922
G1 X123.672 Y136.051 E.01926
G1 X124.251 Y135.852 E.0192
G1 X124.909 Y135.764 E.02081
G1 X125.521 Y135.806 E.01923
G1 X126.114 Y135.963 E.01923
G1 X126.665 Y136.23 E.0192
G1 X127.193 Y136.632 E.02081
G1 X127.598 Y137.093 E.01924
G1 X127.907 Y137.624 E.01926
G1 X128.109 Y138.202 E.0192
G1 X128.2 Y138.859 E.0208
G1 X128.161 Y139.471 E.01923
G1 X128.006 Y140.066 E.01928
G1 X127.97 Y140.14 E.00258
M204 S1000
G1 X128.187 Y140.512 F10800
;WIPE_START
G1 F8640
G1 X127.741 Y140.619 E-.12259
G1 X127.342 Y141.147 E-.15281
G1 X126.882 Y141.554 E-.14182
G1 X126.353 Y141.866 E-.14181
G1 X125.726 Y142.082 E-.15313
G1 X125.349 Y142.133 E-.08784
;WIPE_END
G1 Z.6 F720
G1 X107.735 Y151.257 F10800
G1 Z.2 F720
G1 E.8 F2100
M204 S800
;TYPE:Perimeter
;WIDTH:0.532302
G1 F1200
G1 X107.742 Y151.239 E.00079
;WIDTH:0.562009
G1 X107.761 Y151.179 E.00272
;WIDTH:0.591715
G1 X107.781 Y151.12 E.00284
G1 X108.147 Y150.672 E.0264
;WIDTH:0.571287
G1 X108.699 Y150.161 E.03305
;WIDTH:0.586611
G1 X108.8 Y150.08 E.00585
G1 X108.936 Y150.026 E.00662
;WIDTH:0.544958
G1 X109.071 Y149.973 E.00605
;WIDTH:0.503305
G1 X109.207 Y149.919 E.0056
;WIDTH:0.461652
G1 X109.343 Y149.866 E.00508
;WIDTH:0.419999
G1 X109.99 Y149.636 E.02153
G1 X110.719 Y149.532 E.02309
G1 X111.406 Y149.572 E.02158
G1 X112.073 Y149.742 E.02158
G1 X112.736 Y150.063 E.0231
G1 X113.285 Y150.479 E.0216
G1 X113.741 Y150.989 E.02145
G1 X114.093 Y151.58 E.02157
G1 X114.337 Y152.275 E.0231
G1 X114.432 Y152.957 E.02159
G1 X114.395 Y153.64 E.02145
G1 X114.227 Y154.307 E.02157
;WIDTH:0.456961
G1 X114.138 Y154.537 E.00849
;WIDTH:0.493923
G1 X114.049 Y154.767 E.00925
;WIDTH:0.530884
G1 X113.959 Y154.997 E.01002
;WIDTH:0.559577
G1 X113.938 Y155.058 E.00277
;WIDTH:0.588269
G1 X113.916 Y155.119 E.00294
G1 X113.549 Y155.563 E.02612
;WIDTH:0.569262
G1 X113.036 Y156.038 E.0306
;WIDTH:0.58358
G1 X112.94 Y156.115 E.00553
G1 X112.804 Y156.17 E.0066
;WIDTH:0.542685
G1 X112.669 Y156.225 E.00606
;WIDTH:0.50179
G1 X112.534 Y156.28 E.00556
;WIDTH:0.460895
G1 X112.399 Y156.335 E.00507
;WIDTH:0.419999
G1 X111.705 Y156.582 E.0231
G1 X111.021 Y156.68 E.02167
G1 X110.34 Y156.646 E.02138
G1 X109.674 Y156.482 E.02151
G1 X109.051 Y156.194 E.02152
G1 X108.457 Y155.758 E.0231
G1 X107.992 Y155.248 E.02164
G1 X107.636 Y154.661 E.02153
G1 X107.386 Y153.966 E.02316
G1 X107.285 Y153.285 E.02159
G1 X107.335 Y152.488 E.02504
G1 X107.496 Y151.885 E.01957
;WIDTH:0.457434
G1 X107.578 Y151.67 E.00793
;WIDTH:0.494868
G1 X107.66 Y151.454 E.00868
;WIDTH:0.532302
G1 X107.713 Y151.313 E.00613
M204 S1000
G1 X108.209 Y151.327 F10800
M204 S800
;TYPE:External perimeter
;WIDTH:0.419999
G1 F1200
G1 X108.5 Y150.941 E.01516
G1 X108.997 Y150.502 E.02079
G1 X109.53 Y150.194 E.0193
G1 X110.11 Y149.994 E.01924
G1 X110.767 Y149.907 E.02078
G1 X111.379 Y149.948 E.01923
G1 X111.974 Y150.106 E.0193
G1 X112.567 Y150.4 E.02075
G1 X113.052 Y150.775 E.01922
G1 X113.456 Y151.236 E.01922
G1 X113.766 Y151.768 E.01931
G1 X113.979 Y152.394 E.02073
G1 X114.058 Y153.003 E.01925
G1 X114.019 Y153.614 E.0192
G1 X113.863 Y154.21 E.01932
G1 X113.572 Y154.804 E.02074
G1 X113.199 Y155.291 E.01923
G1 X112.738 Y155.697 E.01926
G1 X112.209 Y156.009 E.01926
G1 X111.584 Y156.225 E.02073
G1 X110.973 Y156.306 E.01933
G1 X110.365 Y156.27 E.0191
G1 X109.77 Y156.117 E.01926
G1 X109.215 Y155.854 E.01926
G1 X108.685 Y155.458 E.02074
G1 X108.275 Y154.998 E.01932
G1 X107.961 Y154.47 E.01926
G1 X107.743 Y153.844 E.02078
G1 X107.659 Y153.236 E.01924
G1 X107.699 Y152.586 E.02042
G1 X107.86 Y151.983 E.01957
G1 X108.173 Y151.375 E.02144
M204 S1000
G1 X108.021 Y150.973 F10800
;WIPE_START
G1 F8640
G1 X108.5 Y150.941 E-.12547
G1 X108.997 Y150.502 E-.15312
G1 X109.53 Y150.194 E-.14214
G1 X110.11 Y149.994 E-.14166
G1 X110.767 Y149.907 E-.15303
G1 X111.132 Y149.931 E-.08458
;WIPE_END
G1 Z.6 F720
G1 X107.196 Y151.149 F10800
G1 Z.2 F720
G1 E.8 F2100
M204 S800
;TYPE:Solid infill
;WIDTH:0.426196
G1 F1200
G1 X107.322 Y151.275 E.00568
G1 X107.199 Y151.694 E.01392
G1 X106.996 Y151.491 E.00915
G1 X106.725 Y151.762 E.01221
G1 X107.088 Y152.124 E.01634
G1 X106.98 Y152.559 E.01428
G1 X106.454 Y152.033 E.02371
G1 X106.183 Y152.304 E.01221
G1 X106.948 Y153.069 E.03448
G1 X106.942 Y153.169 E.00319
G1 X106.997 Y153.66 E.01575
G1 X105.912 Y152.575 E.0489
G1 X105.641 Y152.846 E.01221
G1 X107.446 Y154.651 E.08135
M204 S1000
;WIPE_START
G1 F8640
G1 X105.641 Y152.846 E-.58942
G1 X105.912 Y152.575 E-.08849
G1 X106.286 Y152.949 E-.12209
;WIPE_END
G1 Z.6 F720
G1 X112.519 Y156.472 F10800
G1 Z.2 F720
G1 E.8 F2100
M204 S800
G1 F1200
G1 X112.721 Y156.674 E.0091
G1 X112.661 Y156.782 E.00394
G1 X112.474 Y156.969 E.00843
G1 X112.251 Y156.746 E.01005
G1 X111.852 Y156.889 E.01351
G1 X112.203 Y157.24 E.01582
G1 X111.932 Y157.511 E.01221
G1 X111.396 Y156.975 E.02416
G1 X111.051 Y157.018 E.01108
G1 X110.89 Y157.011 E.00514
G1 X111.661 Y157.782 E.03475
G1 X111.39 Y158.053 E.01221
G1 X110.322 Y156.985 E.04814
G1 X109.611 Y156.816 E.02329
G1 X111.119 Y158.324 E.06797
G1 X110.848 Y158.595 E.01221
G1 X105.37 Y153.117 E.2469
G1 X105.099 Y153.388 E.01221
M73 Q1 S100
G1 X110.577 Y158.866 E.2469
G1 X110.306 Y159.137 E.01221
M73 P1 R99
M73 Q1 S99
G1 X104.828 Y153.659 E.2469
G1 X104.557 Y153.93 E.01221
G1 X110.035 Y159.408 E.2469
G1 X109.764 Y159.679 E.01221
G1 X104.286 Y154.201 E.2469
G1 X104.015 Y154.472 E.01221
G1 X109.493 Y159.95 E.2469
G1 X109.222 Y160.221 E.01221
G1 X103.744 Y154.743 E.2469
G1 X103.473 Y155.014 E.01221
G1 X108.951 Y160.492 E.2469
G1 X108.68 Y160.763 E.01221
G1 X103.202 Y155.285 E.2469
G1 X102.931 Y155.556 E.01221
G1 X108.409 Y161.034 E.2469
G1 X108.138 Y161.305 E.01221
G1 X102.66 Y155.827 E.2469
G1 X102.388 Y156.098 E.01224
G1 X107.867 Y161.576 E.24692
G1 X107.596 Y161.847 E.01221
G1 X102.117 Y156.369 E.24692
G1 X101.846 Y156.64 E.01221
G1 X107.444 Y162.238 E.2523
M204 S1000
;WIPE_START
G1 F8640
G1 X104.994 Y159.788 E-.8
;WIPE_END
G1 Z.6 F720
G1 X121.342 Y137.003 F10800
G1 Z.2 F720
G1 E.8 F2100
M204 S800
;WIDTH:0.424736
G1 F1200
G1 X121.468 Y137.13 E.00568
G1 X121.347 Y137.549 E.01385
G1 X121.142 Y137.344 E.0092
G1 X120.872 Y137.614 E.01212
G1 X121.227 Y137.968 E.01592
G1 X121.157 Y138.21 E.008
G1 X121.127 Y138.408 E.00636
G1 X120.602 Y137.884 E.02355
G1 X120.332 Y138.154 E.01212
G1 X121.092 Y138.913 E.0341
G1 X121.084 Y139.018 E.00334
G1 X121.137 Y139.499 E.01536
G1 X120.063 Y138.424 E.04824
G1 X119.793 Y138.694 E.01212
G1 X121.572 Y140.473 E.07987
M204 S1000
;WIPE_START
G1 F8640
G1 X119.793 Y138.694 E-.58093
G1 X120.063 Y138.424 E-.08817
G1 X120.464 Y138.825 E-.1309
;WIPE_END
G1 Z.6 F720
G1 X126.666 Y142.328 F10800
G1 Z.2 F720
G1 E.8 F2100
M204 S800
G1 F1200
G1 X126.866 Y142.528 E.00898
G1 X126.805 Y142.638 E.00399
G1 X126.62 Y142.822 E.00828
G1 X126.404 Y142.606 E.0097
G1 X125.994 Y142.736 E.01366
G1 X126.351 Y143.092 E.01601
G1 X126.081 Y143.362 E.01212
G1 X125.549 Y142.831 E.02386
G1 X125.193 Y142.876 E.01139
G1 X125.048 Y142.87 E.00461
G1 X125.811 Y143.632 E.03424
G1 X125.541 Y143.902 E.01212
G1 X124.482 Y142.844 E.04753
G1 X123.779 Y142.68 E.02292
G1 X125.271 Y144.172 E.06699
G1 X125.001 Y144.442 E.01212
G1 X119.523 Y138.964 E.24595
G1 X119.253 Y139.234 E.01212
G1 X124.731 Y144.712 E.24595
G1 X124.461 Y144.982 E.01212
G1 X118.983 Y139.504 E.24595
G1 X118.713 Y139.774 E.01212
G1 X124.191 Y145.252 E.24595
G1 X123.921 Y145.522 E.01212
G1 X118.443 Y140.044 E.24595
G1 X118.173 Y140.314 E.01212
G1 X123.651 Y145.792 E.24595
G1 X123.381 Y146.062 E.01212
G1 X117.903 Y140.584 E.24595
G1 X117.633 Y140.854 E.01212
G1 X123.111 Y146.332 E.24595
G1 X122.841 Y146.602 E.01212
G1 X117.363 Y141.124 E.24595
G1 X117.093 Y141.394 E.01212
G1 X122.571 Y146.872 E.24595
G1 X122.301 Y147.142 E.01212
G1 X116.823 Y141.664 E.24595
G1 X116.553 Y141.934 E.01212
G1 X122.031 Y147.412 E.24595
G1 X121.761 Y147.682 E.01212
G1 X116.283 Y142.204 E.24595
G1 X116.013 Y142.474 E.01212
G1 X121.491 Y147.952 E.24595
G1 X121.221 Y148.222 E.01212
G1 X115.743 Y142.744 E.24595
G1 X115.473 Y143.014 E.01212
G1 X120.951 Y148.492 E.24595
G1 X120.681 Y148.762 E.01212
G1 X115.203 Y143.284 E.24595
G1 X114.933 Y143.554 E.01212
G1 X120.411 Y149.032 E.24595
G1 X120.141 Y149.302 E.01212
G1 X114.663 Y143.824 E.24595
G1 X114.393 Y144.094 E.01212
G1 X119.871 Y149.572 E.24595
G1 X119.601 Y149.842 E.01212
G1 X114.123 Y144.364 E.24595
G1 X113.853 Y144.634 E.01212
G1 X119.331 Y150.112 E.24595
