; generated by PrusaSlicer 2.6.0+win64 on 2023-10-02 at 12:43:12 UTC


;
;
; 

; external perimeters extrusion width = 0.45mm
; perimeters extrusion width = 0.45mm
; infill extrusion width = 0.45mm
; solid infill extrusion width = 0.45mm
; top infill extrusion width = 0.40mm
; first layer extrusion width = 0.42mm

M73 P0 R47
M73 Q0 S47
M201 X1000 Y1000 Z200 E5000 ; sets maximum accelerations, mm/sec^2
M203 X200 Y200 Z12 E120 ; sets maximum feedrates, mm / sec
M204 S1250 T1250 ; sets acceleration (S) and retract acceleration (R), mm/sec^2
M205 X8.00 Y8.00 Z0.40 E4.50 ; sets the jerk limits, mm/sec
M205 S0 T0 ; sets the minimum extruding and travel feed rate, mm/sec
;TYPE:Custom
M862.3 P "MK3S" ; printer model check
M862.1 P0.4 ; nozzle diameter check
M115 U3.12.2 ; tell printer latest fw version
G90 ; use absolute coordinates
M83 ; extruder relative mode
M104 S215 ; set extruder temp
M140 S60 ; set bed temp
M190 S60 ; wait for bed temp
M109 S215 ; wait for extruder temp
G28 W ; home all without mesh bed level
G80 ; mesh bed leveling

G1 Z0.2 F720
G1 Y-3 F1000 ; go outside print area
G92 E0
G1 X60 E9 F1000 ; intro line
G1 X100 E12.5 F1000 ; intro line

G92 E0
M221 S95

; Don't change E values below. Excessive value can damage the printer.

M907 E538 ; set extruder motor current
G21 ; set units to millimeters
G90 ; use absolute coordinates
M83 ; use relative distances for extrusion
M900 K0.05 ; Filament gcode LA 1.5
M900 K30 ; Filament gcode LA 1.0
M107
;LAYER_CHANGE
;Z:0.2
;HEIGHT:0.2
;BEFORE_LAYER_CHANGE
G92 E0.0
;0.2


G1 E-.8 F2100
G1 Z.4 F720
;AFTER_LAYER_CHANGE
;0.2
G1 X136.271 Y53.633 F10800
G1 Z.2 F720
G1 E.8 F2100
M204 S800
;TYPE:Skirt/Brim
;WIDTH:0.42
G1 F1200
G1 X137.537 Y50.416 E.1084
G1 X138.38 Y49.343 E.04278
G1 X139.749 Y48.91 E.04502
G1 X149.749 Y48.91 E.31354
G1 X151.056 Y49.301 E.04277
G1 X151.932 Y50.347 E.04278
G1 X152.126 Y51.287 E.03009
G1 X152.126 Y116.287 E2.03803
G1 X151.43 Y117.968 E.05705
G1 X109.003 Y160.394 E1.88126
G1 X107.802 Y161.041 E.04277
G1 X106.443 Y160.922 E.04277
G1 X105.641 Y160.394 E.03011
G1 X98.57 Y153.323 E.31354
G1 X97.923 Y152.122 E.04277
G1 X98.039 Y150.772 E.04248
G1 X136.249 Y53.689 E3.27125
M204 S1000
; printing object 2_side_axis_end_switch_holder.stl id:0 copy 0
;WIPE_START
G1 F8640
G1 X137.518 Y50.465 E-.8
;WIPE_END
G1 Z.6 F720
G1 X140.521 Y112.309 F10800
G1 Z.2 F720
G1 E.8 F2100
M204 S800
;TYPE:Perimeter
;WIDTH:0.419999
G1 F1200
G1 X140.536 Y112.236 E.00234
G1 X140.536 Y52.074 E1.88633
G1 X148.962 Y52.074 E.26419
G1 X148.962 Y56.287 E.1321
G1 X148.962 Y115.961 E1.87103
G1 X129.059 Y135.863 E.88251
;WIDTH:0.462001
M73 P0 R46
G1 X128.911 Y135.982 E.00662
;WIDTH:0.504003
M73 P1 R46
M73 Q1 S47
G1 X128.762 Y136.101 E.00731
;WIDTH:0.546005
G1 X128.613 Y136.22 E.00798
;WIDTH:0.588007
G1 X128.465 Y136.339 E.00861
G1 X127.946 Y136.885 E.03414
;WIDTH:0.57386
G1 X127.495 Y137.319 E.02763
G1 X127.442 Y137.396 E.00413
;WIDTH:0.538525
G1 X127.39 Y137.473 E.00383
;WIDTH:0.503189
G1 X127.201 Y137.692 E.01107
;WIDTH:0.461594
G1 X127.011 Y137.912 E.01012
;WIDTH:0.419999
G1 X114.957 Y149.966 E.53449
;WIDTH:0.462063
G1 X114.798 Y150.094 E.00711
;WIDTH:0.504127
G1 X114.64 Y150.223 E.00782
;WIDTH:0.546191
G1 X114.482 Y150.351 E.00851
;WIDTH:0.588255
G1 X114.324 Y150.479 E.00922
G1 X113.809 Y151.021 E.0339
;WIDTH:0.58358
G1 X113.266 Y151.54 E.03377
G1 X113.179 Y151.657 E.00655
;WIDTH:0.542685
G1 X113.091 Y151.774 E.00608
;WIDTH:0.50179
G1 X113.003 Y151.89 E.00556
;WIDTH:0.460895
G1 X112.916 Y152.007 E.00507
;WIDTH:0.419999
G1 X107.322 Y157.6 E.24802
G1 X101.364 Y151.642 E.26419
G1 X106.774 Y146.233 E.23987
;WIDTH:0.46293
G1 X106.923 Y146.114 E.00666
;WIDTH:0.50586
G1 X107.071 Y145.996 E.00729
;WIDTH:0.54879
G1 X107.22 Y145.878 E.00799
;WIDTH:0.59172
G1 X107.369 Y145.759 E.0087
G1 X107.888 Y145.211 E.03444
;WIDTH:0.58661
G1 X108.473 Y144.652 E.03658
G1 X108.56 Y144.535 E.00659
;WIDTH:0.544958
G1 X108.648 Y144.418 E.00611
;WIDTH:0.503305
G1 X108.735 Y144.301 E.00558
;WIDTH:0.461652
G1 X108.823 Y144.184 E.0051
;WIDTH:0.419999
G1 X120.918 Y132.088 E.53633
;WIDTH:0.462672
G1 X121.069 Y131.968 E.00673
;WIDTH:0.505345
G1 X121.219 Y131.848 E.00739
;WIDTH:0.548018
G1 X121.369 Y131.728 E.00807
;WIDTH:0.59069
G1 X121.519 Y131.608 E.00875
G1 X122.071 Y131.027 E.0365
;WIDTH:0.586623
G1 X122.615 Y130.509 E.03396
G1 X122.702 Y130.392 E.00659
;WIDTH:0.544967
G1 X122.79 Y130.275 E.00611
;WIDTH:0.503311
G1 X122.877 Y130.159 E.00555
;WIDTH:0.461655
G1 X122.965 Y130.042 E.0051
;WIDTH:0.419999
G1 X140.37 Y112.636 E.77179
G1 X140.493 Y112.453 E.00691
G1 X140.51 Y112.367 E.00275
M204 S1000
G1 X140.159 Y112.204 F10800
M204 S800
;TYPE:External perimeter
G1 F1200
G1 X140.159 Y51.697 E1.89715
G1 X149.339 Y51.697 E.28783
M73 Q1 S46
G1 X149.339 Y116.117 E2.01984
G1 X107.322 Y158.133 E1.86308
G1 X100.831 Y151.642 E.28782
G1 X140.104 Y112.37 E1.74141
G1 X140.148 Y112.262 E.00366
M204 S1000
G1 X140.545 Y112.1 F10800
;WIPE_START
G1 F8640
G1 X140.149 Y108.797 E-.8
;WIPE_END
G1 Z.6 F720
G1 X127.914 Y131.899 F10800
G1 Z.2 F720
G1 E.8 F2100
M204 S800
;TYPE:Perimeter
G1 F1200
G1 X128.257 Y132.486 E.02132
G1 X128.48 Y133.137 E.02158
G1 X128.574 Y133.819 E.02159
G1 X128.537 Y134.502 E.02145
G1 X128.351 Y135.215 E.0231
;WIDTH:0.45805
G1 X128.267 Y135.43 E.00797
;WIDTH:0.4961
G1 X128.183 Y135.646 E.00873
;WIDTH:0.53415
G1 X128.1 Y135.862 E.00945
;WIDTH:0.561079
G1 X128.078 Y135.92 E.00267
;WIDTH:0.588007
G1 X128.057 Y135.979 E.00284
G1 X127.689 Y136.422 E.0261
;WIDTH:0.57386
G1 X127.134 Y136.93 E.03322
G1 X126.972 Y137.002 E.00783
;WIDTH:0.535395
G1 X126.81 Y137.074 E.00726
;WIDTH:0.49693
G1 X126.648 Y137.146 E.00669
;WIDTH:0.458465
G1 X126.487 Y137.218 E.00609
;WIDTH:0.419999
G1 X125.842 Y137.441 E.0214
G1 X125.161 Y137.538 E.02157
G1 X124.425 Y137.495 E.02312
G1 X123.76 Y137.32 E.02156
G1 X123.14 Y137.02 E.0216
G1 X122.594 Y136.612 E.02137
G1 X122.136 Y136.107 E.02138
G1 X121.779 Y135.521 E.02151
G1 X121.528 Y134.824 E.02323
G1 X121.427 Y134.141 E.02165
G1 X121.467 Y133.405 E.02311
G1 X121.64 Y132.737 E.02164
;WIDTH:0.457487
G1 X121.722 Y132.522 E.00793
;WIDTH:0.494975
G1 X121.804 Y132.307 E.00865
;WIDTH:0.532463
G1 X121.886 Y132.093 E.00933
;WIDTH:0.561577
G1 X121.908 Y132.031 E.00284
;WIDTH:0.59069
G1 X121.929 Y131.97 E.00294
G1 X122.328 Y131.489 E.02846
;WIDTH:0.571568
G1 X122.845 Y131.015 E.03083
;WIDTH:0.586623
G1 X122.942 Y130.938 E.0056
G1 X123.078 Y130.884 E.00662
;WIDTH:0.544967
G1 X123.214 Y130.831 E.00609
;WIDTH:0.503311
G1 X123.349 Y130.777 E.00557
;WIDTH:0.461655
G1 X123.485 Y130.724 E.00508
;WIDTH:0.419999
G1 X124.13 Y130.495 E.02146
G1 X124.861 Y130.39 E.02316
G1 X125.548 Y130.43 E.02158
G1 X126.213 Y130.599 E.02151
G1 X126.832 Y130.892 E.02147
G1 X127.423 Y131.334 E.02314
G1 X127.883 Y131.847 E.0216
M204 S1000
G1 X127.858 Y132.548 F10800
M204 S800
;TYPE:External perimeter
G1 F1200
G1 X127.929 Y132.671 E.00445
G1 X128.122 Y133.254 E.01926
G1 X128.2 Y133.865 E.01931
G1 X128.16 Y134.476 E.0192
G1 X127.988 Y135.114 E.02072
G1 X127.712 Y135.665 E.01932
G1 X127.339 Y136.15 E.01918
G1 X126.838 Y136.585 E.0208
G1 X126.303 Y136.889 E.01929
G1 X125.724 Y137.083 E.01915
G1 X125.113 Y137.164 E.01933
G1 X124.453 Y137.119 E.02074
G1 X123.862 Y136.957 E.01921
G1 X123.31 Y136.683 E.01932
G1 X122.824 Y136.313 E.01915
G1 X122.419 Y135.858 E.0191
G1 X122.104 Y135.33 E.01928
G1 X121.885 Y134.702 E.02085
G1 X121.801 Y134.092 E.01931
G1 X121.843 Y133.431 E.02077
G1 X122.004 Y132.837 E.0193
G1 X122.274 Y132.286 E.01924
G1 X122.678 Y131.761 E.02077
G1 X123.14 Y131.358 E.01922
G1 X123.672 Y131.051 E.01926
G1 X124.251 Y130.852 E.0192
G1 X124.909 Y130.764 E.02081
G1 X125.521 Y130.806 E.01923
G1 X126.114 Y130.963 E.01923
G1 X126.665 Y131.23 E.0192
G1 X127.193 Y131.632 E.02081
G1 X127.6 Y132.097 E.01938
G1 X127.829 Y132.496 E.01442
M204 S1000
G1 X128 Y132.544 F10800
;WIPE_START
G1 F8640
G1 X127.929 Y132.671 E-.04654
G1 X128.122 Y133.254 E-.1418
G1 X128.2 Y133.865 E-.14223
G1 X128.16 Y134.476 E-.14138
G1 X127.988 Y135.114 E-.15258
G1 X127.712 Y135.665 E-.1423
G1 X127.624 Y135.779 E-.03317
;WIPE_END
G1 Z.6 F720
G1 X107.735 Y146.257 F10800
G1 Z.2 F720
G1 E.8 F2100
M204 S800
;TYPE:Perimeter
;WIDTH:0.532301
G1 F1200
G1 X107.741 Y146.239 E.00077
;WIDTH:0.562011
G1 X107.761 Y146.179 E.00273
;WIDTH:0.59172
G1 X107.781 Y146.12 E.00284
G1 X108.147 Y145.672 E.0264
;WIDTH:0.571286
G1 X108.699 Y145.161 E.03305
;WIDTH:0.58661
G1 X108.8 Y145.08 E.00585
G1 X108.936 Y145.026 E.00662
;WIDTH:0.544958
G1 X109.071 Y144.973 E.00605
;WIDTH:0.503305
G1 X109.207 Y144.919 E.0056
;WIDTH:0.461652
G1 X109.343 Y144.866 E.00508
;WIDTH:0.419999
G1 X109.99 Y144.636 E.02153
G1 X110.719 Y144.532 E.02309
G1 X111.406 Y144.572 E.02158
G1 X112.073 Y144.742 E.02158
G1 X112.736 Y145.063 E.0231
G1 X113.285 Y145.479 E.0216
G1 X113.741 Y145.989 E.02145
G1 X114.093 Y146.58 E.02157
G1 X114.337 Y147.275 E.0231
G1 X114.432 Y147.957 E.02159
G1 X114.395 Y148.64 E.02145
G1 X114.227 Y149.307 E.02157
;WIDTH:0.456961
G1 X114.138 Y149.537 E.00849
;WIDTH:0.493923
G1 X114.049 Y149.767 E.00925
;WIDTH:0.530885
G1 X113.959 Y149.997 E.01002
;WIDTH:0.55957
G1 X113.938 Y150.058 E.00277
;WIDTH:0.588255
G1 X113.916 Y150.119 E.00294
G1 X113.547 Y150.564 E.02621
;WIDTH:0.569272
G1 X113.036 Y151.038 E.0305
;WIDTH:0.58358
G1 X112.94 Y151.115 E.00553
G1 X112.804 Y151.17 E.0066
;WIDTH:0.542685
G1 X112.669 Y151.225 E.00606
;WIDTH:0.50179
G1 X112.534 Y151.28 E.00556
;WIDTH:0.460895
G1 X112.399 Y151.335 E.00507
;WIDTH:0.419999
G1 X111.705 Y151.582 E.0231
G1 X111.021 Y151.68 E.02167
G1 X110.34 Y151.646 E.02138
G1 X109.674 Y151.482 E.02151
G1 X109.051 Y151.194 E.02152
G1 X108.457 Y150.758 E.0231
G1 X107.992 Y150.248 E.02164
G1 X107.636 Y149.661 E.02153
G1 X107.386 Y148.966 E.02316
G1 X107.285 Y148.285 E.02159
G1 X107.335 Y147.488 E.02504
G1 X107.496 Y146.885 E.01957
;WIDTH:0.457433
G1 X107.578 Y146.67 E.00793
;WIDTH:0.494867
G1 X107.66 Y146.454 E.00868
;WIDTH:0.532301
G1 X107.713 Y146.313 E.00613
M204 S1000
G1 X108.209 Y146.326 F10800
M204 S800
;TYPE:External perimeter
;WIDTH:0.419999
G1 F1200
G1 X108.5 Y145.941 E.01513
G1 X108.997 Y145.502 E.02079
G1 X109.53 Y145.194 E.0193
G1 X110.11 Y144.994 E.01924
G1 X110.767 Y144.907 E.02078
G1 X111.379 Y144.948 E.01923
G1 X111.974 Y145.106 E.0193
G1 X112.567 Y145.4 E.02075
G1 X113.052 Y145.775 E.01922
G1 X113.456 Y146.236 E.01922
G1 X113.766 Y146.768 E.01931
G1 X113.979 Y147.394 E.02073
G1 X114.058 Y148.003 E.01925
G1 X114.019 Y148.614 E.0192
G1 X113.863 Y149.21 E.01932
G1 X113.572 Y149.804 E.02074
G1 X113.197 Y150.292 E.0193
G1 X112.738 Y150.698 E.01921
G1 X112.209 Y151.009 E.01924
G1 X111.584 Y151.225 E.02073
G1 X110.973 Y151.306 E.01933
G1 X110.365 Y151.27 E.0191
G1 X109.77 Y151.117 E.01926
G1 X109.215 Y150.854 E.01926
G1 X108.685 Y150.458 E.02074
G1 X108.275 Y149.998 E.01932
G1 X107.961 Y149.47 E.01926
G1 X107.743 Y148.844 E.02078
G1 X107.659 Y148.236 E.01924
G1 X107.699 Y147.586 E.02042
G1 X107.86 Y146.983 E.01957
G1 X108.173 Y146.374 E.02147
M204 S1000
G1 X108.022 Y145.973 F10800
;WIPE_START
G1 F8640
G1 X108.5 Y145.941 E-.12529
G1 X108.997 Y145.502 E-.15312
G1 X109.53 Y145.194 E-.14214
G1 X110.11 Y144.994 E-.14166
G1 X110.767 Y144.907 E-.15303
G1 X111.133 Y144.932 E-.08476
;WIPE_END
G1 Z.6 F720
G1 X107.196 Y146.149 F10800
G1 Z.2 F720
G1 E.8 F2100
M204 S800
;TYPE:Solid infill
;WIDTH:0.426196
G1 F1200
G1 X107.322 Y146.275 E.00568
G1 X107.199 Y146.694 E.01392
G1 X106.996 Y146.491 E.00915
G1 X106.725 Y146.762 E.01221
G1 X107.088 Y147.124 E.01634
G1 X106.98 Y147.559 E.01428
G1 X106.454 Y147.033 E.02371
G1 X106.183 Y147.304 E.01221
G1 X106.948 Y148.069 E.03448
G1 X106.942 Y148.169 E.00319
G1 X106.997 Y148.66 E.01575
G1 X105.912 Y147.575 E.0489
G1 X105.641 Y147.846 E.01221
G1 X107.446 Y149.651 E.08135
M204 S1000
;WIPE_START
G1 F8640
G1 X105.641 Y147.846 E-.58942
G1 X105.912 Y147.575 E-.08849
G1 X106.286 Y147.949 E-.12209
;WIPE_END
G1 Z.6 F720
G1 X112.519 Y151.472 F10800
G1 Z.2 F720
G1 E.8 F2100
M204 S800
G1 F1200
G1 X112.721 Y151.674 E.0091
G1 X112.661 Y151.782 E.00394
G1 X112.474 Y151.969 E.00843
G1 X112.251 Y151.746 E.01005
G1 X111.852 Y151.889 E.01351
G1 X112.203 Y152.24 E.01582
G1 X111.932 Y152.511 E.01221
G1 X111.396 Y151.975 E.02416
G1 X111.051 Y152.018 E.01108
G1 X110.89 Y152.011 E.00514
G1 X111.661 Y152.782 E.03475
G1 X111.39 Y153.053 E.01221
G1 X110.322 Y151.985 E.04814
G1 X109.611 Y151.816 E.02329
G1 X111.119 Y153.324 E.06797
G1 X110.848 Y153.595 E.01221
G1 X105.37 Y148.117 E.2469
G1 X105.099 Y148.388 E.01221
G1 X110.577 Y153.866 E.2469
G1 X110.306 Y154.137 E.01221
G1 X104.828 Y148.659 E.2469
G1 X104.557 Y148.93 E.01221
G1 X110.035 Y154.408 E.2469
G1 X109.764 Y154.679 E.01221
G1 X104.286 Y149.201 E.2469
G1 X104.015 Y149.472 E.01221
G1 X109.493 Y154.95 E.2469
G1 X109.222 Y155.221 E.01221
M73 P2 R46
M73 Q2 S46
G1 X103.744 Y149.743 E.2469
G1 X103.473 Y150.014 E.01221
G1 X108.951 Y155.492 E.2469
G1 X108.68 Y155.763 E.01221
G1 X103.202 Y150.285 E.2469
G1 X102.931 Y150.556 E.01221
G1 X108.409 Y156.034 E.2469
G1 X108.138 Y156.305 E.01221
G1 X102.66 Y150.827 E.2469
G1 X102.388 Y151.098 E.01224
G1 X107.867 Y156.576 E.24692
G1 X107.596 Y156.847 E.01221
G1 X102.117 Y151.369 E.24692
G1 X101.846 Y151.64 E.01221
G1 X107.444 Y157.238 E.2523
M204 S1000
;WIPE_START
G1 F8640
G1 X104.994 Y154.788 E-.8
;WIPE_END
G1 Z.6 F720
G1 X121.325 Y132.014 F10800
G1 Z.2 F720
G1 E.8 F2100
M204 S800
;WIDTH:0.424329
G1 F1200
G1 X121.462 Y132.151 E.00614
G1 X121.341 Y132.57 E.01383
G1 X121.129 Y132.357 E.00953
G1 X120.859 Y132.627 E.01211
G1 X121.221 Y132.989 E.01624
G1 X121.157 Y133.21 E.0073
G1 X121.125 Y133.432 E.00711
G1 X120.59 Y132.897 E.024
G1 X120.32 Y133.166 E.01209
G1 X121.09 Y133.936 E.03454
G1 X121.084 Y134.018 E.00261
G1 X121.14 Y134.526 E.01621
G1 X120.05 Y133.436 E.04889
G1 X119.781 Y133.706 E.01209
G1 X121.605 Y135.531 E.08183
M204 S1000
;WIPE_START
G1 F8640
G1 X119.781 Y133.706 E-.59578
G1 X120.05 Y133.436 E-.088
G1 X120.406 Y133.792 E-.11622
;WIPE_END
G1 Z.6 F720
G1 X126.651 Y137.34 F10800
G1 Z.2 F720
G1 E.8 F2100
M204 S800
G1 F1200
G1 X126.86 Y137.549 E.00937
G1 X126.763 Y137.679 E.00514
G1 X126.607 Y137.835 E.007
G1 X126.388 Y137.616 E.00982
G1 X125.976 Y137.743 E.01367
G1 X126.337 Y138.105 E.01621
G1 X126.068 Y138.375 E.01209
G1 X125.522 Y137.829 E.02449
G1 X125.034 Y137.88 E.01556
G1 X125.798 Y138.644 E.03427
G1 X125.528 Y138.914 E.01211
G1 X124.451 Y137.837 E.0483
G1 X124.229 Y137.804 E.00712
G1 X123.728 Y137.653 E.01659
G1 X125.259 Y139.184 E.06867
G1 X124.989 Y139.454 E.01211
G1 X119.511 Y133.976 E.24569
G1 X119.241 Y134.245 E.01209
G1 X124.719 Y139.723 E.24569
G1 X124.45 Y139.993 E.01209
G1 X118.971 Y134.515 E.24571
G1 X118.702 Y134.785 E.01209
G1 X124.18 Y140.263 E.24569
G1 X123.91 Y140.532 E.01209
G1 X118.432 Y135.054 E.24569
G1 X118.162 Y135.324 E.01211
G1 X123.64 Y140.802 E.24569
G1 X123.371 Y141.072 E.01209
G1 X117.893 Y135.594 E.24569
G1 X117.623 Y135.863 E.01209
G1 X123.101 Y141.341 E.24569
G1 X122.831 Y141.611 E.01211
G1 X117.353 Y136.133 E.24569
G1 X117.084 Y136.403 E.01209
G1 X122.562 Y141.881 E.24569
G1 X122.292 Y142.151 E.01211
G1 X116.814 Y136.673 E.24569
G1 X116.544 Y136.942 E.01209
G1 X122.022 Y142.42 E.24569
G1 X121.753 Y142.69 E.01209
G1 X116.275 Y137.212 E.24569
G1 X116.005 Y137.482 E.01211
G1 X121.483 Y142.96 E.24569
G1 X121.213 Y143.229 E.01209
G1 X115.735 Y137.751 E.24569
G1 X115.465 Y138.021 E.01211
G1 X120.943 Y143.499 E.24569
G1 X120.674 Y143.769 E.01209
G1 X115.196 Y138.291 E.24569
G1 X114.926 Y138.56 E.01209
G1 X120.404 Y144.038 E.24569
G1 X120.134 Y144.308 E.01211
G1 X114.656 Y138.83 E.24569
G1 X114.387 Y139.1 E.01209
G1 X119.865 Y144.578 E.24569
G1 X119.595 Y144.848 E.01211
G1 X114.117 Y139.369 E.24571
G1 X113.847 Y139.639 E.01211
G1 X119.325 Y145.117 E.24569
G1 X119.056 Y145.387 E.01209
G1 X113.578 Y139.909 E.24569
G1 X113.308 Y140.179 E.01211
G1 X118.786 Y145.657 E.24569
G1 X118.516 Y145.926 E.01209
G1 X113.038 Y140.448 E.24569
G1 X112.768 Y140.718 E.01211
G1 X118.247 Y146.196 E.24571
G1 X117.977 Y146.466 E.01211
G1 X112.499 Y140.988 E.24569
G1 X112.229 Y141.257 E.01209
G1 X117.707 Y146.735 E.24569
