; generated by PrusaSlicer 2.6.0+win64 on 2024-01-07 at 21:40:10 UTC


;
;
; 

; external perimeters extrusion width = 0.45mm
; perimeters extrusion width = 0.45mm
; infill extrusion width = 0.45mm
; solid infill extrusion width = 0.45mm
; top infill extrusion width = 0.40mm
; first layer extrusion width = 0.42mm

; external perimeters extrusion width = 0.45mm
; perimeters extrusion width = 0.45mm
; infill extrusion width = 0.45mm
; solid infill extrusion width = 0.45mm
; top infill extrusion width = 0.40mm
; first layer extrusion width = 0.42mm

M73 P0 R473
M73 Q0 S496
M201 X1000 Y1000 Z200 E5000 ; sets maximum accelerations, mm/sec^2
M203 X200 Y200 Z12 E120 ; sets maximum feedrates, mm / sec
M204 S1250 T1250 ; sets acceleration (S) and retract acceleration (R), mm/sec^2
M205 X8.00 Y8.00 Z0.40 E4.50 ; sets the jerk limits, mm/sec
M205 S0 T0 ; sets the minimum extruding and travel feed rate, mm/sec
;TYPE:Custom
M862.3 P "MK3S" ; printer model check
M862.1 P0.4 ; nozzle diameter check
M115 U3.12.2 ; tell printer latest fw version
G90 ; use absolute coordinates
M83 ; extruder relative mode
M104 S215 ; set extruder temp
M140 S60 ; set bed temp
M190 S60 ; wait for bed temp
M109 S215 ; wait for extruder temp
G28 W ; home all without mesh bed level
G80 ; mesh bed leveling

G1 Z0.2 F720
G1 Y-3 F1000 ; go outside print area
G92 E0
G1 X60 E9 F1000 ; intro line
G1 X100 E12.5 F1000 ; intro line

G92 E0
M221 S95

; Don't change E values below. Excessive value can damage the printer.

M907 E538 ; set extruder motor current
G21 ; set units to millimeters
G90 ; use absolute coordinates
M83 ; use relative distances for extrusion
M900 K0.05 ; Filament gcode LA 1.5
M900 K30 ; Filament gcode LA 1.0
M107
;LAYER_CHANGE
;Z:0.2
;HEIGHT:0.2
;BEFORE_LAYER_CHANGE
G92 E0.0
;0.2


G1 E-.8 F2100
G1 Z.4 F720
;AFTER_LAYER_CHANGE
;0.2
G1 X2.692 Y11.937 F10800
G1 Z.2 F720
G1 E.8 F2100
M204 S800
;TYPE:Skirt/Brim
;WIDTH:0.42
G1 F1200
G1 X59.776 Y-.938 E1.83479
G1 X60.299 Y-.997 E.0165
G1 X186.869 Y-.997 E3.96851
G1 X187.365 Y-.944 E.01564
M73 P0 R472
G1 X248.739 Y12.15 E1.96765
G1 X249.935 Y12.806 E.04277
G1 X250.62 Y14.475 E.05657
G1 X250.62 Y206.475 E6.02003
G1 X250.228 Y207.782 E.04278
M73 Q0 S495
G1 X249.182 Y208.658 E.04278
G1 X248.243 Y208.852 E.03006
G1 X2.243 Y208.852 E7.71316
G1 X.935 Y208.461 E.0428
G1 X.059 Y207.415 E.04278
G1 X-.135 Y206.475 E.03009
G1 X-.135 Y14.475 E6.02003
G1 X.257 Y13.168 E.04278
G1 X1.72 Y12.156 E.05578
G1 X2.634 Y11.95 E.02938
M204 S1000
; printing object 2_cover_octagon.stl id:0 copy 0
;WIPE_START
G1 F8640
G1 X6.014 Y11.188 E-.8
;WIPE_END
G1 Z.6 F720
G1 X186.082 Y15.593 F10800
G1 Z.2 F720
G1 E.8 F2100
M204 S800
;TYPE:Perimeter
;WIDTH:0.419999
G1 F1200
G1 X61.086 Y15.593 E3.91916
G1 X61.086 Y2.167 E.42096
G1 X186.082 Y2.167 E3.91916
G1 X186.082 Y15.533 E.41908
M204 S1000
G1 X186.459 Y15.97 F10800
M204 S800
;TYPE:External perimeter
G1 F1200
G1 X60.709 Y15.97 E3.9428
G1 X60.709 Y1.79 E.4446
M73 P0 R471
G1 X186.459 Y1.79 E3.9428
G1 X186.459 Y15.91 E.44272
M204 S1000
M73 Q0 S494
G1 X186.059 Y15.955 F10800
;WIPE_START
G1 F8640
G1 X182.994 Y15.912 E-.8
;WIPE_END
G1 Z.6 F720
G1 X185.149 Y2.337 F10800
G1 Z.2 F720
G1 E.8 F2100
M204 S800
;TYPE:Solid infill
;WIDTH:0.420642
G1 F1200
G1 X185.743 Y2.931 E.02638
G1 X185.743 Y3.465 E.01677
G1 X184.784 Y2.507 E.04257
G1 X184.25 Y2.507 E.01677
G1 X185.743 Y3.999 E.06629
G1 X185.743 Y4.534 E.0168
G1 X183.716 Y2.507 E.09003
G1 X183.182 Y2.507 E.01677
G1 X185.743 Y5.068 E.11375
G1 X185.743 Y5.602 E.01677
G1 X182.648 Y2.507 E.13747
G1 X182.113 Y2.507 E.0168
G1 X185.743 Y6.136 E.16121
G1 X185.743 Y6.67 E.01677
G1 X181.579 Y2.507 E.18493
G1 X181.045 Y2.507 E.01677
G1 X185.743 Y7.205 E.20867
G1 X185.743 Y7.739 E.01677
G1 X180.511 Y2.507 E.23239
G1 X179.977 Y2.507 E.01677
G1 X185.743 Y8.273 E.25611
G1 X185.743 Y8.807 E.01677
G1 X179.443 Y2.507 E.27983
G1 X178.908 Y2.507 E.0168
G1 X185.743 Y9.341 E.30357
G1 X185.743 Y9.875 E.01677
G1 X178.374 Y2.507 E.32729
G1 X177.84 Y2.507 E.01677
G1 X185.743 Y10.41 E.35103
G1 X185.743 Y10.944 E.01677
G1 X177.306 Y2.507 E.37475
G1 X176.772 Y2.507 E.01677
G1 X185.743 Y11.478 E.39847
G1 X185.743 Y12.012 E.01677
G1 X176.237 Y2.507 E.42221
G1 X175.703 Y2.507 E.01677
G1 X185.743 Y12.546 E.44593
G1 X185.743 Y13.08 E.01677
G1 X175.169 Y2.507 E.46965
G1 X174.635 Y2.507 E.01677
G1 X185.743 Y13.615 E.49339
G1 X185.743 Y14.149 E.01677
G1 X174.101 Y2.507 E.51711
G1 X173.567 Y2.507 E.01677
G1 X185.743 Y14.683 E.54082
G1 X185.743 Y15.217 E.01677
G1 X173.032 Y2.507 E.56456
G1 X172.498 Y2.507 E.01677
G1 X185.245 Y15.254 E.56619
G1 X184.711 Y15.254 E.01677
G1 X171.964 Y2.507 E.56619
G1 X171.43 Y2.507 E.01677
G1 X184.177 Y15.254 E.56619
G1 X183.643 Y15.254 E.01677
G1 X170.896 Y2.507 E.56619
G1 X170.361 Y2.507 E.0168
G1 X183.109 Y15.254 E.56621
G1 X182.574 Y15.254 E.0168
G1 X169.827 Y2.507 E.56619
G1 X169.293 Y2.507 E.01677
G1 X182.04 Y15.254 E.56619
G1 X181.506 Y15.254 E.01677
G1 X168.759 Y2.507 E.56619
G1 X168.225 Y2.507 E.01677
G1 X180.972 Y15.254 E.56619
G1 X180.438 Y15.254 E.01677
G1 X167.691 Y2.507 E.56619
G1 X167.156 Y2.507 E.0168
G1 X179.903 Y15.254 E.56619
G1 X179.369 Y15.254 E.01677
G1 X166.622 Y2.507 E.56619
G1 X166.088 Y2.507 E.01677
G1 X178.835 Y15.254 E.56619
G1 X178.301 Y15.254 E.01677
G1 X165.554 Y2.507 E.56619
G1 X165.02 Y2.507 E.01677
G1 X177.767 Y15.254 E.56619
G1 X177.233 Y15.254 E.01677
G1 X164.485 Y2.507 E.56621
G1 X163.951 Y2.507 E.01677
G1 X176.698 Y15.254 E.56619
G1 X176.164 Y15.254 E.01677
G1 X163.417 Y2.507 E.56619
G1 X162.883 Y2.507 E.01677
G1 X175.63 Y15.254 E.56619
G1 X175.096 Y15.254 E.01677
G1 X162.349 Y2.507 E.56619
G1 X161.815 Y2.507 E.01677
G1 X174.562 Y15.254 E.56619
G1 X174.028 Y15.254 E.01677
G1 X161.28 Y2.507 E.56621
G1 X160.746 Y2.507 E.01677
G1 X173.493 Y15.254 E.56619
G1 X172.959 Y15.254 E.01677
G1 X160.212 Y2.507 E.56619
G1 X159.678 Y2.507 E.01677
G1 X172.425 Y15.254 E.56619
G1 X171.891 Y15.254 E.01677
G1 X159.144 Y2.507 E.56619
G1 X158.61 Y2.507 E.01677
G1 X171.357 Y15.254 E.56619
G1 X170.822 Y15.254 E.0168
G1 X158.075 Y2.507 E.56619
G1 X157.541 Y2.507 E.01677
G1 X170.288 Y15.254 E.56619
G1 X169.754 Y15.254 E.01677
G1 X157.007 Y2.507 E.56619
G1 X156.473 Y2.507 E.01677
G1 X169.22 Y15.254 E.56619
G1 X168.686 Y15.254 E.01677
G1 X155.939 Y2.507 E.56619
G1 X155.404 Y2.507 E.0168
G1 X168.152 Y15.254 E.56621
G1 X167.617 Y15.254 E.0168
G1 X154.87 Y2.507 E.56619
G1 X154.336 Y2.507 E.01677
G1 X167.083 Y15.254 E.56619
G1 X166.549 Y15.254 E.01677
G1 X153.802 Y2.507 E.56619
G1 X153.268 Y2.507 E.01677
G1 X166.015 Y15.254 E.56619
G1 X165.481 Y15.254 E.01677
G1 X152.734 Y2.507 E.56619
G1 X152.199 Y2.507 E.0168
G1 X164.946 Y15.254 E.56619
G1 X164.412 Y15.254 E.01677
G1 X151.665 Y2.507 E.56619
G1 X151.131 Y2.507 E.01677
G1 X163.878 Y15.254 E.56619
G1 X163.344 Y15.254 E.01677
M73 P0 R470
G1 X150.597 Y2.507 E.56619
G1 X150.063 Y2.507 E.01677
G1 X162.81 Y15.254 E.56619
G1 X162.276 Y15.254 E.01677
G1 X149.528 Y2.507 E.56621
G1 X148.994 Y2.507 E.01677
G1 X161.741 Y15.254 E.56619
G1 X161.207 Y15.254 E.01677
G1 X148.46 Y2.507 E.56619
G1 X147.926 Y2.507 E.01677
G1 X160.673 Y15.254 E.56619
G1 X160.139 Y15.254 E.01677
G1 X147.392 Y2.507 E.56619
G1 X146.858 Y2.507 E.01677
G1 X159.605 Y15.254 E.56619
G1 X159.07 Y15.254 E.0168
M73 Q0 S493
G1 X146.323 Y2.507 E.56619
G1 X145.789 Y2.507 E.01677
G1 X158.536 Y15.254 E.56619
G1 X158.002 Y15.254 E.01677
G1 X145.255 Y2.507 E.56619
G1 X144.721 Y2.507 E.01677
G1 X157.468 Y15.254 E.56619
G1 X156.934 Y15.254 E.01677
G1 X144.187 Y2.507 E.56619
G1 X143.652 Y2.507 E.0168
G1 X156.4 Y15.254 E.56621
G1 X155.865 Y15.254 E.0168
G1 X143.118 Y2.507 E.56619
G1 X142.584 Y2.507 E.01677
G1 X155.331 Y15.254 E.56619
G1 X154.797 Y15.254 E.01677
G1 X142.05 Y2.507 E.56619
G1 X141.516 Y2.507 E.01677
G1 X154.263 Y15.254 E.56619
G1 X153.729 Y15.254 E.01677
G1 X140.982 Y2.507 E.56619
G1 X140.447 Y2.507 E.0168
G1 X153.195 Y15.254 E.56621
G1 X152.66 Y15.254 E.0168
G1 X139.913 Y2.507 E.56619
G1 X139.379 Y2.507 E.01677
G1 X152.126 Y15.254 E.56619
G1 X151.592 Y15.254 E.01677
G1 X138.845 Y2.507 E.56619
G1 X138.311 Y2.507 E.01677
G1 X151.058 Y15.254 E.56619
G1 X150.524 Y15.254 E.01677
G1 X137.777 Y2.507 E.56619
G1 X137.242 Y2.507 E.0168
G1 X149.989 Y15.254 E.56619
G1 X149.455 Y15.254 E.01677
G1 X136.708 Y2.507 E.56619
G1 X136.174 Y2.507 E.01677
G1 X148.921 Y15.254 E.56619
G1 X148.387 Y15.254 E.01677
G1 X135.64 Y2.507 E.56619
G1 X135.106 Y2.507 E.01677
G1 X147.853 Y15.254 E.56619
G1 X147.319 Y15.254 E.01677
G1 X134.571 Y2.507 E.56621
G1 X134.037 Y2.507 E.01677
G1 X146.784 Y15.254 E.56619
G1 X146.25 Y15.254 E.01677
G1 X133.503 Y2.507 E.56619
G1 X132.969 Y2.507 E.01677
G1 X145.716 Y15.254 E.56619
G1 X145.182 Y15.254 E.01677
G1 X132.435 Y2.507 E.56619
G1 X131.901 Y2.507 E.01677
G1 X144.648 Y15.254 E.56619
G1 X144.113 Y15.254 E.0168
G1 X131.366 Y2.507 E.56619
G1 X130.832 Y2.507 E.01677
G1 X143.579 Y15.254 E.56619
G1 X143.045 Y15.254 E.01677
G1 X130.298 Y2.507 E.56619
G1 X129.764 Y2.507 E.01677
G1 X142.511 Y15.254 E.56619
G1 X141.977 Y15.254 E.01677
G1 X129.23 Y2.507 E.56619
G1 X128.695 Y2.507 E.0168
G1 X141.443 Y15.254 E.56621
G1 X140.908 Y15.254 E.0168
G1 X128.161 Y2.507 E.56619
G1 X127.627 Y2.507 E.01677
G1 X140.374 Y15.254 E.56619
G1 X139.84 Y15.254 E.01677
G1 X127.093 Y2.507 E.56619
G1 X126.559 Y2.507 E.01677
G1 X139.306 Y15.254 E.56619
G1 X138.772 Y15.254 E.01677
G1 X126.025 Y2.507 E.56619
G1 X125.49 Y2.507 E.0168
G1 X138.237 Y15.254 E.56619
G1 X137.703 Y15.254 E.01677
G1 X124.956 Y2.507 E.56619
G1 X124.422 Y2.507 E.01677
G1 X137.169 Y15.254 E.56619
G1 X136.635 Y15.254 E.01677
G1 X123.888 Y2.507 E.56619
G1 X123.354 Y2.507 E.01677
G1 X136.101 Y15.254 E.56619
G1 X135.567 Y15.254 E.01677
G1 X122.819 Y2.507 E.56621
G1 X122.285 Y2.507 E.01677
G1 X135.032 Y15.254 E.56619
G1 X134.498 Y15.254 E.01677
G1 X121.751 Y2.507 E.56619
G1 X121.217 Y2.507 E.01677
G1 X133.964 Y15.254 E.56619
G1 X133.43 Y15.254 E.01677
G1 X120.683 Y2.507 E.56619
G1 X120.149 Y2.507 E.01677
G1 X132.896 Y15.254 E.56619
G1 X132.362 Y15.254 E.01677
G1 X119.614 Y2.507 E.56621
G1 X119.08 Y2.507 E.01677
G1 X131.827 Y15.254 E.56619
G1 X131.293 Y15.254 E.01677
G1 X118.546 Y2.507 E.56619
G1 X118.012 Y2.507 E.01677
G1 X130.759 Y15.254 E.56619
G1 X130.225 Y15.254 E.01677
G1 X117.478 Y2.507 E.56619
G1 X116.944 Y2.507 E.01677
G1 X129.691 Y15.254 E.56619
G1 X129.156 Y15.254 E.0168
M73 P0 R469
G1 X116.409 Y2.507 E.56619
G1 X115.875 Y2.507 E.01677
G1 X128.622 Y15.254 E.56619
G1 X128.088 Y15.254 E.01677
G1 X115.341 Y2.507 E.56619
G1 X114.807 Y2.507 E.01677
G1 X127.554 Y15.254 E.56619
G1 X127.02 Y15.254 E.01677
G1 X114.273 Y2.507 E.56619
G1 X113.738 Y2.507 E.0168
G1 X126.486 Y15.254 E.56621
G1 X125.951 Y15.254 E.0168
G1 X113.204 Y2.507 E.56619
G1 X112.67 Y2.507 E.01677
G1 X125.417 Y15.254 E.56619
G1 X124.883 Y15.254 E.01677
M73 Q0 S492
G1 X112.136 Y2.507 E.56619
G1 X111.602 Y2.507 E.01677
G1 X124.349 Y15.254 E.56619
G1 X123.815 Y15.254 E.01677
G1 X111.068 Y2.507 E.56619
G1 X110.533 Y2.507 E.0168
G1 X123.28 Y15.254 E.56619
G1 X122.746 Y15.254 E.01677
G1 X109.999 Y2.507 E.56619
G1 X109.465 Y2.507 E.01677
G1 X122.212 Y15.254 E.56619
G1 X121.678 Y15.254 E.01677
G1 X108.931 Y2.507 E.56619
G1 X108.397 Y2.507 E.01677
G1 X121.144 Y15.254 E.56619
G1 X120.61 Y15.254 E.01677
G1 X107.862 Y2.507 E.56621
G1 X107.328 Y2.507 E.01677
G1 X120.075 Y15.254 E.56619
G1 X119.541 Y15.254 E.01677
G1 X106.794 Y2.507 E.56619
G1 X106.26 Y2.507 E.01677
G1 X119.007 Y15.254 E.56619
G1 X118.473 Y15.254 E.01677
G1 X105.726 Y2.507 E.56619
G1 X105.192 Y2.507 E.01677
G1 X117.939 Y15.254 E.56619
G1 X117.404 Y15.254 E.0168
G1 X104.657 Y2.507 E.56619
G1 X104.123 Y2.507 E.01677
G1 X116.87 Y15.254 E.56619
G1 X116.336 Y15.254 E.01677
G1 X103.589 Y2.507 E.56619
G1 X103.055 Y2.507 E.01677
G1 X115.802 Y15.254 E.56619
G1 X115.268 Y15.254 E.01677
G1 X102.521 Y2.507 E.56619
G1 X101.986 Y2.507 E.0168
G1 X114.734 Y15.254 E.56621
G1 X114.199 Y15.254 E.0168
G1 X101.452 Y2.507 E.56619
G1 X100.918 Y2.507 E.01677
G1 X113.665 Y15.254 E.56619
G1 X113.131 Y15.254 E.01677
G1 X100.384 Y2.507 E.56619
G1 X99.85 Y2.507 E.01677
G1 X112.597 Y15.254 E.56619
G1 X112.063 Y15.254 E.01677
G1 X99.316 Y2.507 E.56619
G1 X98.781 Y2.507 E.0168
G1 X111.529 Y15.254 E.56621
G1 X110.994 Y15.254 E.0168
G1 X98.247 Y2.507 E.56619
G1 X97.713 Y2.507 E.01677
G1 X110.46 Y15.254 E.56619
G1 X109.926 Y15.254 E.01677
G1 X97.179 Y2.507 E.56619
G1 X96.645 Y2.507 E.01677
G1 X109.392 Y15.254 E.56619
G1 X108.858 Y15.254 E.01677
G1 X96.111 Y2.507 E.56619
G1 X95.576 Y2.507 E.0168
G1 X108.323 Y15.254 E.56619
G1 X107.789 Y15.254 E.01677
G1 X95.042 Y2.507 E.56619
G1 X94.508 Y2.507 E.01677
G1 X107.255 Y15.254 E.56619
G1 X106.721 Y15.254 E.01677
G1 X93.974 Y2.507 E.56619
G1 X93.44 Y2.507 E.01677
G1 X106.187 Y15.254 E.56619
G1 X105.653 Y15.254 E.01677
G1 X92.905 Y2.507 E.56621
G1 X92.371 Y2.507 E.01677
G1 X105.118 Y15.254 E.56619
G1 X104.584 Y15.254 E.01677
G1 X91.837 Y2.507 E.56619
G1 X91.303 Y2.507 E.01677
G1 X104.05 Y15.254 E.56619
G1 X103.516 Y15.254 E.01677
G1 X90.769 Y2.507 E.56619
G1 X90.235 Y2.507 E.01677
G1 X102.982 Y15.254 E.56619
G1 X102.447 Y15.254 E.0168
G1 X89.7 Y2.507 E.56619
G1 X89.166 Y2.507 E.01677
G1 X101.913 Y15.254 E.56619
G1 X101.379 Y15.254 E.01677
G1 X88.632 Y2.507 E.56619
G1 X88.098 Y2.507 E.01677
G1 X100.845 Y15.254 E.56619
G1 X100.311 Y15.254 E.01677
G1 X87.564 Y2.507 E.56619
G1 X87.029 Y2.507 E.0168
G1 X99.777 Y15.254 E.56621
G1 X99.242 Y15.254 E.0168
G1 X86.495 Y2.507 E.56619
G1 X85.961 Y2.507 E.01677
G1 X98.708 Y15.254 E.56619
G1 X98.174 Y15.254 E.01677
G1 X85.427 Y2.507 E.56619
G1 X84.893 Y2.507 E.01677
G1 X97.64 Y15.254 E.56619
G1 X97.106 Y15.254 E.01677
G1 X84.359 Y2.507 E.56619
G1 X83.824 Y2.507 E.0168
G1 X96.571 Y15.254 E.56619
G1 X96.037 Y15.254 E.01677
G1 X83.29 Y2.507 E.56619
G1 X82.756 Y2.507 E.01677
G1 X95.503 Y15.254 E.56619
G1 X94.969 Y15.254 E.01677
M73 P0 R468
G1 X82.222 Y2.507 E.56619
G1 X81.688 Y2.507 E.01677
G1 X94.435 Y15.254 E.56619
G1 X93.901 Y15.254 E.01677
G1 X81.153 Y2.507 E.56621
G1 X80.619 Y2.507 E.01677
G1 X93.366 Y15.254 E.56619
G1 X92.832 Y15.254 E.01677
G1 X80.085 Y2.507 E.56619
G1 X79.551 Y2.507 E.01677
G1 X92.298 Y15.254 E.56619
G1 X91.764 Y15.254 E.01677
G1 X79.017 Y2.507 E.56619
G1 X78.483 Y2.507 E.01677
G1 X91.23 Y15.254 E.56619
G1 X90.695 Y15.254 E.0168
M73 Q0 S491
G1 X77.948 Y2.507 E.56619
G1 X77.414 Y2.507 E.01677
G1 X90.161 Y15.254 E.56619
G1 X89.627 Y15.254 E.01677
G1 X76.88 Y2.507 E.56619
G1 X76.346 Y2.507 E.01677
G1 X89.093 Y15.254 E.56619
G1 X88.559 Y15.254 E.01677
G1 X75.812 Y2.507 E.56619
G1 X75.277 Y2.507 E.0168
G1 X88.025 Y15.254 E.56621
G1 X87.49 Y15.254 E.0168
G1 X74.743 Y2.507 E.56619
G1 X74.209 Y2.507 E.01677
G1 X86.956 Y15.254 E.56619
G1 X86.422 Y15.254 E.01677
G1 X73.675 Y2.507 E.56619
G1 X73.141 Y2.507 E.01677
G1 X85.888 Y15.254 E.56619
G1 X85.354 Y15.254 E.01677
G1 X72.607 Y2.507 E.56619
G1 X72.072 Y2.507 E.0168
G1 X84.82 Y15.254 E.56621
G1 X84.285 Y15.254 E.0168
G1 X71.538 Y2.507 E.56619
G1 X71.004 Y2.507 E.01677
G1 X83.751 Y15.254 E.56619
G1 X83.217 Y15.254 E.01677
G1 X70.47 Y2.507 E.56619
G1 X69.936 Y2.507 E.01677
G1 X82.683 Y15.254 E.56619
G1 X82.149 Y15.254 E.01677
G1 X69.402 Y2.507 E.56619
G1 X68.867 Y2.507 E.0168
G1 X81.614 Y15.254 E.56619
G1 X81.08 Y15.254 E.01677
G1 X68.333 Y2.507 E.56619
G1 X67.799 Y2.507 E.01677
G1 X80.546 Y15.254 E.56619
G1 X80.012 Y15.254 E.01677
G1 X67.265 Y2.507 E.56619
G1 X66.731 Y2.507 E.01677
G1 X79.478 Y15.254 E.56619
G1 X78.944 Y15.254 E.01677
G1 X66.196 Y2.507 E.56621
G1 X65.662 Y2.507 E.01677
G1 X78.409 Y15.254 E.56619
G1 X77.875 Y15.254 E.01677
G1 X65.128 Y2.507 E.56619
G1 X64.594 Y2.507 E.01677
M73 P1 R468
G1 X77.341 Y15.254 E.56619
G1 X76.807 Y15.254 E.01677
G1 X64.06 Y2.507 E.56619
G1 X63.526 Y2.507 E.01677
G1 X76.273 Y15.254 E.56619
G1 X75.738 Y15.254 E.0168
G1 X62.991 Y2.507 E.56619
G1 X62.457 Y2.507 E.01677
G1 X75.204 Y15.254 E.56619
G1 X74.67 Y15.254 E.01677
G1 X61.923 Y2.507 E.56619
G1 X61.426 Y2.507 E.01561
G1 X61.426 Y2.544 E.00116
G1 X74.136 Y15.254 E.56454
G1 X73.602 Y15.254 E.01677
G1 X61.426 Y3.078 E.54082
G1 X61.426 Y3.612 E.01677
