; generated by PrusaSlicer 2.6.0+win64 on 2024-01-07 at 21:34:52 UTC


;
;
; 

; external perimeters extrusion width = 0.45mm
; perimeters extrusion width = 0.45mm
; infill extrusion width = 0.45mm
; solid infill extrusion width = 0.45mm
; top infill extrusion width = 0.40mm
; support material extrusion width = 0.35mm
; first layer extrusion width = 0.42mm

M73 P0 R344
M73 Q0 S360
M201 X1000 Y1000 Z200 E5000 ; sets maximum accelerations, mm/sec^2
M203 X200 Y200 Z12 E120 ; sets maximum feedrates, mm / sec
M204 S1250 T1250 ; sets acceleration (S) and retract acceleration (R), mm/sec^2
M205 X8.00 Y8.00 Z0.40 E4.50 ; sets the jerk limits, mm/sec
M205 S0 T0 ; sets the minimum extruding and travel feed rate, mm/sec
;TYPE:Custom
M862.3 P "MK3S" ; printer model check
M862.1 P0.4 ; nozzle diameter check
M115 U3.12.2 ; tell printer latest fw version
G90 ; use absolute coordinates
M83 ; extruder relative mode
M104 S215 ; set extruder temp
M140 S60 ; set bed temp
M190 S60 ; wait for bed temp
M109 S215 ; wait for extruder temp
G28 W ; home all without mesh bed level
G80 ; mesh bed leveling

G1 Z0.2 F720
G1 Y-3 F1000 ; go outside print area
G92 E0
G1 X60 E9 F1000 ; intro line
G1 X100 E12.5 F1000 ; intro line

G92 E0
M221 S95

; Don't change E values below. Excessive value can damage the printer.

M907 E538 ; set extruder motor current
G21 ; set units to millimeters
G90 ; use absolute coordinates
M83 ; use relative distances for extrusion
M900 K0.05 ; Filament gcode LA 1.5
M900 K30 ; Filament gcode LA 1.0
M107
;LAYER_CHANGE
;Z:0.2
;HEIGHT:0.2
;BEFORE_LAYER_CHANGE
G92 E0.0
;0.2


G1 E-.8 F2100
G1 Z.4 F720
;AFTER_LAYER_CHANGE
;0.2
G1 X6.87 Y2.058 F10800
G1 Z.2 F720
G1 E.8 F2100
M204 S800
;TYPE:Skirt/Brim
;WIDTH:0.42
G1 F1200
G1 X7.024 Y1.545 E.01679
G1 X8.07 Y.669 E.04278
G1 X9.01 Y.475 E.03009
G1 X181.284 Y.491 E5.40153
G1 X237.778 Y7.139 E1.78355
G1 X239.03 Y7.681 E.04278
M73 P0 R343
G1 X239.877 Y9.5 E.06291
G1 X239.877 Y203.5 E6.08273
G1 X239.485 Y204.807 E.04278
G1 X238.44 Y205.683 E.04275
G1 X237.5 Y205.877 E.03009
G1 X12.5 Y205.877 E7.05472
G1 X11.193 Y205.485 E.04278
G1 X10.317 Y204.44 E.04275
G1 X10.123 Y203.544 E.02874
G1 X6.633 Y13.397 E5.96293
G1 X6.633 Y2.852 E.33063
G1 X6.853 Y2.116 E.02409
M204 S1000
; printing object 5_cover_octagon_right_top_floor.stl id:0 copy 0
;WIPE_START
G1 F8640
G1 X7.024 Y1.545 E-.13763
G1 X8.07 Y.669 E-.31504
G1 X9.01 Y.475 E-.22162
G1 X9.554 Y.475 E-.12571
;WIPE_END
G1 Z.6 F720
G1 X61.038 Y5.159 F10800
G1 Z.2 F720
G1 E.8 F2100
M204 S800
;TYPE:Support material
G1 F1200
G1 X63.345 Y5.159 E.07233
G1 X63.345 Y12.118 E.21819
G1 X62.193 Y12.516 E.03822
M73 Q0 S359
G1 X61.943 Y11.955 E.01926
G1 X61.695 Y11.472 E.01702
G1 X61.423 Y11.003 E.017
G1 X61.124 Y10.545 E.01715
G1 X60.695 Y9.967 E.02257
G1 X60.225 Y9.418 E.02266
G1 X59.919 Y9.096 E.01393
G1 X59.739 Y9.02 E.00613
G1 X12.301 Y9.02 E1.48739
G1 X12.02 Y9.301 E.01246
G1 X12.02 Y13.353 E.12705
G1 X9.01 Y13.353 E.09438
G1 X9.01 Y2.852 E.32925
G1 X61.038 Y2.852 E1.6313
G1 X61.038 Y5.103 E.07058
M204 S1000
G1 X62.991 Y12.061 F10800
M204 S800
G1 F1200
G1 X62.991 Y5.499 E.20575
G1 X62.572 Y5.499 E.01314
G1 X62.572 Y12.026 E.20465
G1 X62.381 Y12.092 E.00634
G1 X62.153 Y11.615 E.01658
G1 X62.153 Y5.499 E.19176
G1 X61.734 Y5.499 E.01314
G1 X61.734 Y10.863 E.16818
G1 X61.316 Y10.228 E.02384
G1 X61.316 Y5.499 E.14827
G1 X60.897 Y5.499 E.01314
G1 X60.897 Y9.677 E.131
G1 X60.478 Y9.191 E.02012
G1 X60.478 Y3.192 E.18809
G1 X60.059 Y3.192 E.01314
G1 X60.059 Y8.787 E.17543
G1 X59.808 Y8.681 E.00854
G1 X59.64 Y8.681 E.00527
G1 X59.64 Y3.192 E.1721
G1 X59.221 Y3.192 E.01314
G1 X59.221 Y8.681 E.1721
G1 X58.802 Y8.681 E.01314
G1 X58.802 Y3.192 E.1721
G1 X58.383 Y3.192 E.01314
G1 X58.383 Y8.681 E.1721
G1 X57.964 Y8.681 E.01314
G1 X57.964 Y3.192 E.1721
G1 X57.545 Y3.192 E.01314
G1 X57.545 Y8.681 E.1721
G1 X57.126 Y8.681 E.01314
G1 X57.126 Y3.192 E.1721
G1 X56.707 Y3.192 E.01314
G1 X56.707 Y8.681 E.1721
G1 X56.288 Y8.681 E.01314
G1 X56.288 Y3.192 E.1721
G1 X55.869 Y3.192 E.01314
G1 X55.869 Y8.681 E.1721
G1 X55.45 Y8.681 E.01314
G1 X55.45 Y3.192 E.1721
G1 X55.031 Y3.192 E.01314
G1 X55.031 Y8.681 E.1721
G1 X54.612 Y8.681 E.01314
G1 X54.612 Y3.192 E.1721
G1 X54.193 Y3.192 E.01314
G1 X54.193 Y8.681 E.1721
G1 X53.774 Y8.681 E.01314
G1 X53.774 Y3.192 E.1721
G1 X53.355 Y3.192 E.01314
G1 X53.355 Y8.681 E.1721
G1 X52.936 Y8.681 E.01314
G1 X52.936 Y3.192 E.1721
G1 X52.517 Y3.192 E.01314
G1 X52.517 Y8.681 E.1721
G1 X52.098 Y8.681 E.01314
G1 X52.098 Y3.192 E.1721
G1 X51.679 Y3.192 E.01314
G1 X51.679 Y8.681 E.1721
G1 X51.26 Y8.681 E.01314
G1 X51.26 Y3.192 E.1721
G1 X50.841 Y3.192 E.01314
G1 X50.841 Y8.681 E.1721
G1 X50.422 Y8.681 E.01314
G1 X50.422 Y3.192 E.1721
G1 X50.003 Y3.192 E.01314
G1 X50.003 Y8.681 E.1721
G1 X49.584 Y8.681 E.01314
G1 X49.584 Y3.192 E.1721
G1 X49.165 Y3.192 E.01314
G1 X49.165 Y8.681 E.1721
G1 X48.746 Y8.681 E.01314
G1 X48.746 Y3.192 E.1721
G1 X48.327 Y3.192 E.01314
G1 X48.327 Y8.681 E.1721
G1 X47.908 Y8.681 E.01314
G1 X47.908 Y3.192 E.1721
G1 X47.489 Y3.192 E.01314
G1 X47.489 Y8.681 E.1721
G1 X47.07 Y8.681 E.01314
G1 X47.07 Y3.192 E.1721
G1 X46.651 Y3.192 E.01314
G1 X46.651 Y8.681 E.1721
G1 X46.232 Y8.681 E.01314
G1 X46.232 Y3.192 E.1721
G1 X45.813 Y3.192 E.01314
G1 X45.813 Y8.681 E.1721
G1 X45.394 Y8.681 E.01314
G1 X45.394 Y3.192 E.1721
G1 X44.975 Y3.192 E.01314
G1 X44.975 Y8.681 E.1721
G1 X44.556 Y8.681 E.01314
G1 X44.556 Y3.192 E.1721
G1 X44.137 Y3.192 E.01314
G1 X44.137 Y8.681 E.1721
G1 X43.718 Y8.681 E.01314
G1 X43.718 Y3.192 E.1721
G1 X43.299 Y3.192 E.01314
G1 X43.299 Y8.681 E.1721
G1 X42.881 Y8.681 E.01311
G1 X42.881 Y3.192 E.1721
G1 X42.462 Y3.192 E.01314
G1 X42.462 Y8.681 E.1721
G1 X42.043 Y8.681 E.01314
G1 X42.043 Y3.192 E.1721
G1 X41.624 Y3.192 E.01314
G1 X41.624 Y8.681 E.1721
G1 X41.205 Y8.681 E.01314
G1 X41.205 Y3.192 E.1721
G1 X40.786 Y3.192 E.01314
G1 X40.786 Y8.681 E.1721
G1 X40.367 Y8.681 E.01314
G1 X40.367 Y3.192 E.1721
G1 X39.948 Y3.192 E.01314
G1 X39.948 Y8.681 E.1721
G1 X39.529 Y8.681 E.01314
G1 X39.529 Y3.192 E.1721
G1 X39.11 Y3.192 E.01314
G1 X39.11 Y8.681 E.1721
G1 X38.691 Y8.681 E.01314
M73 P0 R342
G1 X38.691 Y3.192 E.1721
G1 X38.272 Y3.192 E.01314
G1 X38.272 Y8.681 E.1721
G1 X37.853 Y8.681 E.01314
G1 X37.853 Y3.192 E.1721
G1 X37.434 Y3.192 E.01314
G1 X37.434 Y8.681 E.1721
G1 X37.015 Y8.681 E.01314
G1 X37.015 Y3.192 E.1721
G1 X36.596 Y3.192 E.01314
G1 X36.596 Y8.681 E.1721
G1 X36.177 Y8.681 E.01314
G1 X36.177 Y3.192 E.1721
G1 X35.758 Y3.192 E.01314
G1 X35.758 Y8.681 E.1721
G1 X35.339 Y8.681 E.01314
G1 X35.339 Y3.192 E.1721
G1 X34.92 Y3.192 E.01314
G1 X34.92 Y8.681 E.1721
G1 X34.501 Y8.681 E.01314
G1 X34.501 Y3.192 E.1721
G1 X34.082 Y3.192 E.01314
G1 X34.082 Y8.681 E.1721
G1 X33.663 Y8.681 E.01314
G1 X33.663 Y3.192 E.1721
G1 X33.244 Y3.192 E.01314
G1 X33.244 Y8.681 E.1721
G1 X32.825 Y8.681 E.01314
G1 X32.825 Y3.192 E.1721
G1 X32.406 Y3.192 E.01314
G1 X32.406 Y8.681 E.1721
G1 X31.987 Y8.681 E.01314
G1 X31.987 Y3.192 E.1721
G1 X31.568 Y3.192 E.01314
G1 X31.568 Y8.681 E.1721
G1 X31.149 Y8.681 E.01314
G1 X31.149 Y3.192 E.1721
G1 X30.73 Y3.192 E.01314
G1 X30.73 Y8.681 E.1721
G1 X30.311 Y8.681 E.01314
G1 X30.311 Y3.192 E.1721
G1 X29.892 Y3.192 E.01314
G1 X29.892 Y8.681 E.1721
G1 X29.473 Y8.681 E.01314
G1 X29.473 Y3.192 E.1721
G1 X29.054 Y3.192 E.01314
G1 X29.054 Y8.681 E.1721
G1 X28.635 Y8.681 E.01314
G1 X28.635 Y3.192 E.1721
G1 X28.216 Y3.192 E.01314
G1 X28.216 Y8.681 E.1721
G1 X27.797 Y8.681 E.01314
G1 X27.797 Y3.192 E.1721
G1 X27.378 Y3.192 E.01314
G1 X27.378 Y8.681 E.1721
G1 X26.959 Y8.681 E.01314
G1 X26.959 Y3.192 E.1721
G1 X26.54 Y3.192 E.01314
G1 X26.54 Y8.681 E.1721
G1 X26.121 Y8.681 E.01314
G1 X26.121 Y3.192 E.1721
G1 X25.702 Y3.192 E.01314
G1 X25.702 Y8.681 E.1721
G1 X25.283 Y8.681 E.01314
G1 X25.283 Y3.192 E.1721
G1 X24.865 Y3.192 E.01311
G1 X24.865 Y8.681 E.1721
G1 X24.446 Y8.681 E.01314
G1 X24.446 Y3.192 E.1721
G1 X24.027 Y3.192 E.01314
G1 X24.027 Y8.681 E.1721
G1 X23.608 Y8.681 E.01314
G1 X23.608 Y3.192 E.1721
G1 X23.189 Y3.192 E.01314
G1 X23.189 Y8.681 E.1721
G1 X22.77 Y8.681 E.01314
G1 X22.77 Y3.192 E.1721
G1 X22.351 Y3.192 E.01314
G1 X22.351 Y8.681 E.1721
G1 X21.932 Y8.681 E.01314
G1 X21.932 Y3.192 E.1721
G1 X21.513 Y3.192 E.01314
G1 X21.513 Y8.681 E.1721
G1 X21.094 Y8.681 E.01314
G1 X21.094 Y3.192 E.1721
G1 X20.675 Y3.192 E.01314
G1 X20.675 Y8.681 E.1721
G1 X20.256 Y8.681 E.01314
G1 X20.256 Y3.192 E.1721
G1 X19.837 Y3.192 E.01314
G1 X19.837 Y8.681 E.1721
G1 X19.418 Y8.681 E.01314
G1 X19.418 Y3.192 E.1721
G1 X18.999 Y3.192 E.01314
G1 X18.999 Y8.681 E.1721
G1 X18.58 Y8.681 E.01314
G1 X18.58 Y3.192 E.1721
G1 X18.161 Y3.192 E.01314
G1 X18.161 Y8.681 E.1721
G1 X17.742 Y8.681 E.01314
G1 X17.742 Y3.192 E.1721
G1 X17.323 Y3.192 E.01314
G1 X17.323 Y8.681 E.1721
G1 X16.904 Y8.681 E.01314
G1 X16.904 Y3.192 E.1721
G1 X16.485 Y3.192 E.01314
G1 X16.485 Y8.681 E.1721
G1 X16.066 Y8.681 E.01314
G1 X16.066 Y3.192 E.1721
G1 X15.647 Y3.192 E.01314
G1 X15.647 Y8.681 E.1721
G1 X15.228 Y8.681 E.01314
G1 X15.228 Y3.192 E.1721
G1 X14.809 Y3.192 E.01314
G1 X14.809 Y8.681 E.1721
G1 X14.39 Y8.681 E.01314
G1 X14.39 Y3.192 E.1721
G1 X13.971 Y3.192 E.01314
G1 X13.971 Y8.681 E.1721
G1 X13.552 Y8.681 E.01314
G1 X13.552 Y3.192 E.1721
G1 X13.133 Y3.192 E.01314
G1 X13.133 Y8.681 E.1721
G1 X12.714 Y8.681 E.01314
G1 X12.714 Y3.192 E.1721
G1 X12.295 Y3.192 E.01314
G1 X12.295 Y8.681 E.1721
G1 X12.161 Y8.681 E.0042
G1 X11.876 Y8.965 E.01262
G1 X11.876 Y3.192 E.18101
G1 X11.457 Y3.192 E.01314
G1 X11.457 Y13.014 E.30796
G1 X11.038 Y13.014 E.01314
G1 X11.038 Y3.192 E.30796
G1 X10.619 Y3.192 E.01314
G1 X10.619 Y13.014 E.30796
G1 X10.2 Y13.014 E.01314
G1 X10.2 Y3.192 E.30796
G1 X9.781 Y3.192 E.01314
G1 X9.781 Y13.014 E.30796
G1 X9.362 Y13.014 E.01314
G1 X9.362 Y3.022 E.31329
M204 S1000
;WIPE_START
G1 F8640
G1 X9.362 Y6.487 E-.8
;WIPE_END
G1 Z.6 F720
G1 X52.528 Y55.83 F10800
G1 Z.2 F720
G1 E.8 F2100
M204 S800
G1 F1200
G1 X52.94 Y55.875 E.01299
G1 X53.338 Y55.998 E.01306
G1 X53.703 Y56.194 E.01299
G1 X54.05 Y56.482 E.01414
G1 X54.311 Y56.804 E.013
G1 X54.506 Y57.173 E.01309
G1 X54.634 Y57.605 E.01413
G1 X54.67 Y58.019 E.01303
G1 X54.619 Y58.468 E.01417
G1 X54.491 Y58.863 E.01302
G1 X54.291 Y59.225 E.01297
G1 X54.024 Y59.545 E.01307
G1 X53.703 Y59.806 E.01297
G1 X53.336 Y60.002 E.01305
G1 X52.904 Y60.132 E.01415
G1 X52.491 Y60.17 E.013
G1 X52.078 Y60.128 E.01302
G1 X51.681 Y60.01 E.01299
G1 X51.314 Y59.817 E.013
G1 X50.963 Y59.532 E.01418
G1 X50.7 Y59.211 E.01301
G1 X50.501 Y58.845 E.01306
G1 X50.37 Y58.413 E.01415
G1 X50.33 Y58.001 E.01298
G1 X50.37 Y57.587 E.01304
G1 X50.487 Y57.189 E.01301
G1 X50.698 Y56.79 E.01415
G1 X50.962 Y56.469 E.01303
G1 X51.281 Y56.205 E.01298
G1 X51.645 Y56.006 E.01301
G1 X52.041 Y55.879 E.01304
G1 X52.471 Y55.83 E.01357
M204 S1000
G1 X54.193 Y59.065 F10800
M204 S800
G1 F1200
G1 X54.193 Y57.303 E.05525
G1 X54.01 Y56.965 E.01205
G1 X53.774 Y56.685 E.01148
G1 X53.774 Y59.315 E.08246
G1 X53.566 Y59.488 E.00848
G1 X53.355 Y59.619 E.00779
G1 X53.355 Y56.381 E.10153
G1 X53.148 Y56.288 E.00712
G1 X52.936 Y56.222 E.00696
G1 X52.936 Y59.778 E.1115
G1 X52.517 Y59.83 E.01324
G1 X52.517 Y56.17 E.11476
G1 X52.098 Y56.214 E.01321
G1 X52.098 Y59.786 E.112
G1 X51.899 Y59.729 E.00649
G1 X51.679 Y59.636 E.00749
G1 X51.679 Y56.364 E.10259
G1 X51.471 Y56.486 E.00756
G1 X51.26 Y56.653 E.00844
G1 X51.26 Y59.347 E.08447
G1 X51.018 Y59.074 E.01144
G1 X50.841 Y58.774 E.01092
G1 X50.841 Y56.882 E.05932
M204 S1000
;WIPE_START
G1 F8640
G1 X50.841 Y58.774 E-.43687
G1 X51.018 Y59.074 E-.08043
G1 X51.26 Y59.347 E-.08424
G1 X51.26 Y58.488 E-.19846
;WIPE_END
G1 Z.6 F720
G1 X28.024 Y102.08 F10800
G1 Z.2 F720
G1 E.8 F2100
M204 S800
G1 F1200
G1 X28.39 Y102.12 E.01154
G1 X28.772 Y102.242 E.01257
G1 X29.091 Y102.42 E.01145
G1 X29.372 Y102.657 E.01153
G1 X29.602 Y102.941 E.01146
G1 X29.775 Y103.267 E.01157
G1 X29.888 Y103.65 E.01252
G1 X29.92 Y104.016 E.01152
G1 X29.875 Y104.415 E.01259
G1 X29.761 Y104.764 E.01151
G1 X29.585 Y105.084 E.01145
G1 X29.349 Y105.367 E.01155
G1 X29.037 Y105.616 E.01252
G1 X28.709 Y105.784 E.01155
G1 X28.357 Y105.887 E.0115
G1 X27.991 Y105.92 E.01152
G1 X27.594 Y105.877 E.01252
G1 X27.244 Y105.765 E.01152
G1 X26.922 Y105.589 E.01151
G1 X26.639 Y105.355 E.01151
G1 X26.406 Y105.071 E.01152
G1 X26.232 Y104.749 E.01148
G1 X26.122 Y104.399 E.0115
G1 X26.08 Y104.001 E.01255
G1 X26.122 Y103.603 E.01255
G1 X26.232 Y103.252 E.01153
G1 X26.406 Y102.93 E.01148
G1 X26.64 Y102.645 E.01156
G1 X26.922 Y102.412 E.01147
G1 X27.245 Y102.235 E.01155
G1 X27.594 Y102.123 E.01149
G1 X27.968 Y102.08 E.0118
M204 S1000
G1 X29.473 Y104.945 F10800
M204 S800
G1 F1200
G1 X29.473 Y103.428 E.04756
G1 X29.304 Y103.107 E.01137
G1 X29.054 Y102.822 E.01189
G1 X29.054 Y105.178 E.07387
G1 X28.854 Y105.33 E.00788
G1 X28.635 Y105.447 E.00779
G1 X28.635 Y102.553 E.09074
G1 X28.427 Y102.478 E.00693
G1 X28.216 Y102.434 E.00676
G1 X28.216 Y105.566 E.0982
G1 X28.022 Y105.58 E.0061
G1 X27.797 Y105.568 E.00706
G1 X27.797 Y102.432 E.09833
G1 X27.584 Y102.475 E.00681
G1 X27.378 Y102.547 E.00684
G1 X27.378 Y105.453 E.09112
G1 X27.159 Y105.338 E.00776
G1 X26.959 Y105.19 E.0078
G1 X26.959 Y102.81 E.07462
G1 X26.719 Y103.074 E.01119
G1 X26.54 Y103.394 E.0115
G1 X26.54 Y104.966 E.04929
M204 S1000
;WIPE_START
G1 F8640
G1 X26.54 Y103.394 E-.36298
G1 X26.719 Y103.074 E-.08466
G1 X26.959 Y102.81 E-.08238
G1 X26.959 Y103.979 E-.26998
;WIPE_END
G1 Z.6 F720
G1 X28.023 Y133.08 F10800
G1 Z.2 F720
G1 E.8 F2100
M204 S800
G1 F1200
G1 X28.39 Y133.12 E.01158
G1 X28.741 Y133.229 E.01152
G1 X29.065 Y133.402 E.01152
G1 X29.372 Y133.656 E.01249
G1 X29.602 Y133.942 E.01151
G1 X29.775 Y134.268 E.01157
G1 X29.888 Y134.65 E.01249
G1 X29.92 Y135.017 E.01155
G1 X29.875 Y135.415 E.01256
G1 X29.761 Y135.764 E.01151
G1 X29.585 Y136.084 E.01145
G1 X29.349 Y136.366 E.01153
G1 X29.064 Y136.598 E.01152
G1 X28.741 Y136.771 E.01149
G1 X28.389 Y136.88 E.01155
G1 X27.993 Y136.92 E.01248
G1 X27.627 Y136.883 E.01153
G1 X27.274 Y136.778 E.01155
G1 X26.923 Y136.589 E.0125
G1 X26.64 Y136.355 E.01151
G1 X26.406 Y136.071 E.01154
G1 X26.232 Y135.748 E.0115
G1 X26.122 Y135.399 E.01147
G1 X26.08 Y135.001 E.01255
G1 X26.115 Y134.634 E.01156
G1 X26.219 Y134.283 E.01148
G1 X26.388 Y133.956 E.01154
G1 X26.639 Y133.646 E.01251
G1 X26.921 Y133.412 E.01149
G1 X27.244 Y133.235 E.01155
G1 X27.593 Y133.124 E.01148
G1 X27.967 Y133.08 E.01181
M204 S1000
G1 X29.473 Y135.945 F10800
M204 S800
G1 F1200
G1 X29.473 Y134.427 E.0476
G1 X29.304 Y134.106 E.01137
G1 X29.054 Y133.822 E.01186
G1 X29.054 Y136.178 E.07387
G1 X28.853 Y136.331 E.00792
G1 X28.635 Y136.447 E.00774
G1 X28.635 Y133.553 E.09074
G1 X28.427 Y133.478 E.00693
G1 X28.216 Y133.434 E.00676
G1 X28.216 Y136.566 E.0982
G1 X27.994 Y136.581 E.00698
G1 X27.797 Y136.568 E.00619
G1 X27.797 Y133.432 E.09833
G1 X27.585 Y133.475 E.00678
G1 X27.378 Y133.547 E.00687
G1 X27.378 Y136.453 E.09112
G1 X27.158 Y136.338 E.00778
G1 X26.959 Y136.19 E.00778
G1 X26.959 Y133.81 E.07462
G1 X26.72 Y134.073 E.01114
G1 X26.54 Y134.394 E.01154
G1 X26.54 Y135.966 E.04929
M204 S1000
;WIPE_START
G1 F8640
G1 X26.54 Y134.394 E-.36298
G1 X26.72 Y134.073 E-.08498
G1 X26.959 Y133.81 E-.08206
G1 X26.959 Y134.979 E-.26998
;WIPE_END
G1 Z.6 F720
G1 X52.527 Y178.83 F10800
G1 Z.2 F720
G1 E.8 F2100
M204 S800
G1 F1200
G1 X52.94 Y178.875 E.01303
G1 X53.371 Y179.012 E.01418
G1 X53.733 Y179.214 E.013
G1 X54.051 Y179.482 E.01304
G1 X54.332 Y179.837 E.0142
G1 X54.519 Y180.206 E.01297
G1 X54.634 Y180.605 E.01302
G1 X54.67 Y181.019 E.01303
G1 X54.619 Y181.468 E.01417
G1 X54.491 Y181.863 E.01302
G1 X54.291 Y182.225 E.01297
G1 X54.025 Y182.544 E.01302
G1 X53.703 Y182.806 E.01302
G1 X53.336 Y183.002 E.01305
G1 X52.94 Y183.125 E.013
G1 X52.49 Y183.17 E.01418
G1 X52.078 Y183.129 E.01298
G1 X51.681 Y183.01 E.01299
G1 X51.314 Y182.817 E.013
G1 X50.963 Y182.532 E.01418
G1 X50.7 Y182.211 E.01301
G1 X50.501 Y181.845 E.01306
G1 X50.37 Y181.413 E.01415
G1 X50.33 Y181.001 E.01298
G1 X50.37 Y180.587 E.01304
G1 X50.488 Y180.188 E.01305
G1 X50.679 Y179.82 E.013
G1 X50.962 Y179.47 E.01411
G1 X51.281 Y179.205 E.013
G1 X51.645 Y179.006 E.01301
