; generated by PrusaSlicer 2.6.0+win64 on 2024-02-07 at 22:38:26 UTC


;
;
; 

; external perimeters extrusion width = 0.45mm
; perimeters extrusion width = 0.45mm
; infill extrusion width = 0.45mm
; solid infill extrusion width = 0.45mm
; top infill extrusion width = 0.40mm
; first layer extrusion width = 0.42mm

; external perimeters extrusion width = 0.45mm
; perimeters extrusion width = 0.45mm
; infill extrusion width = 0.45mm
; solid infill extrusion width = 0.45mm
; top infill extrusion width = 0.40mm
; first layer extrusion width = 0.42mm

; external perimeters extrusion width = 0.45mm
; perimeters extrusion width = 0.45mm
; infill extrusion width = 0.45mm
; solid infill extrusion width = 0.45mm
; top infill extrusion width = 0.40mm
; first layer extrusion width = 0.42mm

M73 P0 R56
M73 Q0 S57
M201 X1000 Y1000 Z200 E5000 ; sets maximum accelerations, mm/sec^2
M203 X200 Y200 Z12 E120 ; sets maximum feedrates, mm / sec
M204 S1250 T1250 ; sets acceleration (S) and retract acceleration (R), mm/sec^2
M205 X8.00 Y8.00 Z0.40 E4.50 ; sets the jerk limits, mm/sec
M205 S0 T0 ; sets the minimum extruding and travel feed rate, mm/sec
;TYPE:Custom
M862.3 P "MK3S" ; printer model check
M862.1 P0.4 ; nozzle diameter check
M115 U3.12.2 ; tell printer latest fw version
G90 ; use absolute coordinates
M83 ; extruder relative mode
M104 S215 ; set extruder temp
M140 S60 ; set bed temp
M190 S60 ; wait for bed temp
M109 S215 ; wait for extruder temp
G28 W ; home all without mesh bed level
G80 ; mesh bed leveling

G1 Z0.2 F720
G1 Y-3 F1000 ; go outside print area
G92 E0
G1 X60 E9 F1000 ; intro line
G1 X100 E12.5 F1000 ; intro line

G92 E0
M221 S95

; Don't change E values below. Excessive value can damage the printer.

M907 E538 ; set extruder motor current
G21 ; set units to millimeters
G90 ; use absolute coordinates
M83 ; use relative distances for extrusion
M900 K0.05 ; Filament gcode LA 1.5
M900 K30 ; Filament gcode LA 1.0
M107
;LAYER_CHANGE
;Z:0.2
;HEIGHT:0.2
;BEFORE_LAYER_CHANGE
G92 E0.0
;0.2


M73 Q0 S56
G1 E-.8 F2100
G1 Z.4 F720
;AFTER_LAYER_CHANGE
;0.2
G1 X94.918 Y83.77 F10800
G1 Z.2 F720
G1 E.8 F2100
M204 S800
;TYPE:Skirt/Brim
;WIDTH:0.42
G1 F1200
G1 X96.082 Y82.691 E.04976
G1 X97.514 Y81.753 E.05367
G1 X99.047 Y81.089 E.05238
G1 X100.579 Y80.708 E.0495
G1 X102.276 Y80.576 E.05337
G1 X154.276 Y81.022 E1.63048
G1 X155.936 Y81.719 E.05645
G1 X156.436 Y82.219 E.02217
G1 X157.133 Y83.899 E.05703
G1 X157.127 Y119.722 E1.12321
G1 X156.923 Y121.421 E.05365
M73 P0 R55
G1 X156.477 Y122.937 E.04955
G1 X155.726 Y124.479 E.05378
G1 X154.729 Y125.857 E.05333
G1 X153.392 Y127.139 E.05808
G1 X151.926 Y128.102 E.055
G1 X150.229 Y128.818 E.05775
G1 X148.517 Y129.195 E.05496
G1 X125.259 Y129.874 E.72955
G1 X124.038 Y129.83 E.03831
G1 X123.021 Y129.677 E.03225
G1 X122.03 Y129.42 E.0321
G1 X93.964 Y120.408 E.92424
G1 X92.839 Y119.635 E.0428
G1 X92.314 Y118.145 E.04953
G1 X92.315 Y90.302 E.873
G1 X92.388 Y89.242 E.03331
G1 X92.599 Y88.098 E.03647
G1 X93.147 Y86.481 E.05353
G1 X93.895 Y85.092 E.04946
G1 X94.881 Y83.817 E.05054
M204 S1000
; printing object 5_bottom_segment_connector.stl id:2 copy 0
;WIPE_START
G1 F8640
G1 X96.082 Y82.691 E-.38013
G1 X97.514 Y81.753 E-.39527
G1 X97.612 Y81.711 E-.0246
;WIPE_END
G1 Z.6 F720
G1 X101.946 Y104.672 F10800
G1 Z.2 F720
G1 E.8 F2100
M204 S800
;TYPE:Perimeter
;WIDTH:0.419999
G1 F1200
G1 X101.882 Y104.672 E.00201
G1 X101.608 Y104.796 E.00943
G1 X101.463 Y104.979 E.00732
G1 X101.404 Y105.231 E.00811
G1 X101.404 Y115.884 E.33402
G1 X95.478 Y115.884 E.18581
G1 X95.478 Y90.468 E.7969
G1 X95.515 Y89.757 E.02232
G1 X95.65 Y88.946 E.02578
G1 X95.803 Y88.389 E.01811
G1 X96.006 Y87.843 E.01826
G1 X96.256 Y87.317 E.01826
G1 X96.521 Y86.864 E.01646
G1 X96.814 Y86.434 E.01631
G1 X97.184 Y85.981 E.01834
G1 X97.591 Y85.564 E.01827
G1 X98.032 Y85.184 E.01825
G1 X98.504 Y84.843 E.01826
G1 X99.004 Y84.545 E.01825
G1 X99.528 Y84.291 E.01826
G1 X100.072 Y84.083 E.01826
G1 X100.632 Y83.923 E.01826
G1 X101.204 Y83.813 E.01826
G1 X101.719 Y83.759 E.01624
G1 X102.262 Y83.744 E.01703
G1 X102.779 Y83.767 E.01623
G1 X103.29 Y83.831 E.01615
G1 X103.806 Y83.94 E.01654
G1 X104.307 Y84.082 E.01633
G1 X104.8 Y84.27 E.01654
G1 X105.272 Y84.489 E.01631
G1 X105.781 Y84.78 E.01838
G1 X106.206 Y85.075 E.01622
G1 X106.658 Y85.449 E.01839
G1 X107.033 Y85.81 E.01632
G1 X107.603 Y86.485 E.0277
G1 X107.893 Y86.911 E.01616
G1 X108.152 Y87.372 E.01658
G1 X108.375 Y87.841 E.01628
G1 X108.559 Y88.337 E.01659
G1 X108.706 Y88.835 E.01628
G1 X108.81 Y89.352 E.01653
G1 X108.878 Y89.871 E.01641
G1 X108.903 Y90.38 E.01598
G1 X108.904 Y104.665 E.4479
G1 X102.006 Y104.671 E.21628
M204 S1000
G1 X101.969 Y105.042 F10800
M204 S800
;TYPE:External perimeter
G1 F1200
G1 X101.849 Y105.086 E.00401
G1 X101.781 Y105.231 E.00502
G1 X101.781 Y116.261 E.34584
G1 X95.101 Y116.261 E.20945
G1 X95.101 Y90.459 E.809
G1 X95.14 Y89.716 E.02333
G1 X95.281 Y88.865 E.02705
G1 X95.444 Y88.273 E.01925
G1 X95.659 Y87.697 E.01928
G1 X95.922 Y87.141 E.01928
G1 X96.195 Y86.673 E.01699
G1 X96.513 Y86.207 E.01769
G1 X96.903 Y85.73 E.01932
G1 X97.332 Y85.289 E.01929
G1 X97.798 Y84.888 E.01928
G1 X98.297 Y84.528 E.01929
G1 X98.825 Y84.213 E.01928
G1 X99.379 Y83.944 E.01931
G1 X99.953 Y83.725 E.01926
G1 X100.545 Y83.556 E.0193
G1 X101.149 Y83.44 E.01928
G1 X101.76 Y83.376 E.01926
G1 X102.302 Y83.366 E.017
G1 X102.802 Y83.391 E.0157
G1 X103.354 Y83.459 E.01744
G1 X103.884 Y83.571 E.01698
G1 X104.428 Y83.725 E.01773
G1 X104.934 Y83.918 E.01698
G1 X105.447 Y84.155 E.01772
G1 X105.918 Y84.424 E.01701
G1 X106.334 Y84.702 E.01569
G1 X106.774 Y85.043 E.01745
G1 X107.226 Y85.461 E.0193
G1 X107.59 Y85.861 E.01696
G1 X107.901 Y86.254 E.01571
G1 X108.214 Y86.713 E.01742
G1 X108.481 Y87.187 E.01706
G1 X108.723 Y87.696 E.01767
G1 X108.912 Y88.206 E.01705
G1 X109.072 Y88.746 E.01766
G1 X109.18 Y89.277 E.01699
G1 X109.254 Y89.838 E.01774
G1 X109.28 Y90.38 E.01701
G1 X109.281 Y105.042 E.45972
G1 X102.029 Y105.042 E.22738
M204 S1000
G1 X101.854 Y104.987 F10800
;WIPE_START
G1 F8640
G1 X101.849 Y105.086 E-.04279
G1 X101.781 Y105.231 E-.03698
G1 X101.781 Y108.35 E-.72023
;WIPE_END
G1 Z.6 F720
G1 X103.076 Y94.076 F10800
G1 Z.2 F720
G1 E.8 F2100
M204 S800
;TYPE:Perimeter
G1 F1200
G1 X102.367 Y94.183 E.02248
G1 X101.672 Y94.149 E.02182
G1 X100.952 Y93.976 E.02322
G1 X100.304 Y93.676 E.02239
G1 X99.683 Y93.22 E.02416
G1 X99.197 Y92.685 E.02266
G1 X98.827 Y92.075 E.02237
G1 X98.566 Y91.35 E.02416
G1 X98.461 Y90.636 E.02263
G1 X98.488 Y90.01 E.01965
G1 X98.666 Y89.233 E.02499
G1 X98.915 Y88.68 E.01902
G1 X99.195 Y88.242 E.0163
G1 X99.491 Y87.872 E.01486
G1 X99.945 Y87.468 E.01905
G1 X100.708 Y87.025 E.02766
G1 X101.285 Y86.829 E.01911
G1 X102.048 Y86.721 E.02416
G1 X102.565 Y86.751 E.01624
G1 X103.081 Y86.834 E.01639
G1 X103.565 Y86.977 E.01582
G1 X104.162 Y87.28 E.02099
G1 X104.636 Y87.639 E.01864
G1 X105.077 Y88.098 E.01996
G1 X105.326 Y88.438 E.01321
G1 X105.592 Y88.904 E.01682
G1 X105.81 Y89.531 E.02081
G1 X105.909 Y90.195 E.02105
G1 X105.884 Y91.01 E.02557
G1 X105.71 Y91.703 E.0224
G1 X105.406 Y92.353 E.0225
G1 X104.947 Y92.972 E.02416
G1 X104.414 Y93.453 E.02251
G1 X103.799 Y93.823 E.0225
G1 X103.135 Y94.065 E.02216
M204 S1000
G1 X102.733 Y93.75 F10800
M204 S800
;TYPE:External perimeter
G1 F1200
G1 X102.316 Y93.809 E.0132
G1 X101.696 Y93.773 E.01947
G1 X101.047 Y93.611 E.02097
G1 X100.468 Y93.336 E.0201
G1 X99.911 Y92.919 E.02182
G1 X99.48 Y92.436 E.0203
G1 X99.152 Y91.885 E.02011
G1 X98.923 Y91.228 E.02182
G1 X98.834 Y90.586 E.02032
G1 X98.865 Y90.033 E.01737
G1 X99.03 Y89.33 E.02264
G1 X99.253 Y88.847 E.01668
G1 X99.494 Y88.471 E.014
G1 X99.858 Y88.05 E.01745
G1 X100.264 Y87.706 E.01668
G1 X100.794 Y87.397 E.01924
G1 X101.406 Y87.186 E.0203
G1 X102.095 Y87.095 E.02179
G1 X102.796 Y87.148 E.02204
G1 X103.308 Y87.293 E.01668
G1 X103.989 Y87.615 E.02362
G1 X104.403 Y87.935 E.01641
G1 X104.792 Y88.345 E.01772
G1 X105 Y88.626 E.01096
G1 X105.25 Y89.062 E.01576
G1 X105.454 Y89.653 E.0196
G1 X105.535 Y90.244 E.0187
G1 X105.508 Y90.984 E.02322
G1 X105.346 Y91.606 E.02015
G1 X105.067 Y92.189 E.02026
G1 X104.648 Y92.743 E.02178
G1 X104.166 Y93.17 E.02019
G1 X103.609 Y93.498 E.02027
G1 X103.004 Y93.712 E.02012
G1 X102.792 Y93.742 E.00671
M204 S1000
G1 X102.601 Y94.128 F10800
;WIPE_START
G1 F8640
G1 X102.316 Y93.809 E-.11099
G1 X101.696 Y93.773 E-.1434
G1 X101.047 Y93.611 E-.15445
G1 X100.468 Y93.336 E-.14801
G1 X99.911 Y92.919 E-.16066
G1 X99.673 Y92.652 E-.08249
;WIPE_END
G1 Z.6 F720
G1 X105.654 Y84.903 F10800
G1 Z.2 F720
G1 E.8 F2100
M204 S800
;TYPE:Solid infill
;WIDTH:0.420554
G1 F1200
G1 X106.719 Y85.968 E.04729
G1 X107.09 Y86.377 E.01734
G1 X107.36 Y86.724 E.01381
G1 X107.604 Y87.089 E.01379
G1 X107.951 Y87.735 E.02303
G1 X104.909 Y84.692 E.13511
G1 X104.721 Y84.603 E.00653
G1 X104.04 Y84.357 E.02274
G1 X108.287 Y88.605 E.18862
G1 X108.376 Y88.915 E.01013
G1 X108.455 Y89.306 E.01253
G1 X103.335 Y84.187 E.22734
G1 X102.718 Y84.104 E.01955
G1 X108.541 Y89.927 E.25858
G1 X108.563 Y90.483 E.01747
G1 X102.168 Y84.088 E.28398
G1 X101.653 Y84.107 E.01618
G1 X108.563 Y91.017 E.30685
G1 X108.563 Y91.551 E.01677
G1 X105.966 Y88.954 E.11532
G1 X105.901 Y88.762 E.00636
G1 X105.505 Y88.078 E.02482
G1 X104.995 Y87.493 E.02437
G1 X104.384 Y87.015 E.02436
G1 X103.666 Y86.654 E.02523
G1 X101.176 Y84.164 E.11057
G1 X100.729 Y84.251 E.0143
G1 X102.923 Y86.445 E.09743
G1 X102.336 Y86.392 E.01851
G1 X100.312 Y84.368 E.08988
G1 X99.916 Y84.506 E.01317
M73 P1 R55
G1 X101.819 Y86.409 E.08451
G1 X101.348 Y86.472 E.01492
M73 Q1 S56
G1 X99.539 Y84.663 E.08033
G1 X99.179 Y84.837 E.01256
G1 X100.935 Y86.594 E.078
G1 X100.538 Y86.73 E.01318
G1 X98.844 Y85.036 E.07523
G1 X98.522 Y85.249 E.01212
G1 X100.194 Y86.921 E.07425
G1 X99.857 Y87.118 E.01226
G1 X98.214 Y85.475 E.07296
G1 X97.928 Y85.722 E.01187
G1 X99.563 Y87.358 E.07263
G1 X99.28 Y87.608 E.01186
G1 X97.656 Y85.984 E.07212
G1 X97.396 Y86.259 E.01188
G1 X99.037 Y87.899 E.07285
G1 X98.805 Y88.202 E.01198
G1 X97.156 Y86.552 E.07325
G1 X96.931 Y86.861 E.012
G1 X98.609 Y88.539 E.07451
G1 X98.432 Y88.897 E.01254
G1 X96.724 Y87.189 E.07585
G1 X96.531 Y87.529 E.01228
G1 X98.301 Y89.299 E.0786
G1 X98.188 Y89.721 E.01372
G1 X96.359 Y87.892 E.08122
G1 X96.208 Y88.275 E.01293
G1 X98.139 Y90.206 E.08575
G1 X98.116 Y90.566 E.01133
G1 X98.137 Y90.738 E.00544
G1 X96.076 Y88.677 E.09152
G1 X95.968 Y89.103 E.0138
G1 X98.484 Y91.619 E.11173
M204 S1000
;WIPE_START
G1 F8640
G1 X96.034 Y89.169 E-.8
;WIPE_END
G1 Z.6 F720
G1 X105.97 Y89.492 F10800
G1 Z.2 F720
G1 E.8 F2100
M204 S800
G1 F1200
G1 X108.563 Y92.085 E.11515
G1 X108.564 Y92.619 E.01677
G1 X106.266 Y90.322 E.10202
G1 X106.232 Y90.822 E.01574
G1 X108.564 Y93.154 E.10356
G1 X108.564 Y93.688 E.01677
G1 X106.166 Y91.29 E.10649
G1 X106.049 Y91.707 E.0136
G1 X108.564 Y94.222 E.11168
G1 X108.564 Y94.756 E.01677
G1 X105.904 Y92.097 E.1181
G1 X105.724 Y92.45 E.01244
G1 X108.564 Y95.29 E.12612
G1 X108.564 Y95.824 E.01677
G1 X105.518 Y92.779 E.13524
G1 X105.282 Y93.076 E.01191
G1 X108.564 Y96.358 E.14574
G1 X108.564 Y96.892 E.01677
G1 X105.033 Y93.361 E.1568
G1 X104.743 Y93.605 E.0119
G1 X108.564 Y97.426 E.16968
G1 X108.564 Y97.96 E.01677
G1 X104.443 Y93.84 E.18298
G1 X104.1 Y94.031 E.01233
G1 X108.564 Y98.495 E.19823
G1 X108.564 Y99.029 E.01677
G1 X103.746 Y94.211 E.21395
G1 X103.343 Y94.342 E.01331
G1 X108.564 Y99.563 E.23185
G1 X108.564 Y100.097 E.01677
G1 X102.916 Y94.449 E.25081
G1 X102.442 Y94.509 E.015
G1 X108.564 Y100.631 E.27186
G1 X108.564 Y101.165 E.01677
G1 X101.901 Y94.502 E.29588
G1 X101.55 Y94.479 E.01105
G1 X101.266 Y94.401 E.00925
G1 X108.564 Y101.699 E.32408
G1 X108.564 Y102.233 E.01677
G1 X100.445 Y94.114 E.36054
G1 X100.013 Y93.895 E.01521
G1 X99.354 Y93.377 E.02632
G1 X98.846 Y92.78 E.02461
G1 X98.51 Y92.179 E.02162
G1 X95.892 Y89.561 E.11626
G1 X95.853 Y89.794 E.00742
G1 X95.84 Y90.043 E.00783
G1 X108.564 Y102.767 E.56503
G1 X108.564 Y103.301 E.01677
G1 X95.817 Y90.554 E.56605
G1 X95.817 Y91.088 E.01677
G1 X108.564 Y103.835 E.56605
G1 X108.564 Y104.326 E.01542
G1 X108.521 Y104.326 E.00135
G1 X95.817 Y91.623 E.56412
G1 X95.817 Y92.157 E.01677
G1 X107.987 Y104.326 E.54041
G1 X107.453 Y104.326 E.01677
G1 X95.817 Y92.691 E.5167
G1 X95.817 Y93.225 E.01677
G1 X106.919 Y104.326 E.49298
G1 X106.385 Y104.326 E.01677
G1 X95.817 Y93.759 E.46927
G1 X95.817 Y94.293 E.01677
G1 X105.85 Y104.326 E.44553
G1 X105.316 Y104.326 E.01677
G1 X95.817 Y94.827 E.42182
G1 X95.817 Y95.361 E.01677
G1 X104.782 Y104.326 E.39811
G1 X104.248 Y104.326 E.01677
G1 X95.817 Y95.895 E.37439
G1 X95.817 Y96.429 E.01677
G1 X103.714 Y104.326 E.35068
G1 X103.18 Y104.326 E.01677
G1 X95.817 Y96.963 E.32697
G1 X95.817 Y97.497 E.01677
G1 X102.646 Y104.326 E.30325
G1 X102.112 Y104.326 E.01677
G1 X95.817 Y98.031 E.27954
G1 X95.817 Y98.565 E.01677
G1 X101.641 Y104.389 E.25863
G1 X101.395 Y104.53 E.0089
G1 X101.322 Y104.604 E.00326
G1 X95.817 Y99.099 E.24446
G1 X95.817 Y99.633 E.01677
G1 X101.119 Y104.935 E.23545
G1 X101.088 Y105.021 E.00287
G1 X101.064 Y105.222 E.00636
G1 X101.064 Y105.415 E.00606
G1 X95.817 Y100.167 E.23303
G1 X95.817 Y100.701 E.01677
G1 X101.064 Y105.949 E.23303
G1 X101.064 Y106.483 E.01677
G1 X95.817 Y101.236 E.233
G1 X95.817 Y101.77 E.01677
G1 X101.064 Y107.017 E.233
G1 X101.064 Y107.551 E.01677
G1 X95.817 Y102.304 E.233
G1 X95.817 Y102.838 E.01677
G1 X101.064 Y108.085 E.233
G1 X101.064 Y108.619 E.01677
G1 X95.817 Y103.372 E.233
G1 X95.817 Y103.906 E.01677
G1 X101.064 Y109.153 E.233
G1 X101.064 Y109.687 E.01677
M73 Q1 S55
G1 X95.817 Y104.44 E.233
G1 X95.817 Y104.974 E.01677
G1 X101.064 Y110.221 E.233
G1 X101.064 Y110.755 E.01677
G1 X95.817 Y105.508 E.233
G1 X95.817 Y106.042 E.01677
G1 X101.064 Y111.289 E.233
G1 X101.064 Y111.823 E.01677
G1 X95.817 Y106.576 E.233
G1 X95.817 Y107.11 E.01677
G1 X101.064 Y112.357 E.233
G1 X101.064 Y112.891 E.01677
G1 X95.817 Y107.644 E.233
G1 X95.817 Y108.178 E.01677
G1 X101.064 Y113.425 E.233
G1 X101.064 Y113.959 E.01677
G1 X95.817 Y108.712 E.233
G1 X95.817 Y109.246 E.01677
G1 X101.064 Y114.493 E.233
G1 X101.064 Y115.028 E.0168
G1 X95.817 Y109.78 E.23303
G1 X95.817 Y110.314 E.01677
G1 X101.048 Y115.545 E.23229
G1 X100.514 Y115.545 E.01677
G1 X95.817 Y110.849 E.20856
G1 X95.817 Y111.383 E.01677
G1 X99.98 Y115.545 E.18484
G1 X99.446 Y115.545 E.01677
G1 X95.817 Y111.917 E.16113
G1 X95.817 Y112.451 E.01677
G1 X98.912 Y115.545 E.13742
G1 X98.378 Y115.545 E.01677
G1 X95.817 Y112.985 E.1137
G1 X95.817 Y113.519 E.01677
G1 X97.843 Y115.545 E.08997
G1 X97.309 Y115.545 E.01677
G1 X95.817 Y114.053 E.06626
G1 X95.817 Y114.587 E.01677
G1 X96.775 Y115.545 E.04254
G1 X96.241 Y115.545 E.01677
M73 P2 R55
G1 X95.648 Y114.951 E.02636
M204 S1000
; stop printing object 5_bottom_segment_connector.stl id:2 copy 0
; printing object 4_middle_segment_connector.stl id:0 copy 0
;WIPE_START
G1 F8640
G1 X96.241 Y115.545 E-.19381
G1 X96.775 Y115.545 E-.1233
G1 X95.817 Y114.587 E-.31283
G1 X95.817 Y114.053 E-.1233
G1 X95.96 Y114.196 E-.04676
;WIPE_END
G1 Z.6 F720
G1 X118.287 Y85.187 F10800
G1 Z.2 F720
M73 Q2 S55
G1 E.8 F2100
M204 S800
;TYPE:Perimeter
;WIDTH:0.419999
G1 F1200
G1 X131.713 Y85.187 E.42096
G1 X131.713 Y119.963 E1.09038
G1 X131.696 Y120.463 E.01569
G1 X131.631 Y121.044 E.01833
G1 X131.515 Y121.615 E.01827
G1 X131.351 Y122.174 E.01827
G1 X131.138 Y122.716 E.01826
G1 X130.88 Y123.238 E.01826
G1 X130.577 Y123.735 E.01825
G1 X130.232 Y124.205 E.01828
G1 X129.848 Y124.642 E.01824
G1 X129.428 Y125.045 E.01825
G1 X128.974 Y125.41 E.01826
G1 X128.49 Y125.734 E.01826
G1 X127.98 Y126.015 E.01826
G1 X127.447 Y126.251 E.01828
G1 X126.896 Y126.439 E.01825
G1 X126.331 Y126.579 E.01825
G1 X125.756 Y126.67 E.01825
G1 X125.175 Y126.71 E.01826
G1 X124.648 Y126.701 E.01653
G1 X124.131 Y126.656 E.01627
G1 X123.555 Y126.555 E.01834
G1 X122.992 Y126.405 E.01827
G1 X122.445 Y126.207 E.01824
G1 X121.916 Y125.962 E.01828
G1 X121.411 Y125.673 E.01824
G1 X120.934 Y125.341 E.01822
G1 X120.485 Y124.967 E.01832
G1 X120.073 Y124.559 E.01818
G1 X119.695 Y124.113 E.01833
G1 X119.359 Y123.638 E.01824
G1 X119.065 Y123.135 E.01827
G1 X118.815 Y122.609 E.01826
