; generated by PrusaSlicer 2.6.0+win64 on 2024-02-12 at 09:26:22 UTC


;
;
; 

; external perimeters extrusion width = 0.45mm
; perimeters extrusion width = 0.45mm
; infill extrusion width = 0.45mm
; solid infill extrusion width = 0.45mm
; top infill extrusion width = 0.40mm
; first layer extrusion width = 0.42mm

; external perimeters extrusion width = 0.45mm
; perimeters extrusion width = 0.45mm
; infill extrusion width = 0.45mm
; solid infill extrusion width = 0.45mm
; top infill extrusion width = 0.40mm
; first layer extrusion width = 0.42mm

; external perimeters extrusion width = 0.45mm
; perimeters extrusion width = 0.45mm
; infill extrusion width = 0.45mm
; solid infill extrusion width = 0.45mm
; top infill extrusion width = 0.40mm
; first layer extrusion width = 0.42mm

M73 P0 R59
M73 Q0 S60
M201 X1000 Y1000 Z200 E5000 ; sets maximum accelerations, mm/sec^2
M203 X200 Y200 Z12 E120 ; sets maximum feedrates, mm / sec
M204 S1250 T1250 ; sets acceleration (S) and retract acceleration (R), mm/sec^2
M205 X8.00 Y8.00 Z0.40 E4.50 ; sets the jerk limits, mm/sec
M205 S0 T0 ; sets the minimum extruding and travel feed rate, mm/sec
;TYPE:Custom
M862.3 P "MK3S" ; printer model check
M862.1 P0.4 ; nozzle diameter check
M115 U3.12.2 ; tell printer latest fw version
G90 ; use absolute coordinates
M83 ; extruder relative mode
M104 S215 ; set extruder temp
M140 S60 ; set bed temp
M190 S60 ; wait for bed temp
M109 S215 ; wait for extruder temp
G28 W ; home all without mesh bed level
G80 ; mesh bed leveling

G1 Z0.2 F720
G1 Y-3 F1000 ; go outside print area
G92 E0
G1 X60 E9 F1000 ; intro line
G1 X100 E12.5 F1000 ; intro line

G92 E0
M221 S95

; Don't change E values below. Excessive value can damage the printer.

M907 E538 ; set extruder motor current
G21 ; set units to millimeters
G90 ; use absolute coordinates
M83 ; use relative distances for extrusion
M900 K0.05 ; Filament gcode LA 1.5
M900 K30 ; Filament gcode LA 1.0
M107
;LAYER_CHANGE
;Z:0.2
;HEIGHT:0.2
;BEFORE_LAYER_CHANGE
G92 E0.0
;0.2


M73 Q0 S59
G1 E-.8 F2100
G1 Z.4 F720
;AFTER_LAYER_CHANGE
;0.2
G1 X82.474 Y82.158 F10800
G1 Z.2 F720
G1 E.8 F2100
M204 S800
;TYPE:Skirt/Brim
;WIDTH:0.42
G1 F1200
G1 X83.651 Y81.211 E.04737
G1 X84.981 Y80.444 E.04814
G1 X86.422 Y79.89 E.04841
G1 X87.804 Y79.585 E.04437
G1 X89.342 Y79.481 E.04833
G1 X126.804 Y82.789 E1.17917
G1 X127.929 Y83.067 E.03633
G1 X128.937 Y83.441 E.03371
G1 X129.967 Y83.963 E.03621
G1 X130.862 Y84.551 E.03358
G1 X131.776 Y85.313 E.03731
G1 X132.577 Y86.164 E.03664
G1 X133.214 Y87.015 E.03333
G1 X133.803 Y88.02 E.03652
G1 X134.221 Y88.96 E.03226
G1 X134.539 Y89.938 E.03224
G1 X134.76 Y90.984 E.03352
G1 X134.865 Y92.007 E.03224
G1 X134.877 Y107.5 E.48577
G1 X134.709 Y108.378 E.02803
G1 X121.935 Y140.504 E1.084
G1 X121.088 Y141.573 E.04276
G1 X119.726 Y142.002 E.04477
G1 X94.534 Y142.002 E.78988
G1 X93.227 Y141.611 E.04277
G1 X92.32 Y140.49 E.04521
G1 X79.521 Y107.722 E1.10301
G1 X79.358 Y106.857 E.0276
G1 X79.364 Y89.037 E.55873
G1 X79.534 Y87.503 E.04839
G1 X79.954 Y85.98 E.04954
G1 X80.592 Y84.577 E.04832
G1 X81.436 Y83.298 E.04805
G1 X82.433 Y82.203 E.04643
M204 S1000
; printing object 6_rotation_segment.stl id:2 copy 0
;WIPE_START
G1 F8640
G1 X83.651 Y81.211 E-.36271
G1 X84.981 Y80.444 E-.35451
G1 X85.316 Y80.315 E-.08278
;WIPE_END
G1 Z.6 F720
G1 X96.44 Y99.629 F10800
G1 Z.2 F720
G1 E.8 F2100
M204 S800
;TYPE:Perimeter
;WIDTH:0.419999
G1 F1200
G1 X96.514 Y99.645 E.00237
G1 X104.667 Y99.645 E.25563
G1 X104.667 Y106.07 E.20145
G1 X82.523 Y106.07 E.69431
G1 X82.524 Y89.754 E.51158
G1 X82.526 Y89.207 E.01715
G1 X82.583 Y88.487 E.02265
G1 X82.683 Y87.907 E.01845
G1 X82.812 Y87.408 E.01616
G1 X82.987 Y86.91 E.01655
G1 X83.194 Y86.432 E.01633
G1 X83.472 Y85.918 E.01832
G1 X83.76 Y85.479 E.01646
G1 X84.075 Y85.065 E.01631
G1 X84.431 Y84.673 E.0166
G1 X84.806 Y84.314 E.01628
G1 X85.262 Y83.948 E.01833
G1 X85.746 Y83.624 E.01826
G1 X86.206 Y83.37 E.01648
G1 X86.678 Y83.151 E.01631
G1 X87.23 Y82.952 E.0184
G1 X87.731 Y82.818 E.01626
G1 X88.313 Y82.711 E.01855
G1 X88.893 Y82.656 E.01827
G1 X89.469 Y82.651 E.01806
G1 X90.286 Y82.729 E.02573
G1 X90.794 Y82.828 E.01623
G1 X91.292 Y82.969 E.01623
G1 X91.853 Y83.18 E.01879
G1 X92.47 Y83.478 E.02148
G1 X92.941 Y83.764 E.01728
G1 X93.353 Y84.058 E.01587
G1 X93.75 Y84.39 E.01623
G1 X94.12 Y84.757 E.01634
G1 X94.504 Y85.202 E.01843
G1 X94.85 Y85.686 E.01865
G1 X95.199 Y86.28 E.0216
G1 X95.419 Y86.746 E.01616
G1 X95.623 Y87.294 E.01833
G1 X95.778 Y87.856 E.01828
G1 X95.883 Y88.428 E.01823
G1 X95.938 Y89.006 E.0182
G1 X95.958 Y99.185 E.31916
G1 X96.052 Y99.406 E.00753
G1 X96.29 Y99.598 E.00959
G1 X96.382 Y99.617 E.00295
M204 S1000
G1 X96.514 Y99.267 F10800
M204 S800
;TYPE:External perimeter
G1 F1200
G1 X105.044 Y99.267 E.26745
G1 X105.044 Y106.447 E.22512
G1 X82.145 Y106.447 E.71798
G1 X82.146 Y89.754 E.5234
G1 X82.149 Y89.188 E.01775
G1 X82.222 Y88.335 E.02684
G1 X82.313 Y87.835 E.01593
G1 X82.452 Y87.297 E.01742
G1 X82.632 Y86.785 E.01702
G1 X82.855 Y86.266 E.01771
G1 X83.147 Y85.724 E.0193
G1 X83.445 Y85.272 E.01698
G1 X83.786 Y84.822 E.0177
G1 X84.152 Y84.419 E.01707
G1 X84.558 Y84.029 E.01765
G1 X85.038 Y83.644 E.01929
G1 X85.549 Y83.301 E.0193
G1 X86.024 Y83.04 E.01699
G1 X86.536 Y82.802 E.0177
G1 X87.047 Y82.617 E.01704
G1 X87.588 Y82.462 E.01765
G1 X88.193 Y82.345 E.01932
G1 X88.805 Y82.281 E.01929
G1 X89.346 Y82.271 E.01697
G1 X89.846 Y82.296 E.0157
G1 X90.399 Y82.364 E.01747
G1 X90.944 Y82.479 E.01746
G1 X91.656 Y82.698 E.02336
G1 X92.212 Y82.925 E.01883
G1 X92.708 Y83.176 E.01743
G1 X93.14 Y83.444 E.01594
G1 X93.576 Y83.754 E.01677
G1 X94.004 Y84.111 E.01748
G1 X94.404 Y84.508 E.01767
G1 X94.866 Y85.055 E.02245
G1 X95.167 Y85.482 E.01638
G1 X95.53 Y86.098 E.02242
G1 X95.767 Y86.601 E.01743
G1 X95.982 Y87.178 E.01931
G1 X96.146 Y87.771 E.01929
G1 X96.257 Y88.376 E.01929
G1 X96.316 Y88.988 E.01928
G1 X96.325 Y99.079 E.3164
G1 X96.381 Y99.212 E.00452
G1 X96.459 Y99.245 E.00266
M204 S1000
G1 X96.618 Y99.654 F10800
;WIPE_START
G1 F8640
G1 X99.924 Y99.254 E-.8
;WIPE_END
G1 Z.6 F720
G1 X87.895 Y92.838 F10800
G1 Z.2 F720
G1 E.8 F2100
M204 S800
;TYPE:Perimeter
G1 F1200
G1 X87.292 Y92.547 E.02099
G1 X86.722 Y92.12 E.02233
G1 X86.241 Y91.589 E.02246
G1 X85.872 Y90.98 E.02233
G1 X85.624 Y90.311 E.02237
G1 X85.506 Y89.546 E.02427
G1 X85.531 Y89.009 E.01686
G1 X85.586 Y88.587 E.01334
G1 X85.728 Y88.073 E.01672
G1 X86.038 Y87.428 E.02244
G1 X86.404 Y86.932 E.01933
G1 X86.772 Y86.57 E.01619
G1 X87.129 Y86.273 E.01456
G1 X87.658 Y85.972 E.01908
G1 X88.162 Y85.791 E.01679
G1 X88.657 Y85.681 E.0159
G1 X89.155 Y85.621 E.01573
G1 X89.811 Y85.667 E.02062
G1 X90.405 Y85.818 E.01922
G1 X91.15 Y86.15 E.02557
G1 X91.554 Y86.448 E.01574
G1 X91.873 Y86.717 E.01308
G1 X92.247 Y87.148 E.01789
G1 X92.602 Y87.743 E.02172
G1 X92.787 Y88.239 E.0166
G1 X92.881 Y88.545 E.01004
G1 X92.967 Y89.199 E.02068
G1 X92.928 Y89.917 E.02255
G1 X92.753 Y90.613 E.0225
G1 X92.421 Y91.307 E.02412
G1 X91.988 Y91.881 E.02254
G1 X91.454 Y92.362 E.02253
G1 X90.844 Y92.728 E.0223
G1 X90.115 Y92.987 E.02426
G1 X89.403 Y93.089 E.02255
G1 X88.69 Y93.052 E.02239
G1 X87.95 Y92.863 E.02395
M204 S1000
G1 X87.904 Y92.429 F10800
M204 S800
;TYPE:External perimeter
G1 F1200
G1 X87.461 Y92.21 E.01549
G1 X86.952 Y91.821 E.02009
G1 X86.524 Y91.34 E.02019
G1 X86.197 Y90.79 E.02006
G1 X85.98 Y90.185 E.02015
G1 X85.879 Y89.494 E.0219
G1 X85.923 Y88.797 E.0219
G1 X86.092 Y88.174 E.02024
G1 X86.375 Y87.596 E.02018
G1 X86.704 Y87.161 E.0171
G1 X87.285 Y86.622 E.02485
G1 X87.843 Y86.3 E.0202
G1 X88.45 Y86.091 E.02013
G1 X89.141 Y86 E.02185
G1 X89.783 Y86.043 E.02017
G1 X90.306 Y86.182 E.01697
G1 X90.983 Y86.489 E.02331
G1 X91.537 Y86.911 E.02184
G1 X91.897 Y87.32 E.01708
G1 X92.275 Y87.932 E.02255
G1 X92.498 Y88.558 E.02084
G1 X92.593 Y89.248 E.02184
G1 X92.552 Y89.891 E.0202
G1 X92.389 Y90.516 E.02025
G1 X92.083 Y91.139 E.02176
G1 X91.691 Y91.65 E.02019
G1 X91.206 Y92.078 E.02028
G1 X90.654 Y92.402 E.02007
G1 X89.994 Y92.63 E.02189
G1 X89.356 Y92.715 E.02018
G1 X88.715 Y92.676 E.02014
G1 X88.041 Y92.497 E.02187
G1 X87.958 Y92.456 E.0029
M204 S1000
G1 X87.584 Y92.669 F10800
;WIPE_START
G1 F8640
G1 X87.461 Y92.21 E-.12805
G1 X86.952 Y91.821 E-.14792
G1 X86.524 Y91.34 E-.14867
G1 X86.197 Y90.79 E-.14775
G1 X85.98 Y90.185 E-.14841
G1 X85.93 Y89.846 E-.0792
;WIPE_END
G1 Z.6 F720
G1 X103.839 Y99.814 F10800
G1 Z.2 F720
G1 E.8 F2100
M204 S800
;TYPE:Solid infill
;WIDTH:0.424774
G1 F1200
G1 X104.328 Y100.303 E.02196
G1 X104.328 Y100.843 E.01715
G1 X103.469 Y99.984 E.03857
G1 X102.929 Y99.984 E.01715
G1 X104.328 Y101.383 E.06282
G1 X104.328 Y101.923 E.01715
G1 X102.389 Y99.984 E.08707
G1 X101.849 Y99.984 E.01715
G1 X104.328 Y102.463 E.11131
G1 X104.328 Y103.003 E.01715
G1 X101.309 Y99.984 E.13556
G1 X100.769 Y99.984 E.01715
G1 X104.328 Y103.543 E.15981
G1 X104.328 Y104.083 E.01715
G1 X100.229 Y99.984 E.18406
G1 X99.689 Y99.984 E.01715
G1 X104.328 Y104.623 E.20831
G1 X104.328 Y105.163 E.01715
G1 X99.149 Y99.984 E.23255
G1 X98.609 Y99.984 E.01715
G1 X104.328 Y105.703 E.2568
G1 X104.328 Y105.731 E.00089
G1 X103.816 Y105.731 E.01626
G1 X98.069 Y99.984 E.25806
G1 X97.529 Y99.984 E.01715
G1 X103.276 Y105.731 E.25806
G1 X102.736 Y105.731 E.01715
G1 X96.819 Y99.814 E.26569
M204 S1000
;WIPE_START
G1 F8640
G1 X99.269 Y102.264 E-.8
;WIPE_END
G1 Z.6 F720
G1 X94.788 Y85.903 F10800
G1 Z.2 F720
G1 E.8 F2100
M204 S800
G1 F1200
G1 X93.522 Y84.641 E.05676
G1 X93.184 Y84.355 E.01406
G1 X92.831 Y84.096 E.0139
G1 X92.354 Y83.8 E.01782
G1 X91.928 Y83.582 E.01519
G1 X95.005 Y86.66 E.13819
G1 X95.106 Y86.877 E.0076
G1 X95.336 Y87.531 E.02201
G1 X91.058 Y83.253 E.1921
G1 X90.715 Y83.159 E.01129
G1 X90.35 Y83.085 E.01183
G1 X95.503 Y88.238 E.23139
G1 X95.547 Y88.475 E.00765
M73 P1 R58
M73 Q1 S59
G1 X95.583 Y88.858 E.01221
G1 X89.732 Y83.007 E.26273
G1 X89.178 Y82.993 E.0176
G1 X95.6 Y89.414 E.28835
G1 X95.6 Y89.955 E.01718
G1 X88.661 Y83.016 E.31158
G1 X88.182 Y83.077 E.01533
G1 X90.636 Y85.531 E.11019
G1 X91.378 Y85.889 E.02616
G1 X92.053 Y86.41 E.02707
G1 X92.546 Y86.979 E.0239
G1 X92.945 Y87.666 E.02523
G1 X93.035 Y87.93 E.00886
G1 X95.601 Y90.496 E.11522
G1 X95.601 Y91.036 E.01715
G1 X93.236 Y88.671 E.1062
G1 X93.31 Y89.285 E.01964
G1 X95.602 Y91.577 E.10292
G1 X95.602 Y92.117 E.01715
G1 X93.274 Y89.789 E.10453
G1 X93.256 Y90.032 E.00774
G1 X93.198 Y90.253 E.00725
G1 X95.603 Y92.658 E.10799
G1 X95.603 Y93.198 E.01715
G1 X93.086 Y90.681 E.11302
G1 X93.02 Y90.864 E.00618
G1 X92.92 Y91.055 E.00685
G1 X95.604 Y93.739 E.12052
G1 X95.604 Y94.279 E.01715
G1 X92.736 Y91.411 E.12878
G1 X92.636 Y91.601 E.00682
G1 X92.525 Y91.74 E.00565
G1 X95.605 Y94.82 E.1383
G1 X95.605 Y95.361 E.01718
G1 X92.283 Y92.039 E.14917
G1 X92.146 Y92.208 E.00691
G1 X92.02 Y92.315 E.00525
G1 X95.606 Y95.901 E.16102
G1 X95.606 Y96.442 E.01718
G1 X91.726 Y92.562 E.17422
G1 X91.547 Y92.713 E.00744
G1 X91.412 Y92.787 E.00489
G1 X95.607 Y96.982 E.18837
G1 X95.607 Y97.523 E.01718
G1 X91.065 Y92.98 E.20397
G1 X90.862 Y93.093 E.00738
G1 X90.692 Y93.147 E.00566
G1 X95.608 Y98.063 E.22074
G1 X95.609 Y98.604 E.01718
G1 X90.282 Y93.277 E.2392
G1 X90.061 Y93.347 E.00736
G1 X89.839 Y93.374 E.0071
G1 X95.619 Y99.154 E.25954
G1 X95.652 Y99.361 E.00666
G1 X95.775 Y99.605 E.00868
G1 X95.996 Y99.823 E.00986
G1 X96.155 Y99.91 E.00575
G1 X96.329 Y99.966 E.0058
G1 X96.442 Y99.977 E.0036
G1 X102.196 Y105.731 E.25837
G1 X101.656 Y105.731 E.01715
G1 X89.357 Y93.432 E.55226
G1 X88.783 Y93.398 E.01826
G1 X101.116 Y105.731 E.55379
G1 X100.576 Y105.731 E.01715
G1 X87.839 Y92.995 E.57191
M204 S1000
;WIPE_START
G1 F8640
G1 X90.289 Y95.445 E-.8
;WIPE_END
G1 Z.6 F720
G1 X90.138 Y85.573 F10800
G1 Z.2 F720
G1 E.8 F2100
M204 S800
G1 F1200
G1 X87.731 Y83.166 E.10808
G1 X87.309 Y83.284 E.01391
G1 X89.327 Y85.302 E.09061
G1 X89.069 Y85.287 E.00821
G1 X88.807 Y85.322 E.00839
G1 X86.912 Y83.427 E.08509
G1 X86.806 Y83.466 E.00359
G1 X86.534 Y83.589 E.00948
G1 X88.331 Y85.386 E.08069
G1 X87.922 Y85.517 E.01364
G1 X86.178 Y83.773 E.07831
G1 X85.836 Y83.971 E.01255
G1 X87.525 Y85.66 E.07584
G1 X87.181 Y85.856 E.01257
G1 X85.513 Y84.188 E.0749
G1 X85.21 Y84.425 E.01221
G1 X86.847 Y86.062 E.07351
G1 X86.558 Y86.314 E.01217
G1 X84.919 Y84.674 E.07362
G1 X84.646 Y84.941 E.01212
G1 X86.27 Y86.565 E.07292
G1 X86.03 Y86.866 E.01222
G1 X84.389 Y85.224 E.07371
G1 X84.149 Y85.524 E.0122
G1 X85.796 Y87.171 E.07396
G1 X85.614 Y87.53 E.01278
G1 X83.927 Y85.842 E.07577
G1 X83.719 Y86.174 E.01244
G1 X85.435 Y87.89 E.07705
G1 X85.313 Y88.309 E.01386
G1 X83.53 Y86.525 E.08008
G1 X83.36 Y86.895 E.01293
G1 X85.214 Y88.749 E.08325
G1 X85.176 Y89.252 E.01602
G1 X83.214 Y87.289 E.08812
G1 X83.085 Y87.701 E.01371
G1 X85.206 Y89.821 E.09522
G1 X85.267 Y90.287 E.01492
G1 X85.336 Y90.492 E.00687
G1 X82.984 Y88.139 E.10563
G1 X82.911 Y88.606 E.01501
G1 X100.036 Y105.731 E.76897
G1 X99.496 Y105.731 E.01715
G1 X82.871 Y89.106 E.74651
G1 X82.863 Y89.638 E.01689
G1 X98.956 Y105.731 E.72263
G1 X98.416 Y105.731 E.01715
G1 X82.863 Y90.178 E.69838
G1 X82.863 Y90.718 E.01715
G1 X97.875 Y105.731 E.67411
G1 X97.335 Y105.731 E.01715
G1 X82.863 Y91.258 E.64986
G1 X82.863 Y91.798 E.01715
G1 X96.795 Y105.731 E.62561
G1 X96.255 Y105.731 E.01715
G1 X82.863 Y92.338 E.60136
G1 X82.863 Y92.878 E.01715
G1 X95.715 Y105.731 E.57712
G1 X95.175 Y105.731 E.01715
G1 X82.863 Y93.418 E.55287
G1 X82.863 Y93.958 E.01715
G1 X94.635 Y105.731 E.52862
G1 X94.095 Y105.731 E.01715
G1 X82.863 Y94.498 E.50437
G1 X82.863 Y95.038 E.01715
G1 X93.555 Y105.731 E.48013
G1 X93.015 Y105.731 E.01715
G1 X82.863 Y95.578 E.45588
G1 X82.863 Y96.118 E.01715
M73 Q1 S58
G1 X92.475 Y105.731 E.43163
G1 X91.935 Y105.731 E.01715
G1 X82.863 Y96.658 E.40738
G1 X82.862 Y97.198 E.01715
G1 X91.395 Y105.731 E.38316
G1 X90.855 Y105.731 E.01715
G1 X82.862 Y97.738 E.35891
G1 X82.862 Y98.278 E.01715
G1 X90.315 Y105.731 E.33466
G1 X89.775 Y105.731 E.01715
G1 X82.862 Y98.818 E.31042
G1 X82.862 Y99.358 E.01715
G1 X89.235 Y105.731 E.28617
G1 X88.695 Y105.731 E.01715
G1 X82.862 Y99.898 E.26192
G1 X82.862 Y100.438 E.01715
G1 X88.155 Y105.731 E.23767
G1 X87.615 Y105.731 E.01715
G1 X82.862 Y100.978 E.21342
G1 X82.862 Y101.518 E.01715
G1 X87.075 Y105.731 E.18918
G1 X86.535 Y105.731 E.01715
G1 X82.862 Y102.058 E.16493
G1 X82.862 Y102.598 E.01715
G1 X85.995 Y105.731 E.14068
G1 X85.455 Y105.731 E.01715
G1 X82.862 Y103.138 E.11643
G1 X82.862 Y103.678 E.01715
G1 X84.915 Y105.731 E.09219
G1 X84.375 Y105.731 E.01715
G1 X82.862 Y104.218 E.06794
G1 X82.862 Y104.758 E.01715
G1 X83.835 Y105.731 E.04369
G1 X83.295 Y105.731 E.01715
G1 X82.692 Y105.128 E.02708
M204 S1000
; stop printing object 6_rotation_segment.stl id:2 copy 0
; printing object 5_bottom_segment_connector.stl id:0 copy 0
;WIPE_START
G1 F8640
G1 X83.295 Y105.731 E-.19691
G1 X83.835 Y105.731 E-.12469
G1 X82.862 Y104.758 E-.31773
G1 X82.862 Y104.218 E-.12469
G1 X82.972 Y104.328 E-.03598
;WIPE_END
G1 Z.6 F720
G1 X124.755 Y106.719 F10800
G1 Z.2 F720
G1 E.8 F2100
M204 S800
;TYPE:Perimeter
;WIDTH:0.419999
G1 F1200
G1 X124.692 Y106.72 E.00198
G1 X124.417 Y106.843 E.00945
G1 X124.272 Y107.027 E.00735
G1 X124.213 Y107.279 E.00811
G1 X124.213 Y117.932 E.33402
G1 X118.287 Y117.932 E.18581
M73 P2 R58
M73 Q2 S58
G1 X118.287 Y92.516 E.7969
G1 X118.324 Y91.804 E.02235
G1 X118.459 Y90.994 E.02575
G1 X118.613 Y90.437 E.01812
G1 X118.815 Y89.891 E.01825
G1 X119.065 Y89.365 E.01826
G1 X119.33 Y88.911 E.01648
G1 X119.623 Y88.481 E.01631
G1 X119.994 Y88.029 E.01833
G1 X120.4 Y87.612 E.01825
