; generated by PrusaSlicer 2.7.2+win64 on 2024-05-18 at 06:46:35 UTC


;
;
; 

; external perimeters extrusion width = 0.45mm
; perimeters extrusion width = 0.45mm
; infill extrusion width = 0.45mm
; solid infill extrusion width = 0.45mm
; top infill extrusion width = 0.40mm
; first layer extrusion width = 0.42mm

M73 P0 R105
M73 Q0 S106
M201 X1000 Y1000 Z200 E5000 ; sets maximum accelerations, mm/sec^2
M203 X200 Y200 Z12 E120 ; sets maximum feedrates, mm / sec
M204 S1250 T1250 ; sets acceleration (S) and retract acceleration (R), mm/sec^2
M205 X8.00 Y8.00 Z0.40 E4.50 ; sets the jerk limits, mm/sec
M205 S0 T0 ; sets the minimum extruding and travel feed rate, mm/sec

; printing object 7_fixed_arm_top.stl id:0 copy 0
; stop printing object 7_fixed_arm_top.stl id:0 copy 0

;TYPE:Custom
M862.3 P "MK3S" ; printer model check
M862.1 P0.4 ; nozzle diameter check
M115 U3.13.2 ; tell printer latest fw version
G90 ; use absolute coordinates
M83 ; extruder relative mode
M104 S215 ; set extruder temp
M140 S60 ; set bed temp
M190 S60 ; wait for bed temp
M109 S215 ; wait for extruder temp
G28 W ; home all without mesh bed level
G80 X65.4345 Y67.9344 W119.131 H74.1312 ; mesh bed levelling

G1 Z0.2 F720
G1 Y-3 F1000 ; go outside print area
G92 E0
G1 X60 E9 F1000 ; intro line
G1 X100 E12.5 F1000 ; intro line

G92 E0
M221 S95

; Don't change E values below. Excessive value can damage the printer.

M907 E538 ; set extruder motor current
G21 ; set units to millimeters
G90 ; use absolute coordinates
M83 ; use relative distances for extrusion

M900 K0.05 ; Filament gcode LA 1.5
M900 K30 ; Filament gcode LA 1.0




M107
;LAYER_CHANGE
;Z:0.2
;HEIGHT:0.2
G1 E-.8 F2100
G1 Z.6 F720
G1 X67.337 Y70.149 F10800
G1 Z.2 F720
G1 E.8 F2100
M204 S800
;TYPE:Skirt/Brim
;WIDTH:0.42
G1 F1200
G1 X68.521 Y69.155 E.04847
G1 X69.299 Y68.723 E.0279
G1 X70.12 Y68.406 E.02759
G1 X70.983 Y68.205 E.02778
G1 X71.901 Y68.124 E.0289
G1 X170.02 Y68.123 E3.07645
G1 X171.245 Y68.229 E.03855
M73 P0 R104
G1 X172.472 Y68.55 E.03977
G1 X173.556 Y69.036 E.03725
G1 X174.583 Y69.72 E.03869
G1 X175.505 Y70.589 E.03973
G1 X176.221 Y71.536 E.03722
G1 X176.795 Y72.629 E.03871
G1 X177.187 Y73.838 E.03985
G1 X184.349 Y130.899 E1.80315
M73 Q0 S105
G1 X184.35 Y132.086 E.03722
G1 X184.142 Y133.215 E.03599
G1 X183.724 Y134.311 E.03678
G1 X183.089 Y135.343 E.03799
G1 X182.315 Y136.196 E.03611
G1 X176.576 Y141.28 E.24039
G1 X175 Y141.877 E.05284
G1 X75 Y141.877 E3.13543
G1 X73.424 Y141.28 E.05284
G1 X67.657 Y136.17 E.24159
G1 X67.121 Y135.607 E.02437
G1 X66.624 Y134.931 E.02631
G1 X66.2 Y134.151 E.02784
G1 X65.889 Y133.323 E.02773
G1 X65.695 Y132.459 E.02776
G1 X65.624 Y131.584 E.02753
G1 X65.626 Y74.322 E1.79541
G1 X65.854 Y72.798 E.04832
G1 X66.428 Y71.398 E.04744
G1 X67.302 Y70.198 E.04655
M204 S1000
; printing object 7_fixed_arm_top.stl id:0 copy 0
;WIPE_START
G1 F8640
G1 X67.338 Y70.149 E-.01404
G1 X68.521 Y69.155 E-.35678
G1 X69.299 Y68.723 E-.20548
G1 X70.12 Y68.406 E-.20321
G1 X70.206 Y68.386 E-.02049
;WIPE_END
G1 Z.6 F720
G1 X174.794 Y134.72 F10800
G1 Z.2 F720
G1 E.8 F2100
M204 S800
;TYPE:Perimeter
;WIDTH:0.419999
G1 F1200
G1 X174.689 Y134.72 E.00329
G1 X174.465 Y134.808 E.00755
G1 X174.284 Y135.004 E.00837
G1 X174.213 Y135.279 E.00891
G1 X174.213 Y138.713 E.10767
G1 X75.787 Y138.713 E3.08607
G1 X75.787 Y135.279 E.10767
G1 X75.775 Y135.162 E.00369
G1 X75.69 Y134.962 E.00681
G1 X75.484 Y134.778 E.00866
G1 X75.222 Y134.713 E.00846
G1 X72.106 Y134.711 E.0977
G1 X71.513 Y134.674 E.01863
G1 X70.853 Y134.498 E.02142
G1 X70.305 Y134.227 E.01917
G1 X69.863 Y133.896 E.01731
G1 X69.446 Y133.445 E.01926
G1 X69.122 Y132.923 E.01926
G1 X68.92 Y132.407 E.01737
G1 X68.81 Y131.861 E.01746
G1 X68.795 Y131.305 E.01744
G1 X68.877 Y130.755 E.01744
G1 X69.053 Y130.226 E.01748
G1 X69.3 Y129.768 E.01632
G1 X69.615 Y129.358 E.01621
G1 X69.811 Y129.175 E.00841
G1 X70.291 Y128.787 E.01935
G1 X70.856 Y128.507 E.01977
G1 X71.443 Y128.337 E.01916
G1 X71.962 Y128.288 E.01635
G1 X75.302 Y128.281 E.10472
G1 X75.54 Y128.189 E.008
G1 X75.716 Y127.996 E.00819
G1 X75.787 Y127.721 E.00891
G1 X75.787 Y79.321 E1.51755
G1 X75.772 Y78.151 E.03669
G1 X75.667 Y77.93 E.00767
G1 X75.484 Y77.778 E.00746
G1 X75.222 Y77.713 E.00846
G1 X71.909 Y77.711 E.10388
G1 X71.223 Y77.615 E.02172
G1 X70.701 Y77.436 E.0173
G1 X70.213 Y77.168 E.01746
G1 X69.779 Y76.819 E.01746
G1 X69.416 Y76.405 E.01726
G1 X69.076 Y75.824 E.02111
G1 X68.894 Y75.276 E.0181
G1 X68.845 Y75.009 E.00851
G1 X68.803 Y74.393 E.01936
G1 X68.883 Y73.77 E.01969
G1 X69.095 Y73.15 E.02054
G1 X69.408 Y72.62 E.0193
G1 X69.816 Y72.154 E.01942
G1 X70.347 Y71.75 E.02092
G1 X70.869 Y71.502 E.01812
G1 X71.439 Y71.344 E.01855
G1 X72.021 Y71.287 E.01834
G1 X170.051 Y71.288 E3.07366
G1 X170.792 Y71.365 E.02336
G1 X171.563 Y71.59 E.02518
G1 X172.207 Y71.914 E.0226
G1 X172.846 Y72.397 E.02511
G1 X173.382 Y72.992 E.02511
G1 X173.76 Y73.606 E.02261
G1 X174.051 Y74.352 E.02511
G1 X174.148 Y74.88 E.01683
G1 X174.213 Y75.514 E.01998
G1 X174.216 Y127.781 E1.63879
G1 X174.31 Y128.038 E.00858
G1 X174.509 Y128.219 E.00843
G1 X174.779 Y128.287 E.00873
G1 X177.974 Y128.287 E.10018
G1 X178.55 Y128.337 E.01813
G1 X179.196 Y128.521 E.02106
G1 X179.64 Y128.756 E.01575
G1 X180.117 Y129.087 E.0182
G1 X180.432 Y129.405 E.01403
G1 X180.729 Y129.817 E.01592
G1 X180.994 Y130.352 E.01872
G1 X181.14 Y130.835 E.01582
G1 X181.205 Y131.334 E.01578
G1 X181.157 Y132.05 E.0225
G1 X181.018 Y132.591 E.01751
G1 X180.838 Y132.998 E.01395
G1 X180.57 Y133.423 E.01575
G1 X180.187 Y133.843 E.01782
G1 X179.607 Y134.28 E.02277
G1 X179.026 Y134.537 E.01992
G1 X178.535 Y134.65 E.0158
G1 X177.984 Y134.713 E.01739
G1 X174.854 Y134.72 E.09814
M204 S1000
G1 X174.854 Y134.72 F10800
G1 X174.809 Y135.09
M204 S800
;TYPE:External perimeter
G1 F1200
G1 X174.661 Y135.131 E.00482
G1 X174.59 Y135.279 E.00515
G1 X174.59 Y139.09 E.11949
G1 X75.41 Y139.09 E3.10971
G1 X75.41 Y135.279 E.11949
G1 X75.364 Y135.156 E.00412
G1 X75.222 Y135.09 E.00491
G1 X72.007 Y135.088 E.1008
G1 X71.446 Y135.046 E.01764
G1 X70.72 Y134.853 E.02355
G1 X70.107 Y134.549 E.02145
G1 X69.61 Y134.178 E.01945
G1 X69.145 Y133.675 E.02148
G1 X68.783 Y133.092 E.02152
G1 X68.557 Y132.514 E.01946
G1 X68.434 Y131.904 E.01951
G1 X68.417 Y131.282 E.01951
G1 X68.509 Y130.667 E.0195
G1 X68.705 Y130.076 E.01952
G1 X69.001 Y129.529 E.0195
G1 X69.385 Y129.042 E.01945
G1 X69.951 Y128.562 E.02327
G1 X70.387 Y128.297 E.016
G1 X70.846 Y128.105 E.0156
G1 X71.379 Y127.965 E.01728
G1 X71.944 Y127.911 E.0178
G1 X75.158 Y127.91 E.10077
G1 X75.341 Y127.868 E.00589
G1 X75.41 Y127.721 E.00509
G1 X75.41 Y78.279 E1.55022
G1 X75.348 Y78.138 E.00483
G1 X75.222 Y78.09 E.00423
G1 X71.882 Y78.088 E.10472
G1 X71.135 Y77.983 E.02365
G1 X70.548 Y77.782 E.01945
G1 X70.003 Y77.482 E.01951
G1 X69.517 Y77.092 E.01954
G1 X69.108 Y76.626 E.01944
G1 X68.731 Y75.981 E.02342
G1 X68.495 Y75.273 E.0234
G1 X68.411 Y74.533 E.02335
G1 X68.482 Y73.788 E.02346
G1 X68.706 Y73.076 E.0234
G1 X69.035 Y72.478 E.0214
G1 X69.518 Y71.908 E.02343
G1 X70.014 Y71.523 E.01969
G1 X70.472 Y71.257 E.01661
G1 X70.964 Y71.067 E.01654
G1 X71.503 Y70.945 E.01733
G1 X72.008 Y70.91 E.01587
G1 X170.07 Y70.911 E3.07466
G1 X170.865 Y70.993 E.02506
G1 X171.702 Y71.238 E.02734
G1 X172.407 Y71.593 E.02475
G1 X173.102 Y72.118 E.02731
G1 X173.685 Y72.765 E.02731
G1 X174.099 Y73.437 E.02475
G1 X174.415 Y74.249 E.02732
G1 X174.518 Y74.812 E.01795
G1 X174.59 Y75.505 E.02185
G1 X174.59 Y127.721 E1.63719
G1 X174.636 Y127.844 E.00412
G1 X174.779 Y127.91 E.00494
G1 X177.991 Y127.91 E.10071
G1 X178.618 Y127.965 E.01973
G1 X179.337 Y128.17 E.02344
G1 X179.939 Y128.488 E.02135
G1 X180.391 Y128.823 E.01764
G1 X180.769 Y129.22 E.01719
G1 X181.058 Y129.633 E.0158
G1 X181.388 Y130.322 E.02395
G1 X181.525 Y130.838 E.01674
G1 X181.582 Y131.337 E.01575
G1 X181.57 Y131.835 E.01562
G1 X181.481 Y132.355 E.01654
G1 X181.252 Y132.999 E.02143
G1 X180.999 Y133.457 E.01641
G1 X180.638 Y133.926 E.01856
G1 X180.241 Y134.3 E.0171
G1 X179.79 Y134.611 E.01718
G1 X179.103 Y134.915 E.02356
G1 X178.613 Y135.019 E.01571
G1 X177.994 Y135.09 E.01954
G1 X174.869 Y135.09 E.09798
M204 S1000
;WIPE_START
G1 F8640
G1 X174.809 Y135.09 E-.01385
G1 X174.661 Y135.131 E-.03546
G1 X174.59 Y135.279 E-.0379
G1 X174.59 Y138.366 E-.71279
;WIPE_END
G1 Z.6 F720
G1 X176.684 Y133.483 F10800
G1 Z.2 F720
M73 P1 R104
G1 E.8 F2100
M204 S800
;TYPE:Perimeter
G1 F1200
M73 Q1 S105
G1 X176.633 Y133.455 E.00182
G1 X176.283 Y133.155 E.01445
G1 X175.965 Y132.741 E.01637
G1 X175.775 Y132.36 E.01335
G1 X175.652 Y131.921 E.01429
G1 X175.615 Y131.467 E.01428
G1 X175.666 Y131.009 E.01445
G1 X175.817 Y130.54 E.01545
G1 X176.039 Y130.142 E.01429
G1 X176.333 Y129.794 E.01428
G1 X176.693 Y129.505 E.01447
G1 X177.13 Y129.279 E.01543
G1 X177.569 Y129.154 E.01431
G1 X178.028 Y129.115 E.01444
G1 X178.517 Y129.171 E.01543
G1 X178.951 Y129.312 E.01431
G1 X179.353 Y129.536 E.01443
G1 X179.728 Y129.856 E.01546
G1 X180.009 Y130.215 E.01429
G1 X180.253 Y130.739 E.01812
G1 X180.351 Y131.099 E.0117
G1 X180.373 Y131.678 E.01817
G1 X180.329 Y132.012 E.01056
G1 X180.175 Y132.479 E.01542
G1 X179.934 Y132.893 E.01502
G1 X179.652 Y133.221 E.01356
G1 X179.21 Y133.549 E.01726
G1 X178.74 Y133.762 E.01618
G1 X178.223 Y133.868 E.01655
G1 X177.956 Y133.885 E.00839
G1 X177.499 Y133.832 E.01442
G1 X177.031 Y133.68 E.01543
G1 X176.736 Y133.513 E.01063
M204 S1000
G1 X176.736 Y133.513 F10800
G1 X176.859 Y133.152
M204 S800
;TYPE:External perimeter
G1 F1200
G1 X176.575 Y132.916 E.01158
G1 X176.298 Y132.564 E.01404
G1 X176.136 Y132.25 E.01108
G1 X176.027 Y131.882 E.01203
G1 X175.991 Y131.5 E.01203
G1 X176.028 Y131.115 E.01213
G1 X176.15 Y130.717 E.01305
G1 X176.333 Y130.379 E.01205
G1 X176.576 Y130.082 E.01203
G1 X176.874 Y129.836 E.01212
G1 X177.242 Y129.639 E.01309
G1 X177.61 Y129.529 E.01204
G1 X177.993 Y129.491 E.01207
G1 X178.408 Y129.533 E.01308
G1 X178.776 Y129.646 E.01207
G1 X179.115 Y129.829 E.01208
G1 X179.522 Y130.199 E.01725
G1 X179.678 Y130.394 E.00783
G1 X179.893 Y130.849 E.01578
G1 X179.976 Y131.135 E.00934
G1 X179.997 Y131.642 E.01591
G1 X179.969 Y131.902 E.0082
G1 X179.843 Y132.3 E.01309
G1 X179.643 Y132.654 E.01275
G1 X179.411 Y132.93 E.0113
G1 X179.032 Y133.216 E.01489
G1 X178.631 Y133.401 E.01385
G1 X178.186 Y133.493 E.01425
G1 X177.644 Y133.478 E.017
G1 X177.209 Y133.347 E.01424
G1 X176.91 Y133.184 E.01068
M204 S1000
;WIPE_START
G1 F8640
G1 X176.859 Y133.152 E-.0139
G1 X176.575 Y132.916 E-.08526
G1 X176.298 Y132.564 E-.10343
G1 X176.136 Y132.25 E-.08158
G1 X176.027 Y131.882 E-.08862
G1 X175.991 Y131.5 E-.0886
G1 X176.028 Y131.115 E-.08931
G1 X176.15 Y130.717 E-.09612
G1 X176.333 Y130.379 E-.08875
G1 X176.51 Y130.163 E-.06443
;WIPE_END
G1 Z.6 F720
G1 X161.241 Y85.937 F10800
G1 Z.2 F720
G1 E.8 F2100
M204 S800
;TYPE:Perimeter
G1 F1200
G1 X161.306 Y85.721 E.00707
G1 X161.523 Y85.527 E.00913
G1 X161.779 Y85.466 E.00825
G1 X165.221 Y85.466 E.10792
G1 X165.477 Y85.527 E.00825
G1 X165.663 Y85.678 E.00751
G1 X165.778 Y85.933 E.00877
G1 X165.787 Y123.969 E1.19259
G1 X165.728 Y124.221 E.00811
G1 X165.55 Y124.429 E.00858
G1 X165.408 Y124.503 E.00502
G1 X165.221 Y124.534 E.00594
G1 X161.779 Y124.534 E.10792
G1 X161.523 Y124.473 E.00825
M73 P1 R103
G1 X161.306 Y124.279 E.00913
G1 X161.215 Y124.018 E.00867
G1 X161.213 Y86.031 E1.19105
G1 X161.224 Y85.995 E.00118
M204 S1000
G1 X161.224 Y85.995 F10800
G1 X161.59 Y86.031
M204 S800
;TYPE:External perimeter
G1 F1200
G1 X161.664 Y85.881 E.00524
G1 X161.779 Y85.843 E.0038
G1 X165.221 Y85.843 E.10792
G1 X165.369 Y85.914 E.00515
G1 X165.41 Y86.031 E.00389
G1 X165.41 Y123.969 E1.18952
G1 X165.345 Y124.111 E.0049
G1 X165.284 Y124.147 E.00222
G1 X161.779 Y124.157 E.1099
G1 X161.644 Y124.101 E.00458
G1 X161.59 Y123.969 E.00447
G1 X161.59 Y86.091 E1.18764
M204 S1000
;WIPE_START
G1 F8640
M73 Q1 S104
G1 X161.59 Y86.031 E-.01385
G1 X161.664 Y85.881 E-.03862
G1 X161.779 Y85.843 E-.02797
G1 X164.896 Y85.843 E-.71956
;WIPE_END
G1 Z.6 F720
G1 X157.302 Y85.485 F10800
G1 Z.2 F720
G1 E.8 F2100
M204 S800
;TYPE:Perimeter
G1 F1200
G1 X157.477 Y85.527 E.00564
G1 X157.694 Y85.721 E.00913
G1 X157.787 Y86.031 E.01015
G1 X157.787 Y123.969 E1.18952
G1 X157.759 Y124.145 E.00559
G1 X157.624 Y124.366 E.00812
G1 X157.403 Y124.504 E.00817
G1 X157.221 Y124.534 E.00578
G1 X153.779 Y124.534 E.10792
G1 X153.523 Y124.473 E.00825
G1 X153.306 Y124.279 E.00913
G1 X153.215 Y124.018 E.00867
G1 X153.213 Y86.031 E1.19105
G1 X153.306 Y85.721 E.01015
G1 X153.523 Y85.527 E.00913
G1 X153.779 Y85.466 E.00825
G1 X157.221 Y85.466 E.10792
G1 X157.243 Y85.471 E.00071
M204 S1000
G1 X157.243 Y85.471 F10800
G1 X157.221 Y85.843
M204 S800
;TYPE:External perimeter
G1 F1200
G1 X157.356 Y85.899 E.00458
G1 X157.41 Y86.031 E.00447
G1 X157.41 Y123.969 E1.18952
G1 X157.336 Y124.119 E.00524
G1 X157.282 Y124.147 E.00191
G1 X153.779 Y124.157 E.10983
G1 X153.644 Y124.101 E.00458
G1 X153.59 Y123.969 E.00447
G1 X153.59 Y86.031 E1.18952
G1 X153.664 Y85.881 E.00524
G1 X153.779 Y85.843 E.0038
G1 X157.161 Y85.843 E.10604
M204 S1000
;WIPE_START
G1 F8640
G1 X157.221 Y85.843 E-.01385
G1 X157.356 Y85.899 E-.03375
G1 X157.41 Y86.031 E-.03293
G1 X157.41 Y89.147 E-.71947
;WIPE_END
G1 Z.6 F720
G1 X149.302 Y85.485 F10800
G1 Z.2 F720
G1 E.8 F2100
M204 S800
;TYPE:Perimeter
G1 F1200
G1 X149.477 Y85.527 E.00564
G1 X149.694 Y85.721 E.00913
G1 X149.787 Y86.031 E.01015
G1 X149.787 Y123.969 E1.18952
G1 X149.759 Y124.145 E.00559
G1 X149.624 Y124.366 E.00812
G1 X149.386 Y124.51 E.00872
G1 X149.277 Y124.531 E.00348
G1 X145.779 Y124.534 E.10968
G1 X145.523 Y124.473 E.00825
G1 X145.306 Y124.279 E.00913
G1 X145.215 Y124.018 E.00867
G1 X145.213 Y86.031 E1.19105
G1 X145.306 Y85.721 E.01015
G1 X145.523 Y85.527 E.00913
G1 X145.779 Y85.466 E.00825
G1 X149.221 Y85.466 E.10792
G1 X149.243 Y85.471 E.00071
M204 S1000
G1 X149.243 Y85.471 F10800
G1 X149.221 Y85.843
M204 S800
;TYPE:External perimeter
G1 F1200
G1 X149.356 Y85.899 E.00458
G1 X149.41 Y86.031 E.00447
G1 X149.41 Y123.969 E1.18952
G1 X149.336 Y124.119 E.00524
G1 X149.24 Y124.156 E.00323
G1 X145.779 Y124.157 E.10852
G1 X145.644 Y124.101 E.00458
G1 X145.59 Y123.969 E.00447
G1 X145.59 Y86.031 E1.18952
G1 X145.664 Y85.881 E.00524
G1 X145.779 Y85.843 E.0038
G1 X149.161 Y85.843 E.10604
M204 S1000
;WIPE_START
G1 F8640
G1 X149.221 Y85.843 E-.01385
G1 X149.356 Y85.899 E-.03375
G1 X149.41 Y86.031 E-.03293
G1 X149.41 Y89.147 E-.71947
;WIPE_END
G1 Z.6 F720
G1 X119.217 Y134.764 F10800
G1 Z.2 F720
G1 E.8 F2100
M204 S800
;TYPE:Perimeter
G1 F1200
G1 X119.213 Y134.721 E.00135
G1 X119.213 Y124.534 E.31941
G1 X116.779 Y124.534 E.07632
G1 X116.497 Y124.459 E.00915
G1 X116.314 Y124.292 E.00777
G1 X116.215 Y124.018 E.00913
G1 X116.213 Y86.031 E1.19105
G1 X116.306 Y85.721 E.01015
G1 X116.523 Y85.527 E.00913
G1 X116.779 Y85.466 E.00825
G1 X120.221 Y85.466 E.10792
G1 X120.497 Y85.537 E.00894
G1 X120.68 Y85.7 E.00768
G1 X120.781 Y85.95 E.00845
G1 X120.787 Y103.713 E.55695
G1 X125 Y103.713 E.1321
G1 X129.213 Y103.713 E.1321
G1 X129.213 Y86.031 E.55441
G1 X129.289 Y85.748 E.00919
G1 X129.457 Y85.566 E.00777
G1 X129.72 Y85.469 E.00879
G1 X133.221 Y85.466 E.10977
G1 X133.477 Y85.527 E.00825
G1 X133.694 Y85.721 E.00913
G1 X133.787 Y86.031 E.01015
G1 X133.787 Y123.969 E1.18952
G1 X133.756 Y124.155 E.00591
G1 X133.613 Y124.377 E.00828
G1 X133.364 Y124.516 E.00894
G1 X133.221 Y124.534 E.00452
G1 X130.787 Y124.534 E.07632
G1 X130.787 Y134.721 E.31941
G1 X130.744 Y134.939 E.00697
G1 X130.561 Y135.174 E.00934
G1 X130.319 Y135.279 E.00827
G1 X119.779 Y135.287 E.33047
G1 X119.595 Y135.257 E.00585
G1 X119.326 Y135.061 E.01044
G1 X119.222 Y134.824 E.00811
M204 S1000
G1 X119.222 Y134.824 F10800
G1 X119.59 Y134.721
M204 S800
;TYPE:External perimeter
G1 F1200
G1 X119.59 Y124.157 E.33123
G1 X116.779 Y124.157 E.08814
G1 X116.648 Y124.105 E.00442
G1 X116.59 Y123.969 E.00464
G1 X116.59 Y86.031 E1.18952
G1 X116.664 Y85.881 E.00524
G1 X116.779 Y85.843 E.0038
G1 X120.221 Y85.843 E.10792
G1 X120.364 Y85.908 E.00493
G1 X120.41 Y86.031 E.00412
G1 X120.41 Y104.09 E.56623
G1 X125 Y104.09 E.14392
G1 X129.59 Y104.09 E.14392
G1 X129.59 Y86.031 E.56623
G1 X129.655 Y85.889 E.0049
