; generated by PrusaSlicer 2.7.3+win64 on 2024-04-21 at 09:45:34 UTC


;
;
; 

; external perimeters extrusion width = 0.45mm
; perimeters extrusion width = 0.45mm
; infill extrusion width = 0.45mm
; solid infill extrusion width = 0.45mm
; top infill extrusion width = 0.40mm
; first layer extrusion width = 0.42mm

M73 P0 R132
M73 Q0 S134
M201 X1000 Y1000 Z200 E5000 ; sets maximum accelerations, mm/sec^2
M203 X200 Y200 Z12 E120 ; sets maximum feedrates, mm / sec
M204 S1250 T1250 ; sets acceleration (S) and retract acceleration (R), mm/sec^2
M205 X8.00 Y8.00 Z0.40 E4.50 ; sets the jerk limits, mm/sec
M205 S0 T0 ; sets the minimum extruding and travel feed rate, mm/sec

; printing object 3_stepperplug_connector.stl id:0 copy 0
; stop printing object 3_stepperplug_connector.stl id:0 copy 0

;TYPE:Custom
M862.3 P "MK3S" ; printer model check
M862.1 P0.4 ; nozzle diameter check
M115 U3.12.2 ; tell printer latest fw version
G90 ; use absolute coordinates
M83 ; extruder relative mode
M104 S215 ; set extruder temp
M140 S60 ; set bed temp
M190 S60 ; wait for bed temp
M109 S215 ; wait for extruder temp
G28 W ; home all without mesh bed level
G80 ; mesh bed leveling

G1 Z0.2 F720
G1 Y-3 F1000 ; go outside print area
G92 E0
G1 X60 E9 F1000 ; intro line
G1 X100 E12.5 F1000 ; intro line

G92 E0
M221 S95

; Don't change E values below. Excessive value can damage the printer.

M907 E538 ; set extruder motor current
G21 ; set units to millimeters
G90 ; use absolute coordinates
M83 ; use relative distances for extrusion
M900 K0.05 ; Filament gcode LA 1.5
M900 K30 ; Filament gcode LA 1.0
M107
;LAYER_CHANGE
;Z:0.2
;HEIGHT:0.2
G1 E-.8 F2100
G1 Z.6 F720
G1 X109.623 Y25 F10800
G1 Z.2 F720
G1 E.8 F2100
M204 S800
;TYPE:Skirt/Brim
;WIDTH:0.42
G1 F1200
G1 X110.015 Y23.693 E.04278
G1 X111.06 Y22.817 E.04275
G1 X112 Y22.623 E.03009
G1 X138 Y22.623 E.81521
G1 X139.307 Y23.015 E.04278
G1 X140.183 Y24.06 E.04275
G1 X140.377 Y25 E.03009
G1 X140.377 Y185 E5.01669
G1 X139.985 Y186.307 E.04278
G1 X138.94 Y187.183 E.04275
G1 X138 Y187.377 E.03009
G1 X112 Y187.377 E.81521
G1 X110.693 Y186.985 E.04278
G1 X109.817 Y185.94 E.04275
G1 X109.623 Y185 E.03009
G1 X109.623 Y25.06 E5.01481
M204 S1000
;WIPE_START
G1 F8640
G1 X109.623 Y25 E-.01385
G1 X110.015 Y23.693 E-.31507
G1 X111.06 Y22.817 E-.31486
G1 X111.723 Y22.68 E-.15622
;WIPE_END
G1 Z.6 F720
; printing object 3_stepperplug_connector.stl id:0 copy 0
G1 X137.213 Y184.213 F10800
G1 Z.2 F720
G1 E.8 F2100
M204 S800
;TYPE:Perimeter
;WIDTH:0.419999
G1 F1200
G1 X112.787 Y184.213 E.76586
G1 X112.787 Y25.787 E4.96733
G1 X137.213 Y25.787 E.76586
M73 P0 R131
M73 Q0 S133
G1 X137.213 Y28.75 E.0929
G1 X137.213 Y184.153 E4.87254
M204 S1000
G1 X137.59 Y184.59 F10800
M204 S800
;TYPE:External perimeter
G1 F1200
G1 X112.41 Y184.59 E.7895
G1 X112.41 Y25.41 E4.99097
G1 X137.59 Y25.41 E.7895
G1 X137.59 Y28.75 E.10472
G1 X137.59 Y184.53 E4.88436
M204 S1000
;WIPE_START
G1 F8640
G1 X137.59 Y184.59 E-.01385
G1 X134.185 Y184.59 E-.78615
;WIPE_END
G1 Z.6 F720
G1 X134.766 Y32.192 F10800
G1 Z.2 F720
G1 E.8 F2100
M204 S800
;TYPE:Perimeter
G1 F1200
G1 X134.787 Y32.279 E.00281
G1 X134.787 Y52.721 E.64094
G1 X134.72 Y52.988 E.00863
G1 X134.56 Y53.174 E.00769
G1 X134.379 Y53.265 E.00635
G1 X133.684 Y53.287 E.0218
G1 X129.999 Y53.283 E.11554
G1 X129.653 Y53.268 E.01086
G1 X130.005 Y53.627 E.01576
G1 X130.249 Y54.068 E.0158
G1 X130.386 Y54.514 E.01463
G1 X130.435 Y54.981 E.01472
G1 X130.393 Y55.448 E.0147
G1 X130.252 Y55.928 E.01569
G1 X130.013 Y56.367 E.01567
G1 X129.709 Y56.731 E.01487
G1 X129.378 Y57.007 E.01351
G1 X128.941 Y57.246 E.01562
G1 X128.492 Y57.385 E.01474
G1 X128.031 Y57.435 E.01454
G1 X127.567 Y57.396 E.0146
G1 X127.108 Y57.265 E.01497
G1 X126.648 Y57.023 E.0163
G1 X126.266 Y56.705 E.01558
G1 X125.983 Y56.36 E.01399
G1 X125.758 Y55.951 E.01464
G1 X125.617 Y55.503 E.01473
G1 X125.565 Y55.041 E.01458
G1 X125.602 Y54.576 E.01463
G1 X125.728 Y54.125 E.01468
G1 X125.946 Y53.7 E.01498
G1 X126.322 Y53.27 E.01791
G1 X121.779 Y53.287 E.14244
G1 X121.539 Y53.234 E.00771
G1 X121.32 Y53.052 E.00893
G1 X121.22 Y52.812 E.00815
G1 X121.213 Y32.279 E.6438
G1 X121.263 Y32.046 E.00747
G1 X121.448 Y31.82 E.00916
G1 X121.681 Y31.721 E.00794
G1 X126.001 Y31.717 E.13545
G1 X126.328 Y31.731 E.01026
G1 X126.103 Y31.512 E.00984
G1 X125.893 Y31.216 E.01138
G1 X125.697 Y30.79 E.0147
G1 X125.588 Y30.331 E.01479
G1 X125.572 Y29.824 E.0159
G1 X125.663 Y29.319 E.01609
G1 X125.872 Y28.818 E.01702
G1 X126.163 Y28.402 E.01592
G1 X126.534 Y28.056 E.01591
G1 X126.97 Y27.794 E.01595
G1 X127.454 Y27.628 E.01604
G1 X127.982 Y27.565 E.01667
G1 X128.412 Y27.6 E.01353
G1 X128.861 Y27.722 E.01459
G1 X129.275 Y27.925 E.01446
G1 X129.619 Y28.181 E.01344
G1 X129.933 Y28.518 E.01444
G1 X130.161 Y28.876 E.01331
G1 X130.368 Y29.452 E.01919
G1 X130.435 Y30.042 E.01862
G1 X130.358 Y30.606 E.01785
G1 X130.199 Y31.045 E.01464
G1 X129.9 Y31.504 E.01718
G1 X129.679 Y31.73 E.00991
G1 X134.226 Y31.713 E.14257
G1 X134.384 Y31.737 E.00501
G1 X134.564 Y31.828 E.00632
G1 X134.722 Y32.014 E.00765
G1 X134.751 Y32.134 E.00387
M204 S1000
G1 X134.751 Y32.134 F10800
G1 X134.41 Y32.279
M204 S800
;TYPE:External perimeter
G1 F1200
G1 X134.41 Y52.721 E.64094
G1 X134.334 Y52.872 E.0053
G1 X134.221 Y52.91 E.00374
G1 X129.999 Y52.906 E.13238
G1 X129.49 Y52.884 E.01597
;WIDTH:0.444126
G1 X128.475 Y52.763 E.0341
;WIDTH:0.424638
G1 X127.971 Y52.755 E.016
;WIDTH:0.423315
G1 X127.47 Y52.768 E.01585
G1 X126.634 Y52.869 E.02663
;WIDTH:0.419999
G1 X126.077 Y52.903 E.0175
G1 X121.779 Y52.91 E.13476
G1 X121.643 Y52.852 E.00464
G1 X121.59 Y52.721 E.00443
G1 X121.59 Y32.279 E.64094
G1 X121.642 Y32.149 E.00439
G1 X121.779 Y32.09 E.00468
G1 X126.001 Y32.094 E.13238
G1 X126.51 Y32.116 E.01597
;WIDTH:0.433882
G1 X127.514 Y32.237 E.03287
;WIDTH:0.423165
G1 X128.039 Y32.245 E.0166
;WIDTH:0.437595
G1 X129.469 Y32.118 E.04711
;WIDTH:0.419999
G1 X129.991 Y32.094 E.01638
G1 X134.223 Y32.09 E.13269
G1 X134.336 Y32.128 E.00374
G1 X134.383 Y32.225 E.00338
M204 S1000
;WIPE_START
G1 F8640
G1 X134.41 Y32.279 E-.01394
G1 X134.41 Y35.683 E-.78606
;WIPE_END
G1 Z.6 F720
G1 X128.639 Y31.813 F10800
G1 Z.2 F720
G1 E.8 F2100
M204 S800
;WIDTH:0.437595
G1 F1200
G1 X128.084 Y31.879 E.01834
;WIDTH:0.420905
G1 X127.577 Y31.861 E.01594
;WIDTH:0.433882
G1 X127.118 Y31.774 E.01519
G1 X126.723 Y31.571 E.01444
;WIDTH:0.419999
G1 X126.405 Y31.285 E.01341
G1 X126.232 Y31.05 E.00915
G1 X126.061 Y30.694 E.01238
G1 X125.964 Y30.31 E.01242
G1 X125.944 Y29.882 E.01343
G1 X126.014 Y29.456 E.01354
G1 X126.185 Y29.027 E.01448
G1 X126.427 Y28.671 E.0135
G1 X126.736 Y28.374 E.01344
G1 X127.101 Y28.147 E.01348
G1 X127.506 Y28.001 E.0135
G1 X127.96 Y27.941 E.01436
G1 X128.321 Y27.966 E.01135
G1 X128.702 Y28.064 E.01233
G1 X129.057 Y28.232 E.01231
G1 X129.348 Y28.443 E.01127
G1 X129.619 Y28.727 E.01231
G1 X129.815 Y29.027 E.01124
G1 X130.001 Y29.541 E.01714
G1 X130.058 Y30.064 E.0165
G1 X130.001 Y30.486 E.01335
G1 X129.872 Y30.858 E.01235
G1 X129.594 Y31.282 E.0159
G1 X129.204 Y31.624 E.01626
;WIDTH:0.437595
G1 X128.833 Y31.79 E.01334
G1 X128.699 Y31.806 E.00443
M204 S1000
;WIPE_START
G1 F8640
G1 X128.639 Y31.813 E-.01395
G1 X128.084 Y31.879 E-.12905
G1 X127.577 Y31.861 E-.11714
G1 X127.118 Y31.774 E-.10787
G1 X126.723 Y31.571 E-.10255
G1 X126.405 Y31.285 E-.09876
G1 X126.232 Y31.05 E-.06738
G1 X126.061 Y30.694 E-.09119
G1 X125.985 Y30.391 E-.07211
;WIPE_END
G1 Z.6 F720
G1 X127.063 Y53.252 F10800
G1 Z.2 F720
G1 E.8 F2100
M204 S800
;WIDTH:0.439765
G1 F1200
G1 X127.138 Y53.216 E.00275
G1 X127.54 Y53.143 E.01348
;WIDTH:0.423846
G1 X128.375 Y53.135 E.02645
;WIDTH:0.444126
G1 X128.868 Y53.216 E.01667
G1 X129.266 Y53.425 E.015
;WIDTH:0.419999
G1 X129.645 Y53.773 E.01613
G1 X129.891 Y54.186 E.01507
G1 X130.012 Y54.562 E.01238
G1 X130.059 Y54.956 E.01244
G1 X130.029 Y55.349 E.01236
G1 X129.915 Y55.758 E.01331
G1 X129.715 Y56.136 E.01341
G1 X129.46 Y56.448 E.01263
G1 X129.19 Y56.68 E.01116
G1 X128.822 Y56.888 E.01325
G1 X128.443 Y57.011 E.01249
G1 X127.872 Y57.048 E.01794
G1 X127.661 Y57.031 E.00664
G1 X127.273 Y56.926 E.0126
G1 X126.877 Y56.724 E.01394
G1 X126.548 Y56.455 E.01332
G1 X126.309 Y56.17 E.01166
G1 X126.115 Y55.83 E.01227
G1 X125.991 Y55.452 E.01247
G1 X125.942 Y55.063 E.01229
G1 X125.968 Y54.669 E.01238
G1 X126.068 Y54.288 E.01235
G1 X126.244 Y53.931 E.01248
G1 X126.491 Y53.62 E.01245
G1 X126.781 Y53.386 E.01168
;WIDTH:0.439765
G1 X127.009 Y53.278 E.00832
M204 S1000
;WIPE_START
G1 F8640
G1 X127.063 Y53.252 E-.01384
G1 X127.138 Y53.216 E-.01921
G1 X127.54 Y53.143 E-.09434
G1 X128.375 Y53.135 E-.19281
G1 X128.868 Y53.216 E-.11536
G1 X129.266 Y53.425 E-.1038
G1 X129.645 Y53.773 E-.11881
G1 X129.891 Y54.186 E-.111
G1 X129.932 Y54.313 E-.03083
;WIPE_END
G1 Z.6 F720
G1 X134.276 Y62.971 F10800
G1 Z.2 F720
G1 E.8 F2100
M204 S800
;TYPE:Perimeter
;WIDTH:0.419999
G1 F1200
G1 X134.379 Y62.985 E.00326
G1 X134.56 Y63.076 E.00635
G1 X134.72 Y63.262 E.00769
G1 X134.787 Y63.529 E.00863
G1 X134.787 Y83.971 E.64094
G1 X134.72 Y84.238 E.00863
G1 X134.56 Y84.424 E.00769
G1 X134.379 Y84.515 E.00635
G1 X133.684 Y84.537 E.0218
G1 X129.999 Y84.533 E.11554
G1 X129.653 Y84.518 E.01086
G1 X130.006 Y84.877 E.01579
G1 X130.249 Y85.318 E.01579
G1 X130.386 Y85.764 E.01463
G1 X130.435 Y86.231 E.01472
G1 X130.393 Y86.698 E.0147
G1 X130.252 Y87.178 E.01569
G1 X130.032 Y87.593 E.01473
G1 X129.725 Y87.967 E.01517
G1 X129.369 Y88.262 E.0145
G1 X128.944 Y88.492 E.01515
G1 X128.489 Y88.632 E.01493
G1 X128.03 Y88.685 E.01449
G1 X127.544 Y88.64 E.0153
G1 X127.06 Y88.494 E.01585
G1 X126.634 Y88.263 E.01519
G1 X126.263 Y87.952 E.01518
G1 X125.983 Y87.609 E.01388
G1 X125.758 Y87.201 E.01461
G1 X125.617 Y86.753 E.01473
G1 X125.565 Y86.291 E.01458
G1 X125.602 Y85.827 E.01459
G1 X125.728 Y85.375 E.01471
G1 X125.946 Y84.949 E.015
G1 X126.322 Y84.52 E.01789
G1 X121.779 Y84.537 E.14244
G1 X121.539 Y84.484 E.00771
G1 X121.32 Y84.302 E.00893
G1 X121.22 Y84.062 E.00815
G1 X121.213 Y83.971 E.00286
G1 X121.213 Y63.529 E.64094
G1 X121.276 Y63.27 E.00836
M73 Q1 S133
G1 X121.428 Y63.085 E.00751
G1 X121.667 Y62.974 E.00826
G1 X126.001 Y62.967 E.13589
G1 X126.327 Y62.981 E.01023
M73 P1 R131
G1 X126.103 Y62.762 E.00982
G1 X125.893 Y62.466 E.01138
G1 X125.697 Y62.04 E.0147
G1 X125.587 Y61.576 E.01495
G1 X125.575 Y61.033 E.01703
G1 X125.673 Y60.534 E.01594
G1 X125.872 Y60.067 E.01592
G1 X126.163 Y59.652 E.01589
G1 X126.539 Y59.303 E.01608
G1 X127.008 Y59.026 E.01708
G1 X127.485 Y58.87 E.01574
G1 X127.982 Y58.815 E.01568
G1 X128.412 Y58.85 E.01353
G1 X128.861 Y58.972 E.01459
G1 X129.277 Y59.176 E.01453
G1 X129.643 Y59.455 E.01443
G1 X129.926 Y59.764 E.01314
G1 X130.16 Y60.126 E.01352
G1 X130.323 Y60.517 E.01328
G1 X130.415 Y60.934 E.01339
G1 X130.431 Y61.401 E.01465
G1 X130.357 Y61.86 E.01458
G1 X130.199 Y62.295 E.01451
G1 X129.9 Y62.754 E.01718
G1 X129.679 Y62.98 E.00991
G1 X134.216 Y62.963 E.14226
M204 S1000
;WIPE_START
G1 F8640
G1 X134.276 Y62.971 E-.01398
G1 X134.379 Y62.985 E-.024
G1 X134.56 Y63.076 E-.04678
G1 X134.72 Y63.262 E-.05665
G1 X134.787 Y63.529 E-.06356
G1 X134.787 Y66.106 E-.59503
;WIPE_END
G1 Z.6 F720
G1 X128.622 Y84.426 F10800
G1 Z.2 F720
G1 E.8 F2100
M204 S800
;TYPE:External perimeter
;WIDTH:0.444112
G1 F1200
G1 X128.868 Y84.466 E.00831
G1 X129.266 Y84.675 E.015
;WIDTH:0.419999
G1 X129.645 Y85.023 E.01613
G1 X129.891 Y85.436 E.01507
G1 X130.012 Y85.812 E.01238
G1 X130.059 Y86.206 E.01244
G1 X130.029 Y86.6 E.01239
G1 X129.915 Y87.009 E.01331
G1 X129.733 Y87.362 E.01245
G1 X129.476 Y87.684 E.01292
G1 X129.178 Y87.937 E.01226
G1 X128.819 Y88.137 E.01289
G1 X128.437 Y88.259 E.01257
G1 X128.053 Y88.309 E.01214
G1 X127.641 Y88.276 E.01296
G1 X127.227 Y88.157 E.01351
G1 X126.863 Y87.963 E.01293
G1 X126.545 Y87.701 E.01292
G1 X126.309 Y87.419 E.01153
G1 X126.115 Y87.08 E.01225
G1 X125.991 Y86.702 E.01247
G1 X125.942 Y86.313 E.01229
G1 X125.967 Y85.92 E.01235
G1 X126.068 Y85.538 E.01239
G1 X126.244 Y85.18 E.01251
G1 X126.492 Y84.869 E.01247
G1 X126.744 Y84.659 E.01029
;WIDTH:0.439754
G1 X127.138 Y84.466 E.01448
G1 X127.54 Y84.393 E.01348
;WIDTH:0.423843
G1 X128.375 Y84.385 E.02645
;WIDTH:0.444112
G1 X128.562 Y84.416 E.00632
M204 S1000
;WIPE_START
G1 F8640
G1 X128.622 Y84.426 E-.01405
G1 X128.868 Y84.466 E-.05755
G1 X129.266 Y84.675 E-.1038
G1 X129.645 Y85.023 E-.11881
G1 X129.891 Y85.436 E-.111
G1 X130.012 Y85.812 E-.0912
G1 X130.059 Y86.206 E-.09162
G1 X130.029 Y86.6 E-.09124
G1 X129.915 Y87.009 E-.09804
G1 X129.87 Y87.096 E-.02269
;WIPE_END
G1 Z.6 F720
G1 X134.221 Y63.34 F10800
G1 Z.2 F720
G1 E.8 F2100
M204 S800
;WIDTH:0.419999
G1 F1200
G1 X134.334 Y63.378 E.00374
G1 X134.41 Y63.529 E.0053
G1 X134.41 Y83.971 E.64094
G1 X134.334 Y84.122 E.0053
G1 X134.221 Y84.16 E.00374
G1 X129.999 Y84.156 E.13238
G1 X129.49 Y84.134 E.01597
;WIDTH:0.444112
G1 X128.475 Y84.013 E.0341
;WIDTH:0.424633
G1 X127.971 Y84.005 E.016
;WIDTH:0.423314
G1 X127.47 Y84.018 E.01585
G1 X126.634 Y84.119 E.02663
;WIDTH:0.419999
G1 X126.078 Y84.153 E.01747
G1 X121.779 Y84.16 E.13479
G1 X121.643 Y84.102 E.00464
G1 X121.59 Y83.971 E.00443
G1 X121.59 Y63.529 E.64094
G1 X121.662 Y63.381 E.00516
G1 X121.779 Y63.34 E.00389
G1 X126.001 Y63.344 E.13238
G1 X126.51 Y63.366 E.01597
;WIDTH:0.433861
G1 X127.514 Y63.487 E.03287
;WIDTH:0.423164
G1 X128.039 Y63.495 E.0166
;WIDTH:0.437607
G1 X129.469 Y63.368 E.04711
;WIDTH:0.419999
G1 X129.49 Y63.366 E.00066
G1 X129.991 Y63.344 E.01572
G1 X134.161 Y63.34 E.13075
M204 S1000
;WIPE_START
G1 F8640
G1 X134.221 Y63.34 E-.01385
G1 X134.334 Y63.378 E-.02753
G1 X134.41 Y63.529 E-.03903
G1 X134.41 Y66.645 E-.71959
;WIPE_END
G1 Z.6 F720
G1 X126.155 Y62.139 F10800
G1 Z.2 F720
G1 E.8 F2100
M204 S800
G1 F1200
G1 X126.061 Y61.944 E.00679
G1 X125.964 Y61.558 E.01248
G1 X125.947 Y61.096 E.0145
G1 X126.023 Y60.674 E.01344
G1 X126.204 Y60.249 E.01448
G1 X126.467 Y59.882 E.01416
G1 X126.758 Y59.61 E.01249
G1 X127.14 Y59.38 E.01398
G1 X127.54 Y59.243 E.01326
G1 X127.96 Y59.191 E.01327
G1 X128.321 Y59.216 E.01135
G1 X128.703 Y59.314 E.01237
G1 X129.058 Y59.483 E.01233
G1 X129.375 Y59.72 E.01241
G1 X129.614 Y59.975 E.01096
G1 X129.815 Y60.277 E.01137
G1 X129.956 Y60.606 E.01122
G1 X130.038 Y60.955 E.01124
G1 X130.057 Y61.35 E.0124
G1 X130 Y61.739 E.01233
G1 X129.872 Y62.108 E.01225
G1 X129.594 Y62.532 E.0159
G1 X129.204 Y62.874 E.01626
;WIDTH:0.437607
G1 X128.833 Y63.04 E.01334
G1 X128.084 Y63.129 E.02475
;WIDTH:0.420903
G1 X127.577 Y63.111 E.01594
;WIDTH:0.433861
G1 X127.117 Y63.024 E.01522
G1 X126.723 Y62.822 E.01439
;WIDTH:0.419999
G1 X126.405 Y62.535 E.01343
G1 X126.232 Y62.3 E.00915
G1 X126.181 Y62.193 E.00372
M204 S1000
;WIPE_START
G1 F8640
G1 X126.155 Y62.139 E-.01384
G1 X126.061 Y61.944 E-.04998
G1 X125.964 Y61.558 E-.0919
G1 X125.947 Y61.096 E-.10675
G1 X126.023 Y60.674 E-.09901
G1 X126.204 Y60.249 E-.10666
G1 X126.467 Y59.882 E-.10425
G1 X126.758 Y59.61 E-.09197
G1 X127.14 Y59.38 E-.10296
G1 X127.274 Y59.334 E-.03268
;WIPE_END
G1 Z.6 F720
G1 X134.276 Y94.221 F10800
G1 Z.2 F720
G1 E.8 F2100
M204 S800
;TYPE:Perimeter
G1 F1200
G1 X134.379 Y94.235 E.00326
G1 X134.56 Y94.326 E.00635
G1 X134.72 Y94.512 E.00769
G1 X134.787 Y94.779 E.00863
G1 X134.787 Y115.221 E.64094
G1 X134.72 Y115.488 E.00863
G1 X134.56 Y115.674 E.00769
G1 X134.379 Y115.765 E.00635
G1 X133.684 Y115.787 E.0218
G1 X129.999 Y115.783 E.11554
G1 X129.653 Y115.768 E.01086
G1 X130.005 Y116.126 E.01574
G1 X130.249 Y116.568 E.01583
G1 X130.386 Y117.014 E.01463
G1 X130.435 Y117.481 E.01472
G1 X130.393 Y117.948 E.0147
G1 X130.252 Y118.428 E.01569
G1 X130.032 Y118.843 E.01473
G1 X129.725 Y119.217 E.01517
G1 X129.378 Y119.507 E.01418
G1 X128.941 Y119.746 E.01562
G1 X128.492 Y119.885 E.01474
G1 X128.031 Y119.935 E.01454
G1 X127.538 Y119.889 E.01552
G1 X127.045 Y119.735 E.01619
G1 X126.624 Y119.502 E.01509
G1 X126.263 Y119.201 E.01474
G1 X125.968 Y118.835 E.01474
G1 X125.774 Y118.487 E.01249
G1 X125.626 Y118.04 E.01476
G1 X125.565 Y117.541 E.01576
G1 X125.602 Y117.077 E.01459
G1 X125.728 Y116.625 E.01471
G1 X125.946 Y116.199 E.015
G1 X126.322 Y115.77 E.01789
G1 X121.779 Y115.787 E.14244
G1 X121.599 Y115.758 E.00572
G1 X121.372 Y115.614 E.00843
